(G-CODE GENERATED BY FLATCAM v8.994 - www.flatcam.org - Version Date: 2020/11/7)

(Name: latch2_copperBottom.gbl_iso_combined_cnc)
(Type: G-code from Geometry)
(Units: MM)

(Created on lunedì, 10 maggio 2021 at 11:59)

(This preprocessor is the default preprocessor used by FlatCAM.)
(It is made to work with MACH3 compatible motion controllers.)

(TOOL DIAMETER: 0.1924 mm)
(Feedrate_XY: 60.0 mm/min)
(Feedrate_Z: 60.0 mm/min)
(Feedrate rapids 500.0 mm/min)

(Z_Cut: -0.08 mm)
(Z_Move: 1.0 mm)
(Z Start: None mm)
(Z End: 15.0 mm)
(X,Y End: 0.0000, 0.0000 mm)
(Steps per circle: 64)
(Preprocessor Geometry: default)

(X range:    1.2480 ...   38.8564  mm)
(Y range:    1.9951 ...   32.0542  mm)

(Spindle Speed: 15000.0 RPM)
G21
G90
G94

G01 F60.00

M5
G00 Z25.0000
G00 X0.0000 Y0.0000
T1
M6    
(MSG, Change to Tool Dia = 0.1924)
M0
G00 Z25.0000

(splinde speed gradually to 15000rpm)
M03 S1000
G4 P0.5
M03 S2000
G4 P0.5
M03 S5000
G4 P0.5
M03 S7500


G01 F60.00
G00 X12.8884 Y3.4255
G01 F60.00
G01 Z-0.0800
G01 F60.00
G01 X12.8871 Y3.4107
G01 X12.8820 Y3.3020
G01 X12.8878 Y3.1834
G01 X12.9052 Y3.0659
G01 X12.9341 Y2.9508
G01 X12.9741 Y2.8389
G01 X13.0249 Y2.7316
G01 X13.0859 Y2.6298
G01 X13.1566 Y2.5344
G01 X13.2364 Y2.4464
G01 X13.3244 Y2.3666
G01 X13.4198 Y2.2959
G01 X13.5216 Y2.2349
G01 X13.6289 Y2.1841
G01 X13.7408 Y2.1441
G01 X13.8559 Y2.1152
G01 X13.9734 Y2.0978
G01 X14.0920 Y2.0920
G01 X14.2106 Y2.0978
G01 X14.3281 Y2.1152
G01 X14.4432 Y2.1441
G01 X14.5551 Y2.1841
G01 X14.6624 Y2.2349
G01 X14.7642 Y2.2959
G01 X14.8596 Y2.3666
G01 X14.9476 Y2.4464
G01 X15.0274 Y2.5344
G01 X15.0981 Y2.6298
G01 X15.1591 Y2.7316
G01 X15.2099 Y2.8389
G01 X15.2499 Y2.9508
G01 X15.2788 Y3.0659
G01 X15.2962 Y3.1834
G01 X15.3020 Y3.3020
G01 X15.2962 Y3.4206
G01 X15.2788 Y3.5381
G01 X15.2499 Y3.6532
G01 X15.2099 Y3.7651
G01 X15.1591 Y3.8724
G01 X15.0981 Y3.9742
G01 X15.0274 Y4.0696
G01 X14.9476 Y4.1576
G01 X14.8596 Y4.2374
G01 X14.7642 Y4.3081
G01 X14.6624 Y4.3691
G01 X14.5551 Y4.4199
G01 X14.4432 Y4.4599
G01 X14.3281 Y4.4888
G01 X14.2106 Y4.5062
G01 X14.0920 Y4.5120
G01 X13.9734 Y4.5062
G01 X13.8559 Y4.4888
G01 X13.7408 Y4.4599
G01 X13.6289 Y4.4199
G01 X13.5216 Y4.3691
G01 X13.4198 Y4.3081
G01 X13.3244 Y4.2374
G01 X13.2364 Y4.1576
G01 X13.1566 Y4.0696
G01 X13.0859 Y3.9742
G01 X13.0249 Y3.8724
G01 X12.9741 Y3.7651
G01 X12.9341 Y3.6532
G01 X12.9052 Y3.5381
G01 X12.8884 Y3.4255
G00 Z1.0000
G00 X12.9934 Y3.4126
G01 F60.00
G01 Z-0.0800
G01 F60.00
G01 X12.9928 Y3.4055
G01 X12.9878 Y3.3020
G01 X12.9931 Y3.1938
G01 X13.0090 Y3.0866
G01 X13.0353 Y2.9815
G01 X13.0719 Y2.8794
G01 X13.1182 Y2.7815
G01 X13.1739 Y2.6885
G01 X13.2384 Y2.6015
G01 X13.3112 Y2.5212
G01 X13.3915 Y2.4484
G01 X13.4785 Y2.3839
G01 X13.5715 Y2.3282
G01 X13.6694 Y2.2819
G01 X13.7715 Y2.2453
G01 X13.8766 Y2.2190
G01 X13.9838 Y2.2031
G01 X14.0920 Y2.1978
G01 X14.2002 Y2.2031
G01 X14.3074 Y2.2190
G01 X14.4125 Y2.2453
G01 X14.5146 Y2.2819
G01 X14.6125 Y2.3282
G01 X14.7055 Y2.3839
G01 X14.7925 Y2.4484
G01 X14.8728 Y2.5212
G01 X14.9456 Y2.6015
G01 X15.0101 Y2.6885
G01 X15.0658 Y2.7815
G01 X15.1121 Y2.8794
G01 X15.1487 Y2.9815
G01 X15.1750 Y3.0866
G01 X15.1909 Y3.1938
G01 X15.1962 Y3.3020
G01 X15.1909 Y3.4102
G01 X15.1750 Y3.5174
G01 X15.1487 Y3.6225
G01 X15.1121 Y3.7246
G01 X15.0658 Y3.8225
G01 X15.0101 Y3.9155
G01 X14.9456 Y4.0025
G01 X14.8728 Y4.0828
G01 X14.7925 Y4.1556
G01 X14.7055 Y4.2201
G01 X14.6125 Y4.2758
G01 X14.5146 Y4.3221
G01 X14.4125 Y4.3587
G01 X14.3074 Y4.3850
G01 X14.2002 Y4.4009
G01 X14.0920 Y4.4062
G01 X13.9838 Y4.4009
G01 X13.8766 Y4.3850
G01 X13.7715 Y4.3587
G01 X13.6694 Y4.3221
G01 X13.5715 Y4.2758
G01 X13.4785 Y4.2201
G01 X13.3915 Y4.1556
G01 X13.3112 Y4.0828
G01 X13.2384 Y4.0025
G01 X13.1739 Y3.9155
G01 X13.1182 Y3.8225
G01 X13.0719 Y3.7246
G01 X13.0353 Y3.6225
G01 X13.0090 Y3.5174
G01 X12.9934 Y3.4126
G00 Z1.0000
G00 X19.9540 Y3.2677
G01 F60.00
G01 Z-0.0800
G01 F60.00
G01 X19.9527 Y3.2529
G01 X19.9479 Y3.1496
G01 X19.9534 Y3.0364
G01 X19.9701 Y2.9244
G01 X19.9976 Y2.8145
G01 X20.0358 Y2.7078
G01 X20.0842 Y2.6054
G01 X20.1425 Y2.5082
G01 X20.2099 Y2.4172
G01 X20.2860 Y2.3332
G01 X20.3700 Y2.2571
G01 X20.4610 Y2.1897
G01 X20.5582 Y2.1314
G01 X20.6606 Y2.0830
G01 X20.7673 Y2.0448
G01 X20.8772 Y2.0173
G01 X20.9892 Y2.0006
G01 X21.1024 Y1.9951
G01 X21.2156 Y2.0006
G01 X21.3276 Y2.0173
G01 X21.4375 Y2.0448
G01 X21.5442 Y2.0830
G01 X21.6466 Y2.1314
G01 X21.7438 Y2.1897
G01 X21.8348 Y2.2571
G01 X21.9188 Y2.3332
G01 X21.9949 Y2.4172
G01 X22.0623 Y2.5082
G01 X22.1206 Y2.6054
G01 X22.1690 Y2.7078
G01 X22.2072 Y2.8145
G01 X22.2347 Y2.9244
G01 X22.2514 Y3.0364
G01 X22.2569 Y3.1496
G01 X22.2514 Y3.2628
G01 X22.2347 Y3.3748
G01 X22.2072 Y3.4847
G01 X22.1690 Y3.5914
G01 X22.1206 Y3.6938
G01 X22.0623 Y3.7910
G01 X21.9949 Y3.8820
G01 X21.9188 Y3.9660
G01 X21.8348 Y4.0421
G01 X21.7438 Y4.1095
G01 X21.6466 Y4.1678
G01 X21.5442 Y4.2162
G01 X21.4375 Y4.2544
G01 X21.3276 Y4.2819
G01 X21.2156 Y4.2986
G01 X21.1024 Y4.3041
G01 X20.9892 Y4.2986
G01 X20.8772 Y4.2819
G01 X20.7673 Y4.2544
G01 X20.6606 Y4.2162
G01 X20.5582 Y4.1678
G01 X20.4610 Y4.1095
G01 X20.3700 Y4.0421
G01 X20.2860 Y3.9660
G01 X20.2099 Y3.8820
G01 X20.1425 Y3.7910
G01 X20.0842 Y3.6938
G01 X20.0358 Y3.5914
G01 X19.9976 Y3.4847
G01 X19.9701 Y3.3748
G01 X19.9540 Y3.2677
G00 Z1.0000
G00 X20.0590 Y3.2547
G01 F60.00
G01 Z-0.0800
G01 F60.00
G01 X20.0584 Y3.2477
G01 X20.0537 Y3.1496
G01 X20.0588 Y3.0468
G01 X20.0739 Y2.9450
G01 X20.0989 Y2.8452
G01 X20.1335 Y2.7483
G01 X20.1775 Y2.6552
G01 X20.2304 Y2.5670
G01 X20.2917 Y2.4843
G01 X20.3609 Y2.4081
G01 X20.4371 Y2.3389
G01 X20.5198 Y2.2776
G01 X20.6080 Y2.2247
G01 X20.7011 Y2.1807
G01 X20.7980 Y2.1461
G01 X20.8978 Y2.1211
G01 X20.9996 Y2.1060
G01 X21.1024 Y2.1009
G01 X21.2052 Y2.1060
G01 X21.3070 Y2.1211
G01 X21.4068 Y2.1461
G01 X21.5037 Y2.1807
G01 X21.5968 Y2.2247
G01 X21.6850 Y2.2776
G01 X21.7677 Y2.3389
G01 X21.8439 Y2.4081
G01 X21.9131 Y2.4843
G01 X21.9744 Y2.5670
G01 X22.0273 Y2.6552
G01 X22.0713 Y2.7483
G01 X22.1059 Y2.8452
G01 X22.1309 Y2.9450
G01 X22.1460 Y3.0468
G01 X22.1511 Y3.1496
G01 X22.1460 Y3.2524
G01 X22.1309 Y3.3542
G01 X22.1059 Y3.4540
G01 X22.0713 Y3.5509
G01 X22.0273 Y3.6440
G01 X21.9744 Y3.7322
G01 X21.9131 Y3.8149
G01 X21.8439 Y3.8911
G01 X21.7677 Y3.9603
G01 X21.6850 Y4.0216
G01 X21.5968 Y4.0745
G01 X21.5037 Y4.1185
G01 X21.4068 Y4.1531
G01 X21.3070 Y4.1781
G01 X21.2052 Y4.1932
G01 X21.1024 Y4.1983
G01 X20.9996 Y4.1932
G01 X20.8978 Y4.1781
G01 X20.7980 Y4.1531
G01 X20.7011 Y4.1185
G01 X20.6080 Y4.0745
G01 X20.5198 Y4.0216
G01 X20.4371 Y3.9603
G01 X20.3609 Y3.8911
G01 X20.2917 Y3.8149
G01 X20.2304 Y3.7322
G01 X20.1775 Y3.6440
G01 X20.1335 Y3.5509
G01 X20.0989 Y3.4540
G01 X20.0739 Y3.3542
G01 X20.0590 Y3.2547
G00 Z1.0000
G00 X22.9519 Y3.4250
G01 F60.00
G01 Z-0.0800
G01 F60.00
G01 X22.9499 Y3.4053
G01 X22.9451 Y3.3020
G01 X22.9506 Y3.1888
G01 X22.9673 Y3.0768
G01 X22.9948 Y2.9669
G01 X23.0330 Y2.8602
G01 X23.0814 Y2.7578
G01 X23.1397 Y2.6606
G01 X23.2071 Y2.5696
G01 X23.2832 Y2.4856
G01 X23.3672 Y2.4095
G01 X23.4582 Y2.3421
G01 X23.5554 Y2.2838
G01 X23.6578 Y2.2354
G01 X23.7645 Y2.1972
G01 X23.8744 Y2.1697
G01 X23.9864 Y2.1530
G01 X24.0996 Y2.1475
G01 X24.2128 Y2.1530
G01 X24.3248 Y2.1697
G01 X24.4347 Y2.1972
G01 X24.5414 Y2.2354
G01 X24.6438 Y2.2838
G01 X24.7410 Y2.3421
G01 X24.8320 Y2.4095
G01 X24.9160 Y2.4856
G01 X24.9921 Y2.5696
G01 X25.0595 Y2.6606
G01 X25.1178 Y2.7578
G01 X25.1662 Y2.8602
G01 X25.2044 Y2.9669
G01 X25.2319 Y3.0768
G01 X25.2486 Y3.1888
G01 X25.2541 Y3.3020
G01 X25.2486 Y3.4152
G01 X25.2319 Y3.5272
G01 X25.2044 Y3.6371
G01 X25.1662 Y3.7438
G01 X25.1178 Y3.8462
G01 X25.0595 Y3.9434
G01 X24.9921 Y4.0344
G01 X24.9160 Y4.1184
G01 X24.8320 Y4.1945
G01 X24.7410 Y4.2619
G01 X24.6438 Y4.3202
G01 X24.5414 Y4.3686
G01 X24.4347 Y4.4068
G01 X24.3248 Y4.4343
G01 X24.2128 Y4.4510
G01 X24.0996 Y4.4565
G01 X23.9864 Y4.4510
G01 X23.8744 Y4.4343
G01 X23.7645 Y4.4068
G01 X23.6578 Y4.3686
G01 X23.5554 Y4.3202
G01 X23.4582 Y4.2619
G01 X23.3672 Y4.1945
G01 X23.2832 Y4.1184
G01 X23.2071 Y4.0344
G01 X23.1397 Y3.9434
G01 X23.0814 Y3.8462
G01 X23.0330 Y3.7438
G01 X22.9948 Y3.6371
G01 X22.9673 Y3.5272
G01 X22.9519 Y3.4250
G00 Z1.0000
G00 X23.0565 Y3.4095
G01 F60.00
G01 Z-0.0800
G01 F60.00
G01 X23.0556 Y3.4001
G01 X23.0509 Y3.3020
G01 X23.0560 Y3.1992
G01 X23.0711 Y3.0974
G01 X23.0961 Y2.9976
G01 X23.1307 Y2.9007
G01 X23.1747 Y2.8076
G01 X23.2276 Y2.7194
G01 X23.2889 Y2.6367
G01 X23.3581 Y2.5605
G01 X23.4343 Y2.4913
G01 X23.5170 Y2.4300
G01 X23.6052 Y2.3771
G01 X23.6983 Y2.3331
G01 X23.7952 Y2.2985
G01 X23.8950 Y2.2735
G01 X23.9968 Y2.2584
G01 X24.0996 Y2.2533
G01 X24.2024 Y2.2584
G01 X24.3042 Y2.2735
G01 X24.4040 Y2.2985
G01 X24.5009 Y2.3331
G01 X24.5940 Y2.3771
G01 X24.6822 Y2.4300
G01 X24.7649 Y2.4913
G01 X24.8411 Y2.5605
G01 X24.9103 Y2.6367
G01 X24.9716 Y2.7194
G01 X25.0245 Y2.8076
G01 X25.0685 Y2.9007
G01 X25.1031 Y2.9976
G01 X25.1281 Y3.0974
G01 X25.1432 Y3.1992
G01 X25.1483 Y3.3020
G01 X25.1432 Y3.4048
G01 X25.1281 Y3.5066
G01 X25.1031 Y3.6064
G01 X25.0685 Y3.7033
G01 X25.0245 Y3.7964
G01 X24.9716 Y3.8846
G01 X24.9103 Y3.9673
G01 X24.8411 Y4.0435
G01 X24.7649 Y4.1127
G01 X24.6822 Y4.1740
G01 X24.5940 Y4.2269
G01 X24.5009 Y4.2709
G01 X24.4040 Y4.3055
G01 X24.3042 Y4.3305
G01 X24.2024 Y4.3456
G01 X24.0996 Y4.3507
G01 X23.9968 Y4.3456
G01 X23.8950 Y4.3305
G01 X23.7952 Y4.3055
G01 X23.6983 Y4.2709
G01 X23.6052 Y4.2269
G01 X23.5170 Y4.1740
G01 X23.4343 Y4.1127
G01 X23.3581 Y4.0435
G01 X23.2889 Y3.9673
G01 X23.2276 Y3.8846
G01 X23.1747 Y3.7964
G01 X23.1307 Y3.7033
G01 X23.0961 Y3.6064
G01 X23.0711 Y3.5066
G01 X23.0565 Y3.4095
G00 Z1.0000
G00 X25.9491 Y3.4250
G01 F60.00
G01 Z-0.0800
G01 F60.00
G01 X25.9471 Y3.4053
G01 X25.9423 Y3.3020
G01 X25.9478 Y3.1888
G01 X25.9645 Y3.0768
G01 X25.9920 Y2.9669
G01 X26.0302 Y2.8602
G01 X26.0786 Y2.7578
G01 X26.1369 Y2.6606
G01 X26.2043 Y2.5696
G01 X26.2804 Y2.4856
G01 X26.3644 Y2.4095
G01 X26.4554 Y2.3421
G01 X26.5526 Y2.2838
G01 X26.6550 Y2.2354
G01 X26.7617 Y2.1972
G01 X26.8716 Y2.1697
G01 X26.9836 Y2.1530
G01 X27.0968 Y2.1475
G01 X27.2100 Y2.1530
G01 X27.3220 Y2.1697
G01 X27.4319 Y2.1972
G01 X27.5386 Y2.2354
G01 X27.6410 Y2.2838
G01 X27.7382 Y2.3421
G01 X27.8292 Y2.4095
G01 X27.9132 Y2.4856
G01 X27.9893 Y2.5696
G01 X28.0567 Y2.6606
G01 X28.1150 Y2.7578
G01 X28.1634 Y2.8602
G01 X28.2016 Y2.9669
G01 X28.2291 Y3.0768
G01 X28.2458 Y3.1888
G01 X28.2513 Y3.3020
G01 X28.2458 Y3.4152
G01 X28.2291 Y3.5272
G01 X28.2016 Y3.6371
G01 X28.1634 Y3.7438
G01 X28.1150 Y3.8462
G01 X28.0567 Y3.9434
G01 X27.9893 Y4.0344
G01 X27.9132 Y4.1184
G01 X27.8292 Y4.1945
G01 X27.7382 Y4.2619
G01 X27.6410 Y4.3202
G01 X27.5386 Y4.3686
G01 X27.4319 Y4.4068
G01 X27.3220 Y4.4343
G01 X27.2100 Y4.4510
G01 X27.0968 Y4.4565
G01 X26.9836 Y4.4510
G01 X26.8716 Y4.4343
G01 X26.7617 Y4.4068
G01 X26.6550 Y4.3686
G01 X26.5526 Y4.3202
G01 X26.4554 Y4.2619
G01 X26.3644 Y4.1945
G01 X26.2804 Y4.1184
G01 X26.2043 Y4.0344
G01 X26.1369 Y3.9434
G01 X26.0786 Y3.8462
G01 X26.0302 Y3.7438
G01 X25.9920 Y3.6371
G01 X25.9645 Y3.5272
G01 X25.9491 Y3.4250
G00 Z1.0000
G00 X26.0537 Y3.4095
G01 F60.00
G01 Z-0.0800
G01 F60.00
G01 X26.0528 Y3.4001
G01 X26.0481 Y3.3020
G01 X26.0532 Y3.1992
G01 X26.0683 Y3.0974
G01 X26.0933 Y2.9976
G01 X26.1279 Y2.9007
G01 X26.1719 Y2.8076
G01 X26.2248 Y2.7194
G01 X26.2861 Y2.6367
G01 X26.3553 Y2.5605
G01 X26.4315 Y2.4913
G01 X26.5142 Y2.4300
G01 X26.6024 Y2.3771
G01 X26.6955 Y2.3331
G01 X26.7924 Y2.2985
G01 X26.8922 Y2.2735
G01 X26.9940 Y2.2584
G01 X27.0968 Y2.2533
G01 X27.1996 Y2.2584
G01 X27.3014 Y2.2735
G01 X27.4012 Y2.2985
G01 X27.4981 Y2.3331
G01 X27.5912 Y2.3771
G01 X27.6794 Y2.4300
G01 X27.7621 Y2.4913
G01 X27.8383 Y2.5605
G01 X27.9075 Y2.6367
G01 X27.9688 Y2.7194
G01 X28.0217 Y2.8076
G01 X28.0657 Y2.9007
G01 X28.1003 Y2.9976
G01 X28.1253 Y3.0974
G01 X28.1404 Y3.1992
G01 X28.1455 Y3.3020
G01 X28.1404 Y3.4048
G01 X28.1253 Y3.5066
G01 X28.1003 Y3.6064
G01 X28.0657 Y3.7033
G01 X28.0217 Y3.7964
G01 X27.9688 Y3.8846
G01 X27.9075 Y3.9673
G01 X27.8383 Y4.0435
G01 X27.7621 Y4.1127
G01 X27.6794 Y4.1740
G01 X27.5912 Y4.2269
G01 X27.4981 Y4.2709
G01 X27.4012 Y4.3055
G01 X27.3014 Y4.3305
G01 X27.1996 Y4.3456
G01 X27.0968 Y4.3507
G01 X26.9940 Y4.3456
G01 X26.8922 Y4.3305
G01 X26.7924 Y4.3055
G01 X26.6955 Y4.2709
G01 X26.6024 Y4.2269
G01 X26.5142 Y4.1740
G01 X26.4315 Y4.1127
G01 X26.3553 Y4.0435
G01 X26.2861 Y3.9673
G01 X26.2248 Y3.8846
G01 X26.1719 Y3.7964
G01 X26.1279 Y3.7033
G01 X26.0933 Y3.6064
G01 X26.0683 Y3.5066
G01 X26.0537 Y3.4095
G00 Z1.0000
G00 X31.8543 Y3.4288
G01 F60.00
G01 Z-0.0800
G01 F60.00
G01 X31.8530 Y3.4140
G01 X31.8478 Y3.3020
G01 X31.8538 Y3.1801
G01 X31.8717 Y3.0594
G01 X31.9013 Y2.9411
G01 X31.9424 Y2.8262
G01 X31.9946 Y2.7159
G01 X32.0573 Y2.6112
G01 X32.1300 Y2.5132
G01 X32.2120 Y2.4228
G01 X32.3024 Y2.3408
G01 X32.4004 Y2.2681
G01 X32.5051 Y2.2054
G01 X32.6154 Y2.1532
G01 X32.7303 Y2.1121
G01 X32.8486 Y2.0825
G01 X32.9693 Y2.0646
G01 X33.0912 Y2.0586
G01 X33.2131 Y2.0646
G01 X33.3338 Y2.0825
G01 X33.4521 Y2.1121
G01 X33.5670 Y2.1532
G01 X33.6773 Y2.2054
G01 X33.7820 Y2.2681
G01 X33.8800 Y2.3408
G01 X33.9704 Y2.4228
G01 X34.0524 Y2.5132
G01 X34.1251 Y2.6112
G01 X34.1878 Y2.7159
G01 X34.2400 Y2.8262
G01 X34.2811 Y2.9411
G01 X34.3107 Y3.0594
G01 X34.3286 Y3.1801
G01 X34.3346 Y3.3020
G01 X34.3286 Y3.4239
G01 X34.3107 Y3.5446
G01 X34.2811 Y3.6629
G01 X34.2400 Y3.7778
G01 X34.1878 Y3.8881
G01 X34.1251 Y3.9928
G01 X34.0524 Y4.0908
G01 X33.9704 Y4.1812
G01 X33.8800 Y4.2632
G01 X33.7820 Y4.3359
G01 X33.6773 Y4.3986
G01 X33.5670 Y4.4508
G01 X33.4521 Y4.4919
G01 X33.3338 Y4.5215
G01 X33.2131 Y4.5394
G01 X33.0912 Y4.5454
G01 X32.9693 Y4.5394
G01 X32.8486 Y4.5215
G01 X32.7303 Y4.4919
G01 X32.6154 Y4.4508
G01 X32.5051 Y4.3986
G01 X32.4004 Y4.3359
G01 X32.3024 Y4.2632
G01 X32.2120 Y4.1812
G01 X32.1300 Y4.0908
G01 X32.0573 Y3.9928
G01 X31.9946 Y3.8881
G01 X31.9424 Y3.7778
G01 X31.9013 Y3.6629
G01 X31.8717 Y3.5446
G01 X31.8543 Y3.4288
G00 Z1.0000
G00 X31.9593 Y3.4159
G01 F60.00
G01 Z-0.0800
G01 F60.00
G01 X31.9587 Y3.4088
G01 X31.9536 Y3.3020
G01 X31.9591 Y3.1905
G01 X31.9755 Y3.0801
G01 X32.0026 Y2.9718
G01 X32.0402 Y2.8667
G01 X32.0879 Y2.7657
G01 X32.1453 Y2.6700
G01 X32.2118 Y2.5803
G01 X32.2868 Y2.4976
G01 X32.3695 Y2.4226
G01 X32.4592 Y2.3561
G01 X32.5549 Y2.2987
G01 X32.6559 Y2.2510
G01 X32.7610 Y2.2134
G01 X32.8693 Y2.1863
G01 X32.9797 Y2.1699
G01 X33.0912 Y2.1644
G01 X33.2027 Y2.1699
G01 X33.3131 Y2.1863
G01 X33.4214 Y2.2134
G01 X33.5265 Y2.2510
G01 X33.6275 Y2.2987
G01 X33.7232 Y2.3561
G01 X33.8129 Y2.4226
G01 X33.8956 Y2.4976
G01 X33.9706 Y2.5803
G01 X34.0371 Y2.6700
G01 X34.0945 Y2.7657
G01 X34.1422 Y2.8667
G01 X34.1798 Y2.9718
G01 X34.2069 Y3.0801
G01 X34.2233 Y3.1905
G01 X34.2288 Y3.3020
G01 X34.2233 Y3.4135
G01 X34.2069 Y3.5239
G01 X34.1798 Y3.6322
G01 X34.1422 Y3.7373
G01 X34.0945 Y3.8383
G01 X34.0371 Y3.9340
G01 X33.9706 Y4.0237
G01 X33.8956 Y4.1064
G01 X33.8129 Y4.1814
G01 X33.7232 Y4.2479
G01 X33.6275 Y4.3053
G01 X33.5265 Y4.3530
G01 X33.4214 Y4.3906
G01 X33.3131 Y4.4177
G01 X33.2027 Y4.4341
G01 X33.0912 Y4.4396
G01 X32.9797 Y4.4341
G01 X32.8693 Y4.4177
G01 X32.7610 Y4.3906
G01 X32.6559 Y4.3530
G01 X32.5549 Y4.3053
G01 X32.4592 Y4.2479
G01 X32.3695 Y4.1814
G01 X32.2868 Y4.1064
G01 X32.2118 Y4.0237
G01 X32.1453 Y3.9340
G01 X32.0879 Y3.8383
G01 X32.0402 Y3.7373
G01 X32.0026 Y3.6322
G01 X31.9755 Y3.5239
G01 X31.9593 Y3.4159
G00 Z1.0000
G00 X35.9181 Y3.4238
G01 F60.00
G01 Z-0.0800
G01 F60.00
G01 X35.9168 Y3.4090
G01 X35.9118 Y3.3020
G01 X35.9175 Y3.1851
G01 X35.9347 Y3.0693
G01 X35.9631 Y2.9558
G01 X36.0026 Y2.8456
G01 X36.0526 Y2.7398
G01 X36.1128 Y2.6394
G01 X36.1825 Y2.5454
G01 X36.2611 Y2.4587
G01 X36.3478 Y2.3801
G01 X36.4418 Y2.3104
G01 X36.5422 Y2.2502
G01 X36.6480 Y2.2002
G01 X36.7582 Y2.1607
G01 X36.8717 Y2.1323
G01 X36.9875 Y2.1151
G01 X37.1044 Y2.1094
G01 X37.2213 Y2.1151
G01 X37.3371 Y2.1323
G01 X37.4506 Y2.1607
G01 X37.5608 Y2.2002
G01 X37.6666 Y2.2502
G01 X37.7670 Y2.3104
G01 X37.8610 Y2.3801
G01 X37.9477 Y2.4587
G01 X38.0263 Y2.5454
G01 X38.0960 Y2.6394
G01 X38.1562 Y2.7398
G01 X38.2062 Y2.8456
G01 X38.2457 Y2.9558
G01 X38.2741 Y3.0693
G01 X38.2913 Y3.1851
G01 X38.2970 Y3.3020
G01 X38.2913 Y3.4189
G01 X38.2741 Y3.5347
G01 X38.2457 Y3.6482
G01 X38.2062 Y3.7584
G01 X38.1562 Y3.8642
G01 X38.0960 Y3.9646
G01 X38.0263 Y4.0586
G01 X37.9477 Y4.1453
G01 X37.8610 Y4.2239
G01 X37.7670 Y4.2936
G01 X37.6666 Y4.3538
G01 X37.5608 Y4.4038
G01 X37.4506 Y4.4433
G01 X37.3371 Y4.4717
G01 X37.2213 Y4.4889
G01 X37.1044 Y4.4946
G01 X36.9875 Y4.4889
G01 X36.8717 Y4.4717
G01 X36.7582 Y4.4433
G01 X36.6480 Y4.4038
G01 X36.5422 Y4.3538
G01 X36.4418 Y4.2936
G01 X36.3478 Y4.2239
G01 X36.2611 Y4.1453
G01 X36.1825 Y4.0586
G01 X36.1128 Y3.9646
G01 X36.0526 Y3.8642
G01 X36.0026 Y3.7584
G01 X35.9631 Y3.6482
G01 X35.9347 Y3.5347
G01 X35.9181 Y3.4238
G00 Z1.0000
G00 X36.0231 Y3.4109
G01 F60.00
G01 Z-0.0800
G01 F60.00
G01 X36.0225 Y3.4038
G01 X36.0176 Y3.3020
G01 X36.0228 Y3.1955
G01 X36.0385 Y3.0900
G01 X36.0644 Y2.9865
G01 X36.1003 Y2.8861
G01 X36.1459 Y2.7897
G01 X36.2008 Y2.6982
G01 X36.2643 Y2.6125
G01 X36.3359 Y2.5335
G01 X36.4149 Y2.4619
G01 X36.5006 Y2.3984
G01 X36.5921 Y2.3435
G01 X36.6885 Y2.2979
G01 X36.7889 Y2.2620
G01 X36.8924 Y2.2361
G01 X36.9979 Y2.2204
G01 X37.1044 Y2.2152
G01 X37.2109 Y2.2204
G01 X37.3164 Y2.2361
G01 X37.4199 Y2.2620
G01 X37.5203 Y2.2979
G01 X37.6167 Y2.3435
G01 X37.7082 Y2.3984
G01 X37.7939 Y2.4619
G01 X37.8729 Y2.5335
G01 X37.9445 Y2.6125
G01 X38.0080 Y2.6982
G01 X38.0629 Y2.7897
G01 X38.1085 Y2.8861
G01 X38.1444 Y2.9865
G01 X38.1703 Y3.0900
G01 X38.1860 Y3.1955
G01 X38.1912 Y3.3020
G01 X38.1860 Y3.4085
G01 X38.1703 Y3.5140
G01 X38.1444 Y3.6175
G01 X38.1085 Y3.7179
G01 X38.0629 Y3.8143
G01 X38.0080 Y3.9058
G01 X37.9445 Y3.9915
G01 X37.8729 Y4.0705
G01 X37.7939 Y4.1421
G01 X37.7082 Y4.2056
G01 X37.6167 Y4.2605
G01 X37.5203 Y4.3061
G01 X37.4199 Y4.3420
G01 X37.3164 Y4.3679
G01 X37.2109 Y4.3836
G01 X37.1044 Y4.3888
G01 X36.9979 Y4.3836
G01 X36.8924 Y4.3679
G01 X36.7889 Y4.3420
G01 X36.6885 Y4.3061
G01 X36.5921 Y4.2605
G01 X36.5006 Y4.2056
G01 X36.4149 Y4.1421
G01 X36.3359 Y4.0705
G01 X36.2643 Y3.9915
G01 X36.2008 Y3.9058
G01 X36.1459 Y3.8143
G01 X36.1003 Y3.7179
G01 X36.0644 Y3.6175
G01 X36.0385 Y3.5140
G01 X36.0231 Y3.4109
G00 Z1.0000
G00 X36.0058 Y7.4258
G01 F60.00
G01 Z-0.0800
G01 F60.00
G01 X36.0052 Y7.4187
G01 X36.0002 Y7.3152
G01 X36.0055 Y7.2070
G01 X36.0214 Y7.0998
G01 X36.0477 Y6.9947
G01 X36.0843 Y6.8926
G01 X36.1306 Y6.7947
G01 X36.1863 Y6.7017
G01 X36.2508 Y6.6147
G01 X36.3236 Y6.5344
G01 X36.4039 Y6.4616
G01 X36.4909 Y6.3971
G01 X36.5839 Y6.3414
G01 X36.6818 Y6.2951
G01 X36.7839 Y6.2585
G01 X36.8890 Y6.2322
G01 X36.9962 Y6.2163
G01 X37.1044 Y6.2110
G01 X37.2126 Y6.2163
G01 X37.3198 Y6.2322
G01 X37.4249 Y6.2585
G01 X37.5270 Y6.2951
G01 X37.6249 Y6.3414
G01 X37.7179 Y6.3971
G01 X37.8049 Y6.4616
G01 X37.8852 Y6.5344
G01 X37.9580 Y6.6147
G01 X38.0225 Y6.7017
G01 X38.0782 Y6.7947
G01 X38.1245 Y6.8926
G01 X38.1611 Y6.9947
G01 X38.1874 Y7.0998
G01 X38.2033 Y7.2070
G01 X38.2086 Y7.3152
G01 X38.2033 Y7.4234
G01 X38.1874 Y7.5306
G01 X38.1611 Y7.6357
G01 X38.1245 Y7.7378
G01 X38.0782 Y7.8357
G01 X38.0225 Y7.9287
G01 X37.9580 Y8.0157
G01 X37.8852 Y8.0960
G01 X37.8049 Y8.1688
G01 X37.7179 Y8.2333
G01 X37.6249 Y8.2890
G01 X37.5270 Y8.3353
G01 X37.4249 Y8.3719
G01 X37.3198 Y8.3982
G01 X37.2126 Y8.4141
G01 X37.1044 Y8.4194
G01 X36.9962 Y8.4141
G01 X36.8890 Y8.3982
G01 X36.7839 Y8.3719
G01 X36.6818 Y8.3353
G01 X36.5839 Y8.2890
G01 X36.4909 Y8.2333
G01 X36.4039 Y8.1688
G01 X36.3236 Y8.0960
G01 X36.2508 Y8.0157
G01 X36.1863 Y7.9287
G01 X36.1306 Y7.8357
G01 X36.0843 Y7.7378
G01 X36.0477 Y7.6357
G01 X36.0214 Y7.5306
G01 X36.0058 Y7.4258
G00 Z1.0000
G00 X35.9008 Y7.4387
G01 F60.00
G01 Z-0.0800
G01 F60.00
G01 X35.8995 Y7.4239
G01 X35.8944 Y7.3152
G01 X35.9002 Y7.1966
G01 X35.9176 Y7.0791
G01 X35.9465 Y6.9640
G01 X35.9865 Y6.8521
G01 X36.0373 Y6.7448
G01 X36.0983 Y6.6430
G01 X36.1690 Y6.5476
G01 X36.2488 Y6.4596
G01 X36.3368 Y6.3798
G01 X36.4322 Y6.3091
G01 X36.5340 Y6.2481
G01 X36.6413 Y6.1973
G01 X36.7532 Y6.1573
G01 X36.8683 Y6.1284
G01 X36.9858 Y6.1110
G01 X37.1044 Y6.1052
G01 X37.2230 Y6.1110
G01 X37.3405 Y6.1284
G01 X37.4556 Y6.1573
G01 X37.5675 Y6.1973
G01 X37.6748 Y6.2481
G01 X37.7766 Y6.3091
G01 X37.8720 Y6.3798
G01 X37.9600 Y6.4596
G01 X38.0398 Y6.5476
G01 X38.1105 Y6.6430
G01 X38.1715 Y6.7448
G01 X38.2223 Y6.8521
G01 X38.2623 Y6.9640
G01 X38.2912 Y7.0791
G01 X38.3086 Y7.1966
G01 X38.3144 Y7.3152
G01 X38.3086 Y7.4338
G01 X38.2912 Y7.5513
G01 X38.2623 Y7.6664
G01 X38.2223 Y7.7783
G01 X38.1715 Y7.8856
G01 X38.1105 Y7.9874
G01 X38.0398 Y8.0828
G01 X37.9600 Y8.1708
G01 X37.8720 Y8.2506
G01 X37.7766 Y8.3213
G01 X37.6748 Y8.3823
G01 X37.5675 Y8.4331
G01 X37.4556 Y8.4731
G01 X37.3405 Y8.5020
G01 X37.2230 Y8.5194
G01 X37.1044 Y8.5252
G01 X36.9858 Y8.5194
G01 X36.8683 Y8.5020
G01 X36.7532 Y8.4731
G01 X36.6413 Y8.4331
G01 X36.5340 Y8.3823
G01 X36.4322 Y8.3213
G01 X36.3368 Y8.2506
G01 X36.2488 Y8.1708
G01 X36.1690 Y8.0828
G01 X36.0983 Y7.9874
G01 X36.0373 Y7.8856
G01 X35.9865 Y7.7783
G01 X35.9465 Y7.6664
G01 X35.9176 Y7.5513
G01 X35.9008 Y7.4387
G00 Z1.0000
G00 X29.8612 Y8.9682
G01 F60.00
G01 Z-0.0800
G01 F60.00
G01 X29.8445 Y8.9650
G01 X29.0526 Y8.9650
G01 X29.0377 Y8.9645
G01 X29.0279 Y8.9635
G01 X29.0132 Y8.9611
G01 X29.0035 Y8.9590
G01 X28.9940 Y8.9563
G01 X28.9799 Y8.9515
G01 X28.9662 Y8.9456
G01 X28.9574 Y8.9412
G01 X28.9445 Y8.9337
G01 X28.9323 Y8.9253
G01 X28.9206 Y8.9160
G01 X28.9098 Y8.9058
G01 X28.8996 Y8.8950
G01 X28.8933 Y8.8873
G01 X28.8846 Y8.8752
G01 X28.8793 Y8.8669
G01 X28.8722 Y8.8538
G01 X28.8660 Y8.8403
G01 X28.8593 Y8.8216
G01 X28.8545 Y8.8024
G01 X28.8516 Y8.7828
G01 X28.8506 Y8.7630
G01 X28.8506 Y6.6802
G01 X28.8511 Y6.6653
G01 X28.8521 Y6.6555
G01 X28.8536 Y6.6457
G01 X28.8566 Y6.6311
G01 X28.8608 Y6.6168
G01 X28.8641 Y6.6075
G01 X28.8679 Y6.5983
G01 X28.8744 Y6.5850
G01 X28.8819 Y6.5721
G01 X28.8903 Y6.5599
G01 X28.8996 Y6.5482
G01 X28.9063 Y6.5409
G01 X28.9169 Y6.5305
G01 X28.9244 Y6.5240
G01 X28.9323 Y6.5179
G01 X28.9445 Y6.5095
G01 X28.9530 Y6.5044
G01 X28.9662 Y6.4976
G01 X28.9799 Y6.4917
G01 X28.9940 Y6.4869
G01 X29.0083 Y6.4831
G01 X29.0181 Y6.4812
G01 X29.0279 Y6.4797
G01 X29.0427 Y6.4784
G01 X31.1354 Y6.4782
G01 X31.1503 Y6.4787
G01 X31.1699 Y6.4812
G01 X31.1845 Y6.4842
G01 X31.2035 Y6.4900
G01 X31.2173 Y6.4955
G01 X31.2306 Y6.5020
G01 X31.2435 Y6.5095
G01 X31.2557 Y6.5179
G01 X31.2711 Y6.5305
G01 X31.2817 Y6.5409
G01 X31.2916 Y6.5520
G01 X31.3006 Y6.5639
G01 X31.3112 Y6.5806
G01 X31.3180 Y6.5938
G01 X31.3256 Y6.6121
G01 X31.3301 Y6.6263
G01 X31.3344 Y6.6457
G01 X31.3364 Y6.6604
G01 X31.3374 Y6.6802
G01 X31.3374 Y8.1489
G01 X32.7770 Y9.6532
G01 X32.8417 Y9.6532
G01 X32.8584 Y9.6500
G01 X32.9693 Y9.6338
G01 X33.0912 Y9.6278
G01 X33.2131 Y9.6338
G01 X33.3240 Y9.6500
G01 X33.3407 Y9.6532
G01 X34.1425 Y9.6534
G01 X34.1622 Y9.6554
G01 X34.1817 Y9.6592
G01 X34.1912 Y9.6619
G01 X34.2053 Y9.6667
G01 X34.2234 Y9.6748
G01 X34.2365 Y9.6819
G01 X34.2448 Y9.6872
G01 X34.2608 Y9.6990
G01 X34.2719 Y9.7089
G01 X34.2789 Y9.7159
G01 X34.2919 Y9.7309
G01 X34.3006 Y9.7430
G01 X34.3108 Y9.7600
G01 X34.3173 Y9.7733
G01 X34.3228 Y9.7871
G01 X34.3286 Y9.8061
G01 X34.3316 Y9.8207
G01 X34.3336 Y9.8354
G01 X34.3346 Y9.8502
G01 X34.3346 Y11.4027
G01 X37.1948 Y14.9059
G01 X37.2158 Y14.9331
G01 X37.2275 Y14.9499
G01 X37.2330 Y14.9581
G01 X37.2510 Y14.9873
G01 X37.2609 Y15.0053
G01 X37.2761 Y15.0360
G01 X37.2881 Y15.0639
G01 X37.2984 Y15.0914
G01 X37.3048 Y15.1109
G01 X37.3152 Y15.1487
G01 X37.3206 Y15.1736
G01 X37.3269 Y15.2123
G01 X37.5885 Y17.2244
G01 X37.6666 Y17.2616
G01 X37.7586 Y17.3165
G01 X37.7751 Y17.3275
G01 X37.8610 Y17.3915
G01 X37.9405 Y17.4633
G01 X37.9545 Y17.4773
G01 X38.0263 Y17.5568
G01 X38.0903 Y17.6427
G01 X38.1013 Y17.6592
G01 X38.1562 Y17.7512
G01 X38.2022 Y17.8479
G01 X38.2098 Y17.8663
G01 X38.2426 Y17.9578
G01 X38.2483 Y17.9768
G01 X38.2741 Y18.0807
G01 X38.2901 Y18.1867
G01 X38.2920 Y18.2064
G01 X38.2970 Y18.3134
G01 X38.2920 Y18.4204
G01 X38.2901 Y18.4401
G01 X38.2741 Y18.5461
G01 X38.2483 Y18.6500
G01 X38.2426 Y18.6690
G01 X38.2062 Y18.7698
G01 X38.1607 Y18.8667
G01 X38.1513 Y18.8842
G01 X38.0960 Y18.9760
G01 X38.0324 Y19.0622
G01 X38.0198 Y19.0775
G01 X37.9477 Y19.1567
G01 X37.8685 Y19.2288
G01 X37.8571 Y19.2384
G01 X37.7670 Y19.3050
G01 X37.6666 Y19.3652
G01 X37.5608 Y19.4152
G01 X37.4506 Y19.4547
G01 X37.3371 Y19.4831
G01 X37.2213 Y19.5003
G01 X37.1044 Y19.5060
G01 X36.9875 Y19.5003
G01 X36.8717 Y19.4831
G01 X36.7582 Y19.4547
G01 X36.6480 Y19.4152
G01 X36.5422 Y19.3652
G01 X36.4418 Y19.3050
G01 X36.3478 Y19.2353
G01 X36.2611 Y19.1567
G01 X36.1890 Y19.0775
G01 X36.1794 Y19.0661
G01 X36.1128 Y18.9760
G01 X36.0526 Y18.8756
G01 X36.0026 Y18.7698
G01 X35.9662 Y18.6690
G01 X35.9605 Y18.6500
G01 X35.9369 Y18.5557
G01 X35.9330 Y18.5363
G01 X35.9175 Y18.4303
G01 X35.9118 Y18.3134
G01 X35.9175 Y18.1965
G01 X35.9330 Y18.0905
G01 X35.9369 Y18.0711
G01 X35.9631 Y17.9672
G01 X35.9990 Y17.8663
G01 X36.0066 Y17.8479
G01 X36.0503 Y17.7556
G01 X36.0575 Y17.7426
G01 X36.1128 Y17.6508
G01 X36.1764 Y17.5646
G01 X36.1857 Y17.5530
G01 X36.2543 Y17.4773
G01 X36.2646 Y17.4666
G01 X36.3440 Y17.3947
G01 X36.3556 Y17.3854
G01 X36.3796 Y17.3676
G01 X36.1422 Y15.5413
G01 X33.3652 Y12.1400
G01 X32.0399 Y12.1398
G01 X32.0202 Y12.1378
G01 X32.0007 Y12.1340
G01 X31.9817 Y12.1282
G01 X31.9634 Y12.1206
G01 X31.9459 Y12.1113
G01 X31.9335 Y12.1032
G01 X31.9178 Y12.0910
G01 X31.9035 Y12.0773
G01 X31.8905 Y12.0623
G01 X31.8791 Y12.0461
G01 X31.8694 Y12.0288
G01 X31.8632 Y12.0153
G01 X31.8565 Y11.9966
G01 X31.8517 Y11.9774
G01 X31.8488 Y11.9578
G01 X31.8478 Y11.9430
G01 X31.8478 Y10.4428
G01 X30.4336 Y8.9650
G01 X30.3435 Y8.9650
G01 X30.3268 Y8.9682
G01 X30.2159 Y8.9844
G01 X30.0940 Y8.9904
G01 X29.9721 Y8.9844
G01 X29.8612 Y8.9682
G00 Z1.0000
G00 X32.9588 Y15.8407
G01 F60.00
G01 Z-0.0800
G01 F60.00
G01 X32.9575 Y15.8259
G01 X32.9527 Y15.7226
G01 X32.9582 Y15.6094
G01 X32.9749 Y15.4974
G01 X33.0024 Y15.3875
G01 X33.0406 Y15.2808
G01 X33.0890 Y15.1784
G01 X33.1473 Y15.0812
G01 X33.2147 Y14.9902
G01 X33.2908 Y14.9062
G01 X33.3748 Y14.8301
G01 X33.4658 Y14.7627
G01 X33.5630 Y14.7044
G01 X33.6654 Y14.6560
G01 X33.7721 Y14.6178
G01 X33.8820 Y14.5903
G01 X33.9940 Y14.5736
G01 X34.1072 Y14.5681
G01 X34.2204 Y14.5736
G01 X34.3324 Y14.5903
G01 X34.4423 Y14.6178
G01 X34.5490 Y14.6560
G01 X34.6514 Y14.7044
G01 X34.7486 Y14.7627
G01 X34.8396 Y14.8301
G01 X34.9236 Y14.9062
G01 X34.9997 Y14.9902
G01 X35.0671 Y15.0812
G01 X35.1254 Y15.1784
G01 X35.1738 Y15.2808
G01 X35.2120 Y15.3875
G01 X35.2395 Y15.4974
G01 X35.2562 Y15.6094
G01 X35.2617 Y15.7226
G01 X35.2562 Y15.8358
G01 X35.2395 Y15.9478
G01 X35.2120 Y16.0577
G01 X35.1738 Y16.1644
G01 X35.1254 Y16.2668
G01 X35.0671 Y16.3640
G01 X34.9997 Y16.4550
G01 X34.9236 Y16.5390
G01 X34.8396 Y16.6151
G01 X34.7486 Y16.6825
G01 X34.6514 Y16.7408
G01 X34.5490 Y16.7892
G01 X34.4423 Y16.8274
G01 X34.3324 Y16.8549
G01 X34.2204 Y16.8716
G01 X34.1072 Y16.8771
G01 X33.9940 Y16.8716
G01 X33.8820 Y16.8549
G01 X33.7721 Y16.8274
G01 X33.6654 Y16.7892
G01 X33.5630 Y16.7408
G01 X33.4658 Y16.6825
G01 X33.3748 Y16.6151
G01 X33.2908 Y16.5390
G01 X33.2147 Y16.4550
G01 X33.1473 Y16.3640
G01 X33.0890 Y16.2668
G01 X33.0406 Y16.1644
G01 X33.0024 Y16.0577
G01 X32.9749 Y15.9478
G01 X32.9588 Y15.8407
G00 Z1.0000
G00 X33.0638 Y15.8277
G01 F60.00
G01 Z-0.0800
G01 F60.00
G01 X33.0632 Y15.8207
G01 X33.0585 Y15.7226
G01 X33.0636 Y15.6198
G01 X33.0787 Y15.5180
G01 X33.1037 Y15.4182
G01 X33.1383 Y15.3213
G01 X33.1823 Y15.2282
G01 X33.2352 Y15.1400
G01 X33.2965 Y15.0573
G01 X33.3657 Y14.9811
G01 X33.4419 Y14.9119
G01 X33.5246 Y14.8506
G01 X33.6128 Y14.7977
G01 X33.7059 Y14.7537
G01 X33.8028 Y14.7191
G01 X33.9026 Y14.6941
G01 X34.0044 Y14.6790
G01 X34.1072 Y14.6739
G01 X34.2100 Y14.6790
G01 X34.3118 Y14.6941
G01 X34.4116 Y14.7191
G01 X34.5085 Y14.7537
G01 X34.6016 Y14.7977
G01 X34.6898 Y14.8506
G01 X34.7725 Y14.9119
G01 X34.8487 Y14.9811
G01 X34.9179 Y15.0573
G01 X34.9792 Y15.1400
G01 X35.0321 Y15.2282
G01 X35.0761 Y15.3213
G01 X35.1107 Y15.4182
G01 X35.1357 Y15.5180
G01 X35.1508 Y15.6198
G01 X35.1559 Y15.7226
G01 X35.1508 Y15.8254
G01 X35.1357 Y15.9272
G01 X35.1107 Y16.0270
G01 X35.0761 Y16.1239
G01 X35.0321 Y16.2170
G01 X34.9792 Y16.3052
G01 X34.9179 Y16.3879
G01 X34.8487 Y16.4641
G01 X34.7725 Y16.5333
G01 X34.6898 Y16.5946
G01 X34.6016 Y16.6475
G01 X34.5085 Y16.6915
G01 X34.4116 Y16.7261
G01 X34.3118 Y16.7511
G01 X34.2100 Y16.7662
G01 X34.1072 Y16.7713
G01 X34.0044 Y16.7662
G01 X33.9026 Y16.7511
G01 X33.8028 Y16.7261
G01 X33.7059 Y16.6915
G01 X33.6128 Y16.6475
G01 X33.5246 Y16.5946
G01 X33.4419 Y16.5333
G01 X33.3657 Y16.4641
G01 X33.2965 Y16.3879
G01 X33.2352 Y16.3052
G01 X33.1823 Y16.2170
G01 X33.1383 Y16.1239
G01 X33.1037 Y16.0270
G01 X33.0787 Y15.9272
G01 X33.0638 Y15.8277
G00 Z1.0000
G00 X36.4131 Y17.4748
G01 F60.00
G01 Z-0.0800
G01 F60.00
G01 X36.4926 Y17.4156
G01 X36.2433 Y15.4978
G01 X33.4154 Y12.0342
G01 X32.0474 Y12.0342
G01 X32.0380 Y12.0335
G01 X32.0287 Y12.0319
G01 X32.0174 Y12.0286
G01 X32.0087 Y12.0250
G01 X32.0003 Y12.0205
G01 X31.9925 Y12.0153
G01 X31.9852 Y12.0093
G01 X31.9785 Y12.0026
G01 X31.9740 Y11.9972
G01 X31.9685 Y11.9895
G01 X31.9639 Y11.9813
G01 X31.9609 Y11.9748
G01 X31.9577 Y11.9659
G01 X31.9555 Y11.9568
G01 X31.9541 Y11.9474
G01 X31.9536 Y11.9404
G01 X31.9536 Y10.4003
G01 X30.4788 Y8.8592
G01 X30.3305 Y8.8592
G01 X30.3182 Y8.8622
G01 X30.3113 Y8.8635
G01 X30.2055 Y8.8791
G01 X30.0940 Y8.8846
G01 X29.9825 Y8.8791
G01 X29.8767 Y8.8635
G01 X29.8698 Y8.8622
G01 X29.8575 Y8.8592
G01 X29.0502 Y8.8592
G01 X29.0385 Y8.8582
G01 X29.0269 Y8.8557
G01 X29.0158 Y8.8519
G01 X29.0052 Y8.8467
G01 X28.9953 Y8.8403
G01 X28.9880 Y8.8343
G01 X28.9798 Y8.8258
G01 X28.9726 Y8.8164
G01 X28.9689 Y8.8104
G01 X28.9656 Y8.8041
G01 X28.9628 Y8.7976
G01 X28.9605 Y8.7909
G01 X28.9587 Y8.7841
G01 X28.9574 Y8.7771
G01 X28.9567 Y8.7701
G01 X28.9564 Y8.7630
G01 X28.9564 Y6.6802
G01 X28.9571 Y6.6684
G01 X28.9593 Y6.6568
G01 X28.9628 Y6.6456
G01 X28.9678 Y6.6349
G01 X28.9740 Y6.6248
G01 X28.9813 Y6.6156
G01 X28.9898 Y6.6074
G01 X28.9992 Y6.6002
G01 X29.0052 Y6.5965
G01 X29.0115 Y6.5932
G01 X29.0180 Y6.5904
G01 X29.0247 Y6.5881
G01 X29.0315 Y6.5863
G01 X29.0385 Y6.5850
G01 X29.0455 Y6.5843
G01 X29.0526 Y6.5840
G01 X31.1354 Y6.5840
G01 X31.1472 Y6.5847
G01 X31.1542 Y6.5859
G01 X31.1611 Y6.5875
G01 X31.1678 Y6.5896
G01 X31.1744 Y6.5923
G01 X31.1849 Y6.5977
G01 X31.1946 Y6.6044
G01 X31.2034 Y6.6122
G01 X31.2112 Y6.6210
G01 X31.2179 Y6.6307
G01 X31.2213 Y6.6369
G01 X31.2243 Y6.6434
G01 X31.2281 Y6.6545
G01 X31.2306 Y6.6661
G01 X31.2316 Y6.6778
G01 X31.2316 Y8.1914
G01 X32.7318 Y9.7590
G01 X32.8547 Y9.7590
G01 X32.8670 Y9.7560
G01 X32.8739 Y9.7547
G01 X32.9797 Y9.7391
G01 X33.0912 Y9.7336
G01 X33.2027 Y9.7391
G01 X33.3085 Y9.7547
G01 X33.3154 Y9.7560
G01 X33.3277 Y9.7590
G01 X34.1350 Y9.7590
G01 X34.1467 Y9.7600
G01 X34.1583 Y9.7625
G01 X34.1694 Y9.7663
G01 X34.1800 Y9.7715
G01 X34.1880 Y9.7766
G01 X34.1972 Y9.7839
G01 X34.2054 Y9.7924
G01 X34.2126 Y9.8018
G01 X34.2163 Y9.8078
G01 X34.2196 Y9.8141
G01 X34.2224 Y9.8206
G01 X34.2247 Y9.8273
G01 X34.2265 Y9.8341
G01 X34.2278 Y9.8411
G01 X34.2285 Y9.8481
G01 X34.2288 Y9.8552
G01 X34.2288 Y11.4404
G01 X37.1129 Y14.9728
G01 X37.1339 Y15.0005
G01 X37.1435 Y15.0145
G01 X37.1580 Y15.0381
G01 X37.1674 Y15.0549
G01 X37.1807 Y15.0819
G01 X37.1893 Y15.1018
G01 X37.1990 Y15.1277
G01 X37.2042 Y15.1438
G01 X37.2127 Y15.1751
G01 X37.2172 Y15.1963
G01 X37.2220 Y15.2260
G01 X37.4915 Y17.2989
G01 X37.5225 Y17.3103
G01 X37.6146 Y17.3538
G01 X37.7042 Y17.4072
G01 X37.7101 Y17.4111
G01 X37.7901 Y17.4704
G01 X37.7974 Y17.4764
G01 X37.8729 Y17.5449
G01 X37.9430 Y17.6221
G01 X38.0053 Y17.7057
G01 X38.0106 Y17.7136
G01 X38.0629 Y17.8011
G01 X38.1066 Y17.8932
G01 X38.1102 Y17.9019
G01 X38.1444 Y17.9979
G01 X38.1693 Y18.0968
G01 X38.1711 Y18.1060
G01 X38.1860 Y18.2069
G01 X38.1911 Y18.3087
G01 X38.1911 Y18.3181
G01 X38.1860 Y18.4199
G01 X38.1711 Y18.5208
G01 X38.1693 Y18.5300
G01 X38.1444 Y18.6289
G01 X38.1102 Y18.7249
G01 X38.1066 Y18.7336
G01 X38.0629 Y18.8257
G01 X38.0106 Y18.9132
G01 X38.0053 Y18.9211
G01 X37.9445 Y19.0029
G01 X37.8761 Y19.0785
G01 X37.8695 Y19.0851
G01 X37.7939 Y19.1535
G01 X37.7082 Y19.2170
G01 X37.6167 Y19.2719
G01 X37.5203 Y19.3175
G01 X37.4199 Y19.3534
G01 X37.3164 Y19.3793
G01 X37.2109 Y19.3950
G01 X37.1044 Y19.4002
G01 X36.9979 Y19.3950
G01 X36.8924 Y19.3793
G01 X36.7889 Y19.3534
G01 X36.6885 Y19.3175
G01 X36.5921 Y19.2719
G01 X36.5006 Y19.2170
G01 X36.4149 Y19.1535
G01 X36.3359 Y19.0819
G01 X36.2643 Y19.0029
G01 X36.2008 Y18.9172
G01 X36.1459 Y18.8257
G01 X36.1003 Y18.7293
G01 X36.0644 Y18.6289
G01 X36.0385 Y18.5254
G01 X36.0228 Y18.4199
G01 X36.0176 Y18.3134
G01 X36.0228 Y18.2069
G01 X36.0385 Y18.1014
G01 X36.0644 Y17.9979
G01 X36.1003 Y17.8975
G01 X36.1459 Y17.8011
G01 X36.2008 Y17.7096
G01 X36.2643 Y17.6239
G01 X36.3359 Y17.5449
G01 X36.4131 Y17.4748
G00 Z1.0000
G00 X29.5075 Y18.4348
G01 F60.00
G01 Z-0.0800
G01 F60.00
G01 X29.5154 Y18.4295
G01 X29.5912 Y18.3841
G01 X29.5912 Y16.3354
G01 X29.5557 Y16.3183
G01 X29.4600 Y16.2607
G01 X29.3723 Y16.1956
G01 X29.2913 Y16.1223
G01 X29.2863 Y16.1172
G01 X29.2146 Y16.0379
G01 X29.1508 Y15.9521
G01 X29.1456 Y15.9442
G01 X29.0896 Y15.8504
G01 X29.0430 Y15.7515
G01 X29.0054 Y15.6464
G01 X28.9783 Y15.5381
G01 X28.9625 Y15.4324
G01 X28.9615 Y15.4230
G01 X28.9565 Y15.3209
G01 X28.9565 Y15.3115
G01 X28.9619 Y15.2047
G01 X28.9783 Y15.0943
G01 X29.0054 Y14.9860
G01 X29.0430 Y14.8809
G01 X29.0907 Y14.7799
G01 X29.1481 Y14.6842
G01 X29.2146 Y14.5945
G01 X29.2896 Y14.5118
G01 X29.3723 Y14.4368
G01 X29.4620 Y14.3703
G01 X29.5577 Y14.3129
G01 X29.6587 Y14.2652
G01 X29.7638 Y14.2276
G01 X29.8721 Y14.2005
G01 X29.9825 Y14.1841
G01 X30.0940 Y14.1786
G01 X30.2055 Y14.1841
G01 X30.3159 Y14.2005
G01 X30.4242 Y14.2276
G01 X30.5249 Y14.2635
G01 X30.5337 Y14.2671
G01 X30.6260 Y14.3108
G01 X30.6344 Y14.3153
G01 X30.7260 Y14.3703
G01 X30.8157 Y14.4368
G01 X30.8984 Y14.5118
G01 X30.9703 Y14.5909
G01 X30.9763 Y14.5982
G01 X31.0372 Y14.6803
G01 X31.0424 Y14.6882
G01 X31.0973 Y14.7799
G01 X31.1450 Y14.8809
G01 X31.1826 Y14.9860
G01 X31.2087 Y15.0897
G01 X31.2105 Y15.0989
G01 X31.2255 Y15.2000
G01 X31.2265 Y15.2094
G01 X31.2316 Y15.3162
G01 X31.2265 Y15.4230
G01 X31.2255 Y15.4324
G01 X31.2097 Y15.5381
G01 X31.1826 Y15.6464
G01 X31.1467 Y15.7471
G01 X31.1431 Y15.7559
G01 X31.0961 Y15.8545
G01 X31.0399 Y15.9482
G01 X30.9763 Y16.0342
G01 X30.9703 Y16.0415
G01 X30.8967 Y16.1223
G01 X30.8157 Y16.1956
G01 X30.7280 Y16.2607
G01 X30.6323 Y16.3183
G01 X30.5968 Y16.3354
G01 X30.5968 Y18.3841
G01 X30.6766 Y18.4320
G01 X30.7556 Y18.4904
G01 X30.7629 Y18.4964
G01 X30.8355 Y18.5625
G01 X30.9016 Y18.6351
G01 X30.9076 Y18.6424
G01 X30.9660 Y18.7214
G01 X31.0165 Y18.8055
G01 X31.0210 Y18.8139
G01 X31.0629 Y18.9027
G01 X31.0961 Y18.9951
G01 X31.0988 Y19.0041
G01 X31.1225 Y19.0994
G01 X31.1371 Y19.1965
G01 X31.1380 Y19.2059
G01 X31.1427 Y19.3016
G01 X31.1426 Y19.3087
G01 X31.1376 Y19.4068
G01 X31.1234 Y19.5039
G01 X31.1215 Y19.5132
G01 X31.0975 Y19.6084
G01 X31.0646 Y19.7009
G01 X31.0610 Y19.7096
G01 X31.0189 Y19.7984
G01 X30.9685 Y19.8826
G01 X30.9632 Y19.8905
G01 X30.9047 Y19.9693
G01 X30.8388 Y20.0421
G01 X30.8321 Y20.0488
G01 X30.7593 Y20.1147
G01 X30.6766 Y20.1760
G01 X30.5884 Y20.2289
G01 X30.4953 Y20.2729
G01 X30.3984 Y20.3075
G01 X30.2986 Y20.3325
G01 X30.1968 Y20.3476
G01 X30.0940 Y20.3527
G01 X29.9912 Y20.3476
G01 X29.8894 Y20.3325
G01 X29.7896 Y20.3075
G01 X29.6927 Y20.2729
G01 X29.5996 Y20.2289
G01 X29.5114 Y20.1760
G01 X29.4287 Y20.1147
G01 X29.3525 Y20.0455
G01 X29.2833 Y19.9693
G01 X29.2220 Y19.8866
G01 X29.1691 Y19.7984
G01 X29.1251 Y19.7053
G01 X29.0905 Y19.6084
G01 X29.0655 Y19.5086
G01 X29.0504 Y19.4068
G01 X29.0453 Y19.3040
G01 X29.0504 Y19.2012
G01 X29.0655 Y19.0994
G01 X29.0905 Y18.9996
G01 X29.1251 Y18.9027
G01 X29.1691 Y18.8096
G01 X29.2220 Y18.7214
G01 X29.2833 Y18.6387
G01 X29.3525 Y18.5625
G01 X29.4287 Y18.4933
G01 X29.5075 Y18.4348
G00 Z1.0000
G00 X29.4445 Y18.3498
G01 F60.00
G01 Z-0.0800
G01 F60.00
G01 X29.4567 Y18.3414
G01 X29.4854 Y18.3241
G01 X29.4854 Y16.3996
G01 X29.4032 Y16.3501
G01 X29.3052 Y16.2774
G01 X29.2148 Y16.1954
G01 X29.1393 Y16.1125
G01 X29.1267 Y16.0972
G01 X29.0658 Y16.0151
G01 X29.0548 Y15.9986
G01 X28.9974 Y15.9023
G01 X28.9493 Y15.8011
G01 X28.9417 Y15.7828
G01 X28.9072 Y15.6866
G01 X28.9015 Y15.6676
G01 X28.8745 Y15.5588
G01 X28.8566 Y15.4381
G01 X28.8506 Y15.3162
G01 X28.8558 Y15.2042
G01 X28.8578 Y15.1845
G01 X28.8745 Y15.0736
G01 X28.9041 Y14.9553
G01 X28.9452 Y14.8404
G01 X28.9974 Y14.7301
G01 X29.0601 Y14.6254
G01 X29.1328 Y14.5274
G01 X29.2148 Y14.4370
G01 X29.3052 Y14.3550
G01 X29.4032 Y14.2823
G01 X29.5079 Y14.2196
G01 X29.6182 Y14.1674
G01 X29.7331 Y14.1263
G01 X29.8514 Y14.0967
G01 X29.9721 Y14.0788
G01 X30.0940 Y14.0728
G01 X30.2159 Y14.0788
G01 X30.3366 Y14.0967
G01 X30.4549 Y14.1263
G01 X30.5606 Y14.1639
G01 X30.5789 Y14.1715
G01 X30.6713 Y14.2151
G01 X30.6888 Y14.2245
G01 X30.7848 Y14.2823
G01 X30.8828 Y14.3550
G01 X30.9732 Y14.4370
G01 X31.0487 Y14.5199
G01 X31.0613 Y14.5352
G01 X31.1222 Y14.6173
G01 X31.1332 Y14.6338
G01 X31.1906 Y14.7301
G01 X31.2428 Y14.8404
G01 X31.2839 Y14.9553
G01 X31.3114 Y15.0639
G01 X31.3152 Y15.0834
G01 X31.3302 Y15.1845
G01 X31.3319 Y15.1993
G01 X31.3374 Y15.3162
G01 X31.3322 Y15.4282
G01 X31.3302 Y15.4479
G01 X31.3135 Y15.5588
G01 X31.2865 Y15.6676
G01 X31.2808 Y15.6866
G01 X31.2428 Y15.7920
G01 X31.1906 Y15.9023
G01 X31.1332 Y15.9986
G01 X31.1222 Y16.0151
G01 X31.0552 Y16.1050
G01 X30.9732 Y16.1954
G01 X30.8903 Y16.2709
G01 X30.8750 Y16.2835
G01 X30.7848 Y16.3501
G01 X30.7026 Y16.3996
G01 X30.7026 Y18.3241
G01 X30.7313 Y18.3413
G01 X30.7395 Y18.3469
G01 X30.8225 Y18.4084
G01 X30.8339 Y18.4180
G01 X30.9032 Y18.4808
G01 X30.9138 Y18.4912
G01 X30.9865 Y18.5716
G01 X31.0482 Y18.6545
G01 X31.0593 Y18.6710
G01 X31.1098 Y18.7554
G01 X31.1167 Y18.7686
G01 X31.1606 Y18.8622
G01 X31.1957 Y18.9594
G01 X31.2014 Y18.9784
G01 X31.2263 Y19.0788
G01 X31.2417 Y19.1810
G01 X31.2437 Y19.2007
G01 X31.2485 Y19.3040
G01 X31.2437 Y19.4073
G01 X31.2417 Y19.4270
G01 X31.2263 Y19.5292
G01 X31.2014 Y19.6296
G01 X31.1957 Y19.6486
G01 X31.1606 Y19.7458
G01 X31.1122 Y19.8482
G01 X31.0593 Y19.9370
G01 X31.0482 Y19.9535
G01 X30.9865 Y20.0364
G01 X30.9172 Y20.1132
G01 X30.9032 Y20.1272
G01 X30.8264 Y20.1965
G01 X30.7354 Y20.2639
G01 X30.6382 Y20.3222
G01 X30.5358 Y20.3706
G01 X30.4291 Y20.4088
G01 X30.3192 Y20.4363
G01 X30.2072 Y20.4530
G01 X30.0940 Y20.4585
G01 X29.9808 Y20.4530
G01 X29.8688 Y20.4363
G01 X29.7589 Y20.4088
G01 X29.6522 Y20.3706
G01 X29.5498 Y20.3222
G01 X29.4526 Y20.2639
G01 X29.3616 Y20.1965
G01 X29.2776 Y20.1204
G01 X29.2015 Y20.0364
G01 X29.1341 Y19.9454
G01 X29.0758 Y19.8482
G01 X29.0274 Y19.7458
G01 X28.9892 Y19.6391
G01 X28.9617 Y19.5292
G01 X28.9450 Y19.4172
G01 X28.9395 Y19.3040
G01 X28.9450 Y19.1908
G01 X28.9617 Y19.0788
G01 X28.9892 Y18.9689
G01 X29.0274 Y18.8622
G01 X29.0758 Y18.7598
G01 X29.1341 Y18.6626
G01 X29.2015 Y18.5716
G01 X29.2776 Y18.4876
G01 X29.3616 Y18.4115
G01 X29.4445 Y18.3498
G00 Z1.0000
G00 X26.9694 Y18.4334
G01 F60.00
G01 Z-0.0800
G01 F60.00
G01 X26.9872 Y18.4224
G01 X26.6583 Y14.4134
G01 X26.6024 Y14.3869
G01 X26.5162 Y14.3352
G01 X26.5103 Y14.3312
G01 X26.4297 Y14.2711
G01 X26.3553 Y14.2035
G01 X26.2892 Y14.1309
G01 X26.2832 Y14.1236
G01 X26.2236 Y14.0426
G01 X26.1719 Y13.9564
G01 X26.1298 Y13.8676
G01 X26.1262 Y13.8589
G01 X26.0933 Y13.7664
G01 X26.0683 Y13.6666
G01 X26.0537 Y13.5695
G01 X26.0528 Y13.5601
G01 X26.0481 Y13.4596
G01 X26.0532 Y13.3592
G01 X26.0683 Y13.2574
G01 X26.0933 Y13.1576
G01 X26.1279 Y13.0607
G01 X26.1719 Y12.9676
G01 X26.2248 Y12.8794
G01 X26.2861 Y12.7967
G01 X26.3553 Y12.7205
G01 X26.4315 Y12.6513
G01 X26.5142 Y12.5900
G01 X26.6024 Y12.5371
G01 X26.6955 Y12.4931
G01 X26.7924 Y12.4585
G01 X26.8922 Y12.4335
G01 X26.9940 Y12.4184
G01 X27.0921 Y12.4134
G01 X27.0992 Y12.4133
G01 X27.1996 Y12.4184
G01 X27.3014 Y12.4335
G01 X27.4012 Y12.4585
G01 X27.4937 Y12.4914
G01 X27.5024 Y12.4950
G01 X27.5869 Y12.5350
G01 X27.5953 Y12.5395
G01 X27.6794 Y12.5900
G01 X27.7584 Y12.6484
G01 X27.7657 Y12.6544
G01 X27.8383 Y12.7205
G01 X27.9075 Y12.7967
G01 X27.9688 Y12.8794
G01 X28.0217 Y12.9676
G01 X28.0657 Y13.0607
G01 X28.1003 Y13.1576
G01 X28.1253 Y13.2574
G01 X28.1402 Y13.3569
G01 X28.1454 Y13.4573
G01 X28.1454 Y13.4667
G01 X28.1404 Y13.5648
G01 X28.1253 Y13.6666
G01 X28.1016 Y13.7619
G01 X28.0989 Y13.7709
G01 X28.0657 Y13.8633
G01 X28.0238 Y13.9521
G01 X28.0193 Y13.9605
G01 X27.9713 Y14.0406
G01 X27.9660 Y14.0485
G01 X27.9075 Y14.1273
G01 X27.8416 Y14.2001
G01 X27.8349 Y14.2068
G01 X27.7621 Y14.2727
G01 X27.6814 Y14.3326
G01 X27.6616 Y14.3448
G01 X27.9904 Y18.3516
G01 X28.0484 Y18.3791
G01 X28.1346 Y18.4308
G01 X28.1405 Y18.4348
G01 X28.2211 Y18.4949
G01 X28.2955 Y18.5625
G01 X28.3616 Y18.6351
G01 X28.3676 Y18.6424
G01 X28.4246 Y18.7194
G01 X28.4285 Y18.7254
G01 X28.4789 Y18.8096
G01 X28.5210 Y18.8984
G01 X28.5246 Y18.9071
G01 X28.5575 Y18.9996
G01 X28.5815 Y19.0948
G01 X28.5834 Y19.1041
G01 X28.5979 Y19.2036
G01 X28.6027 Y19.3040
G01 X28.5980 Y19.4021
G01 X28.5971 Y19.4115
G01 X28.5825 Y19.5086
G01 X28.5588 Y19.6039
G01 X28.5561 Y19.6129
G01 X28.5229 Y19.7053
G01 X28.4810 Y19.7941
G01 X28.4765 Y19.8025
G01 X28.4260 Y19.8866
G01 X28.3676 Y19.9656
G01 X28.3616 Y19.9729
G01 X28.2955 Y20.0455
G01 X28.2229 Y20.1116
G01 X28.2156 Y20.1176
G01 X28.1366 Y20.1760
G01 X28.0484 Y20.2289
G01 X27.9553 Y20.2729
G01 X27.8584 Y20.3075
G01 X27.7586 Y20.3325
G01 X27.6568 Y20.3476
G01 X27.5540 Y20.3527
G01 X27.4512 Y20.3476
G01 X27.3494 Y20.3325
G01 X27.2496 Y20.3075
G01 X27.1527 Y20.2729
G01 X27.0596 Y20.2289
G01 X26.9714 Y20.1760
G01 X26.8887 Y20.1147
G01 X26.8125 Y20.0455
G01 X26.7433 Y19.9693
G01 X26.6820 Y19.8866
G01 X26.6291 Y19.7984
G01 X26.5851 Y19.7053
G01 X26.5505 Y19.6084
G01 X26.5255 Y19.5086
G01 X26.5104 Y19.4068
G01 X26.5053 Y19.3040
G01 X26.5104 Y19.2012
G01 X26.5255 Y19.0994
G01 X26.5505 Y18.9996
G01 X26.5851 Y18.9027
G01 X26.6291 Y18.8096
G01 X26.6820 Y18.7214
G01 X26.7433 Y18.6387
G01 X26.8125 Y18.5625
G01 X26.8887 Y18.4933
G01 X26.9694 Y18.4334
G00 Z1.0000
G00 X26.8178 Y18.4147
G01 F60.00
G01 Z-0.0800
G01 F60.00
G01 X26.8294 Y18.4054
G01 X26.8768 Y18.3703
G01 X26.5578 Y14.4829
G01 X26.5439 Y14.4753
G01 X26.4638 Y14.4273
G01 X26.4473 Y14.4162
G01 X26.3644 Y14.3545
G01 X26.2804 Y14.2784
G01 X26.2108 Y14.2019
G01 X26.1982 Y14.1866
G01 X26.1369 Y14.1034
G01 X26.0786 Y14.0062
G01 X26.0342 Y13.9129
G01 X26.0266 Y13.8946
G01 X25.9920 Y13.7971
G01 X25.9645 Y13.6872
G01 X25.9491 Y13.5850
G01 X25.9471 Y13.5653
G01 X25.9423 Y13.4620
G01 X25.9474 Y13.3538
G01 X25.9491 Y13.3390
G01 X25.9645 Y13.2368
G01 X25.9920 Y13.1269
G01 X26.0302 Y13.0202
G01 X26.0786 Y12.9178
G01 X26.1369 Y12.8206
G01 X26.2043 Y12.7296
G01 X26.2804 Y12.6456
G01 X26.3644 Y12.5695
G01 X26.4554 Y12.5021
G01 X26.5526 Y12.4438
G01 X26.6550 Y12.3954
G01 X26.7617 Y12.3572
G01 X26.8716 Y12.3297
G01 X26.9836 Y12.3130
G01 X27.0968 Y12.3075
G01 X27.2050 Y12.3126
G01 X27.2198 Y12.3143
G01 X27.3220 Y12.3297
G01 X27.4224 Y12.3546
G01 X27.4414 Y12.3603
G01 X27.5294 Y12.3918
G01 X27.5477 Y12.3994
G01 X27.6410 Y12.4438
G01 X27.7382 Y12.5021
G01 X27.8292 Y12.5695
G01 X27.9132 Y12.6456
G01 X27.9893 Y12.7296
G01 X28.0510 Y12.8125
G01 X28.0621 Y12.8290
G01 X28.1101 Y12.9091
G01 X28.1195 Y12.9266
G01 X28.1634 Y13.0202
G01 X28.2016 Y13.1269
G01 X28.2291 Y13.2368
G01 X28.2445 Y13.3390
G01 X28.2465 Y13.3587
G01 X28.2513 Y13.4620
G01 X28.2465 Y13.5653
G01 X28.2445 Y13.5850
G01 X28.2291 Y13.6872
G01 X28.2042 Y13.7876
G01 X28.1985 Y13.8066
G01 X28.1670 Y13.8946
G01 X28.1615 Y13.9084
G01 X28.1195 Y13.9974
G01 X28.1101 Y14.0149
G01 X28.0567 Y14.1034
G01 X27.9924 Y14.1905
G01 X27.9828 Y14.2019
G01 X27.9200 Y14.2712
G01 X27.9096 Y14.2818
G01 X27.8292 Y14.3545
G01 X27.7721 Y14.3971
G01 X28.0908 Y18.2821
G01 X28.1069 Y18.2907
G01 X28.1954 Y18.3441
G01 X28.2786 Y18.4054
G01 X28.2939 Y18.4180
G01 X28.3704 Y18.4876
G01 X28.4400 Y18.5641
G01 X28.4526 Y18.5794
G01 X28.5139 Y18.6626
G01 X28.5722 Y18.7598
G01 X28.6166 Y18.8531
G01 X28.6242 Y18.8714
G01 X28.6588 Y18.9689
G01 X28.6842 Y19.0691
G01 X28.6880 Y19.0885
G01 X28.7030 Y19.1908
G01 X28.7083 Y19.2941
G01 X28.7083 Y19.3139
G01 X28.7030 Y19.4172
G01 X28.6880 Y19.5195
G01 X28.6842 Y19.5389
G01 X28.6588 Y19.6391
G01 X28.6206 Y19.7458
G01 X28.5722 Y19.8482
G01 X28.5193 Y19.9370
G01 X28.5082 Y19.9535
G01 X28.4465 Y20.0364
G01 X28.3772 Y20.1132
G01 X28.3632 Y20.1272
G01 X28.2864 Y20.1965
G01 X28.1954 Y20.2639
G01 X28.0982 Y20.3222
G01 X27.9958 Y20.3706
G01 X27.8891 Y20.4088
G01 X27.7792 Y20.4363
G01 X27.6672 Y20.4530
G01 X27.5540 Y20.4585
G01 X27.4408 Y20.4530
G01 X27.3288 Y20.4363
G01 X27.2189 Y20.4088
G01 X27.1122 Y20.3706
G01 X27.0098 Y20.3222
G01 X26.9126 Y20.2639
G01 X26.8216 Y20.1965
G01 X26.7376 Y20.1204
G01 X26.6615 Y20.0364
G01 X26.5941 Y19.9454
G01 X26.5358 Y19.8482
G01 X26.4874 Y19.7458
G01 X26.4492 Y19.6391
G01 X26.4217 Y19.5292
G01 X26.4050 Y19.4172
G01 X26.3995 Y19.3040
G01 X26.4050 Y19.1908
G01 X26.4217 Y19.0788
G01 X26.4492 Y18.9689
G01 X26.4874 Y18.8622
G01 X26.5358 Y18.7598
G01 X26.5941 Y18.6626
G01 X26.6615 Y18.5716
G01 X26.7376 Y18.4876
G01 X26.8178 Y18.4147
G00 Z1.0000
G00 X22.9681 Y22.9762
G01 F60.00
G01 Z-0.0800
G01 F60.00
G01 X22.9671 Y22.9668
G01 X22.9620 Y22.8600
G01 X22.9675 Y22.7485
G01 X22.9839 Y22.6381
G01 X23.0110 Y22.5298
G01 X23.0486 Y22.4247
G01 X23.0963 Y22.3237
G01 X23.1537 Y22.2280
G01 X23.2202 Y22.1383
G01 X23.2952 Y22.0556
G01 X23.3779 Y21.9806
G01 X23.4676 Y21.9141
G01 X23.5633 Y21.8567
G01 X23.6643 Y21.8090
G01 X23.7694 Y21.7714
G01 X23.8777 Y21.7443
G01 X23.9881 Y21.7279
G01 X24.0996 Y21.7224
G01 X24.2111 Y21.7279
G01 X24.3215 Y21.7443
G01 X24.4298 Y21.7714
G01 X24.5349 Y21.8090
G01 X24.6359 Y21.8567
G01 X24.7316 Y21.9141
G01 X24.8213 Y21.9806
G01 X24.9040 Y22.0556
G01 X24.9790 Y22.1383
G01 X25.0455 Y22.2280
G01 X25.1029 Y22.3237
G01 X25.1506 Y22.4247
G01 X25.1882 Y22.5298
G01 X25.2153 Y22.6381
G01 X25.2317 Y22.7485
G01 X25.2372 Y22.8600
G01 X25.2317 Y22.9715
G01 X25.2153 Y23.0819
G01 X25.1882 Y23.1902
G01 X25.1506 Y23.2953
G01 X25.1029 Y23.3963
G01 X25.0455 Y23.4920
G01 X24.9790 Y23.5817
G01 X24.9040 Y23.6644
G01 X24.8213 Y23.7394
G01 X24.7316 Y23.8059
G01 X24.6359 Y23.8633
G01 X24.5349 Y23.9110
G01 X24.4298 Y23.9486
G01 X24.3215 Y23.9757
G01 X24.2111 Y23.9921
G01 X24.0996 Y23.9976
G01 X23.9881 Y23.9921
G01 X23.8777 Y23.9757
G01 X23.7694 Y23.9486
G01 X23.6643 Y23.9110
G01 X23.5633 Y23.8633
G01 X23.4676 Y23.8059
G01 X23.3779 Y23.7394
G01 X23.2952 Y23.6644
G01 X23.2202 Y23.5817
G01 X23.1537 Y23.4920
G01 X23.0963 Y23.3963
G01 X23.0486 Y23.2953
G01 X23.0110 Y23.1902
G01 X22.9839 Y23.0819
G01 X22.9681 Y22.9762
G00 Z1.0000
G00 X22.8634 Y22.9917
G01 F60.00
G01 Z-0.0800
G01 F60.00
G01 X22.8614 Y22.9720
G01 X22.8562 Y22.8600
G01 X22.8622 Y22.7381
G01 X22.8801 Y22.6174
G01 X22.9097 Y22.4991
G01 X22.9508 Y22.3842
G01 X23.0030 Y22.2739
G01 X23.0657 Y22.1692
G01 X23.1384 Y22.0712
G01 X23.2204 Y21.9808
G01 X23.3108 Y21.8988
G01 X23.4088 Y21.8261
G01 X23.5135 Y21.7634
G01 X23.6238 Y21.7112
G01 X23.7387 Y21.6701
G01 X23.8570 Y21.6405
G01 X23.9777 Y21.6226
G01 X24.0996 Y21.6166
G01 X24.2215 Y21.6226
G01 X24.3422 Y21.6405
G01 X24.4605 Y21.6701
G01 X24.5754 Y21.7112
G01 X24.6857 Y21.7634
G01 X24.7904 Y21.8261
G01 X24.8884 Y21.8988
G01 X24.9788 Y21.9808
G01 X25.0608 Y22.0712
G01 X25.1335 Y22.1692
G01 X25.1962 Y22.2739
G01 X25.2484 Y22.3842
G01 X25.2895 Y22.4991
G01 X25.3191 Y22.6174
G01 X25.3370 Y22.7381
G01 X25.3430 Y22.8600
G01 X25.3370 Y22.9819
G01 X25.3191 Y23.1026
G01 X25.2895 Y23.2209
G01 X25.2484 Y23.3358
G01 X25.1962 Y23.4461
G01 X25.1335 Y23.5508
G01 X25.0608 Y23.6488
G01 X24.9788 Y23.7392
G01 X24.8884 Y23.8212
G01 X24.7904 Y23.8939
G01 X24.6857 Y23.9566
G01 X24.5754 Y24.0088
G01 X24.4605 Y24.0499
G01 X24.3422 Y24.0795
G01 X24.2215 Y24.0974
G01 X24.0996 Y24.1034
G01 X23.9777 Y24.0974
G01 X23.8570 Y24.0795
G01 X23.7387 Y24.0499
G01 X23.6238 Y24.0088
G01 X23.5135 Y23.9566
G01 X23.4088 Y23.8939
G01 X23.3108 Y23.8212
G01 X23.2204 Y23.7392
G01 X23.1384 Y23.6488
G01 X23.0657 Y23.5508
G01 X23.0030 Y23.4461
G01 X22.9508 Y23.3358
G01 X22.9097 Y23.2209
G01 X22.8801 Y23.1026
G01 X22.8634 Y22.9917
G00 Z1.0000
G00 X20.1225 Y20.3959
G01 F60.00
G01 Z-0.0800
G01 F60.00
G01 X20.1216 Y20.3865
G01 X20.1172 Y20.2946
G01 X20.1219 Y20.1980
G01 X20.1361 Y20.1024
G01 X20.1596 Y20.0086
G01 X20.1922 Y19.9176
G01 X20.2335 Y19.8302
G01 X20.2832 Y19.7473
G01 X20.3408 Y19.6696
G01 X20.4058 Y19.5980
G01 X20.4774 Y19.5330
G01 X20.5551 Y19.4754
G01 X20.6380 Y19.4257
G01 X20.7254 Y19.3844
G01 X20.8164 Y19.3518
G01 X20.9102 Y19.3283
G01 X21.0058 Y19.3141
G01 X21.1024 Y19.3094
G01 X21.1990 Y19.3141
G01 X21.2946 Y19.3283
G01 X21.3884 Y19.3518
G01 X21.4794 Y19.3844
G01 X21.5668 Y19.4257
G01 X21.6497 Y19.4754
G01 X21.7274 Y19.5330
G01 X21.7990 Y19.5980
G01 X21.8640 Y19.6696
G01 X21.9216 Y19.7473
G01 X21.9713 Y19.8302
G01 X22.0126 Y19.9176
G01 X22.0452 Y20.0086
G01 X22.0687 Y20.1024
G01 X22.0829 Y20.1980
G01 X22.0876 Y20.2946
G01 X22.0829 Y20.3912
G01 X22.0687 Y20.4868
G01 X22.0452 Y20.5806
G01 X22.0126 Y20.6716
G01 X21.9713 Y20.7590
G01 X21.9216 Y20.8419
G01 X21.8640 Y20.9196
G01 X21.7990 Y20.9912
G01 X21.7274 Y21.0562
G01 X21.6497 Y21.1138
G01 X21.5668 Y21.1635
G01 X21.4794 Y21.2048
G01 X21.3884 Y21.2374
G01 X21.2946 Y21.2609
G01 X21.1990 Y21.2751
G01 X21.1024 Y21.2798
G01 X21.0058 Y21.2751
G01 X20.9102 Y21.2609
G01 X20.8164 Y21.2374
G01 X20.7254 Y21.2048
G01 X20.6380 Y21.1635
G01 X20.5551 Y21.1138
G01 X20.4774 Y21.0562
G01 X20.4058 Y20.9912
G01 X20.3408 Y20.9196
G01 X20.2832 Y20.8419
G01 X20.2335 Y20.7590
G01 X20.1922 Y20.6716
G01 X20.1596 Y20.5806
G01 X20.1361 Y20.4868
G01 X20.1225 Y20.3959
G00 Z1.0000
G00 X20.0178 Y20.4114
G01 F60.00
G01 Z-0.0800
G01 F60.00
G01 X20.0159 Y20.3916
G01 X20.0114 Y20.2946
G01 X20.0166 Y20.1877
G01 X20.0323 Y20.0818
G01 X20.0584 Y19.9779
G01 X20.0944 Y19.8771
G01 X20.1402 Y19.7803
G01 X20.1953 Y19.6885
G01 X20.2590 Y19.6025
G01 X20.3309 Y19.5231
G01 X20.4103 Y19.4512
G01 X20.4963 Y19.3875
G01 X20.5881 Y19.3324
G01 X20.6849 Y19.2866
G01 X20.7857 Y19.2506
G01 X20.8896 Y19.2245
G01 X20.9955 Y19.2088
G01 X21.1024 Y19.2036
G01 X21.2093 Y19.2088
G01 X21.3152 Y19.2245
G01 X21.4191 Y19.2506
G01 X21.5199 Y19.2866
G01 X21.6167 Y19.3324
G01 X21.7085 Y19.3875
G01 X21.7945 Y19.4512
G01 X21.8739 Y19.5231
G01 X21.9458 Y19.6025
G01 X22.0095 Y19.6885
G01 X22.0646 Y19.7803
G01 X22.1104 Y19.8771
G01 X22.1464 Y19.9779
G01 X22.1725 Y20.0818
G01 X22.1882 Y20.1877
G01 X22.1934 Y20.2946
G01 X22.1882 Y20.4015
G01 X22.1725 Y20.5074
G01 X22.1464 Y20.6113
G01 X22.1104 Y20.7121
G01 X22.0646 Y20.8089
G01 X22.0095 Y20.9007
G01 X21.9458 Y20.9867
G01 X21.8739 Y21.0661
G01 X21.7945 Y21.1380
G01 X21.7085 Y21.2017
G01 X21.6167 Y21.2568
G01 X21.5199 Y21.3026
G01 X21.4191 Y21.3386
G01 X21.3152 Y21.3647
G01 X21.2093 Y21.3804
G01 X21.1024 Y21.3856
G01 X20.9955 Y21.3804
G01 X20.8896 Y21.3647
G01 X20.7857 Y21.3386
G01 X20.6849 Y21.3026
G01 X20.5881 Y21.2568
G01 X20.4963 Y21.2017
G01 X20.4103 Y21.1380
G01 X20.3309 Y21.0661
G01 X20.2590 Y20.9867
G01 X20.1953 Y20.9007
G01 X20.1402 Y20.8089
G01 X20.0944 Y20.7121
G01 X20.0584 Y20.6113
G01 X20.0323 Y20.5074
G01 X20.0178 Y20.4114
G00 Z1.0000
G00 X20.0323 Y17.9674
G01 F60.00
G01 Z-0.0800
G01 F60.00
G01 X20.0262 Y17.9275
G01 X18.7143 Y17.2864
G01 X18.6494 Y17.3250
G01 X18.5470 Y17.3734
G01 X18.4403 Y17.4116
G01 X18.3353 Y17.4381
G01 X18.3207 Y17.4408
G01 X18.2282 Y17.4545
G01 X18.2085 Y17.4565
G01 X18.1052 Y17.4613
G01 X17.9970 Y17.4562
G01 X17.9822 Y17.4545
G01 X17.8897 Y17.4408
G01 X17.8703 Y17.4370
G01 X17.7701 Y17.4116
G01 X17.6634 Y17.3734
G01 X17.5610 Y17.3250
G01 X17.4722 Y17.2721
G01 X17.4557 Y17.2610
G01 X17.3806 Y17.2054
G01 X17.3690 Y17.1961
G01 X17.2888 Y17.1232
G01 X17.2127 Y17.0392
G01 X17.1453 Y16.9482
G01 X17.0870 Y16.8510
G01 X17.0386 Y16.7486
G01 X17.0004 Y16.6419
G01 X16.9729 Y16.5320
G01 X16.9562 Y16.4200
G01 X16.9507 Y16.3068
G01 X16.9562 Y16.1936
G01 X16.9729 Y16.0816
G01 X17.0004 Y15.9717
G01 X17.0386 Y15.8650
G01 X17.0870 Y15.7626
G01 X17.1453 Y15.6654
G01 X17.2066 Y15.5822
G01 X17.2159 Y15.5706
G01 X17.2888 Y15.4904
G01 X17.3653 Y15.4208
G01 X17.3806 Y15.4082
G01 X17.4638 Y15.3469
G01 X17.5610 Y15.2886
G01 X17.6543 Y15.2442
G01 X17.6726 Y15.2366
G01 X17.7606 Y15.2051
G01 X17.7796 Y15.1994
G01 X17.8800 Y15.1745
G01 X17.9920 Y15.1578
G01 X18.1052 Y15.1523
G01 X18.2085 Y15.1571
G01 X18.2282 Y15.1591
G01 X18.3207 Y15.1728
G01 X18.3401 Y15.1766
G01 X18.4403 Y15.2020
G01 X18.5424 Y15.2383
G01 X18.5561 Y15.2442
G01 X18.6406 Y15.2841
G01 X18.6581 Y15.2935
G01 X18.7466 Y15.3469
G01 X18.8298 Y15.4082
G01 X18.8451 Y15.4208
G01 X18.9216 Y15.4904
G01 X18.9912 Y15.5669
G01 X19.0038 Y15.5822
G01 X19.0651 Y15.6654
G01 X19.1185 Y15.7539
G01 X19.1279 Y15.7714
G01 X19.1718 Y15.8650
G01 X19.2100 Y15.9717
G01 X19.2354 Y16.0719
G01 X19.2392 Y16.0913
G01 X19.2529 Y16.1838
G01 X19.2543 Y16.1955
G01 X20.5374 Y16.8225
G01 X20.5795 Y16.7973
G01 X20.5925 Y16.7901
G01 X20.6803 Y16.7486
G01 X20.6941 Y16.7431
G01 X20.7810 Y16.7121
G01 X20.7953 Y16.7079
G01 X20.8896 Y16.6845
G01 X20.9856 Y16.6700
G01 X21.0004 Y16.6684
G01 X21.0925 Y16.6638
G01 X21.1123 Y16.6638
G01 X21.2093 Y16.6688
G01 X21.3055 Y16.6829
G01 X21.3249 Y16.6867
G01 X21.4191 Y16.7106
G01 X21.5107 Y16.7431
G01 X21.5290 Y16.7506
G01 X21.6167 Y16.7924
G01 X21.7002 Y16.8421
G01 X21.7166 Y16.8532
G01 X21.7867 Y16.9051
G01 X21.8020 Y16.9177
G01 X21.8739 Y16.9831
G01 X21.9458 Y17.0625
G01 X22.0038 Y17.1404
G01 X22.0149 Y17.1568
G01 X22.0646 Y17.2403
G01 X22.1064 Y17.3280
G01 X22.1139 Y17.3463
G01 X22.1464 Y17.4379
G01 X22.1725 Y17.5418
G01 X22.1882 Y17.6477
G01 X22.1934 Y17.7546
G01 X22.1882 Y17.8615
G01 X22.1725 Y17.9674
G01 X22.1464 Y18.0713
G01 X22.1104 Y18.1721
G01 X22.0646 Y18.2689
G01 X22.0095 Y18.3607
G01 X21.9458 Y18.4467
G01 X21.8739 Y18.5261
G01 X21.7945 Y18.5980
G01 X21.7085 Y18.6617
G01 X21.6167 Y18.7168
G01 X21.5199 Y18.7626
G01 X21.4191 Y18.7986
G01 X21.3152 Y18.8247
G01 X21.2093 Y18.8404
G01 X21.1024 Y18.8456
G01 X20.9955 Y18.8404
G01 X20.8896 Y18.8247
G01 X20.7857 Y18.7986
G01 X20.6849 Y18.7626
G01 X20.5881 Y18.7168
G01 X20.4963 Y18.6617
G01 X20.4103 Y18.5980
G01 X20.3309 Y18.5261
G01 X20.2590 Y18.4467
G01 X20.1953 Y18.3607
G01 X20.1402 Y18.2689
G01 X20.0944 Y18.1721
G01 X20.0584 Y18.0713
G01 X20.0323 Y17.9674
G00 Z1.0000
G00 X19.1486 Y16.2017
G01 F60.00
G01 Z-0.0800
G01 F60.00
G01 X19.1519 Y16.2632
G01 X20.5440 Y16.9435
G01 X20.5531 Y16.9368
G01 X20.5590 Y16.9329
G01 X20.6339 Y16.8881
G01 X20.6422 Y16.8836
G01 X20.7254 Y16.8444
G01 X20.8164 Y16.8118
G01 X20.9102 Y16.7883
G01 X21.0011 Y16.7747
G01 X21.0105 Y16.7738
G01 X21.0977 Y16.7695
G01 X21.1071 Y16.7695
G01 X21.1990 Y16.7741
G01 X21.2946 Y16.7883
G01 X21.3884 Y16.8118
G01 X21.4750 Y16.8427
G01 X21.4837 Y16.8463
G01 X21.5626 Y16.8836
G01 X21.5709 Y16.8881
G01 X21.6497 Y16.9354
G01 X21.7274 Y16.9930
G01 X21.7990 Y17.0580
G01 X21.8640 Y17.1296
G01 X21.9216 Y17.2073
G01 X21.9713 Y17.2902
G01 X22.0126 Y17.3776
G01 X22.0452 Y17.4686
G01 X22.0687 Y17.5624
G01 X22.0829 Y17.6580
G01 X22.0876 Y17.7546
G01 X22.0829 Y17.8512
G01 X22.0687 Y17.9468
G01 X22.0452 Y18.0406
G01 X22.0126 Y18.1316
G01 X21.9713 Y18.2190
G01 X21.9216 Y18.3019
G01 X21.8640 Y18.3796
G01 X21.7990 Y18.4512
G01 X21.7310 Y18.5131
G01 X21.7237 Y18.5191
G01 X21.6536 Y18.5710
G01 X21.6458 Y18.5763
G01 X21.5668 Y18.6235
G01 X21.4794 Y18.6648
G01 X21.3884 Y18.6974
G01 X21.2992 Y18.7198
G01 X21.2900 Y18.7217
G01 X21.2037 Y18.7345
G01 X21.1943 Y18.7354
G01 X21.1024 Y18.7398
G01 X21.0058 Y18.7351
G01 X20.9102 Y18.7209
G01 X20.8210 Y18.6986
G01 X20.8119 Y18.6959
G01 X20.7254 Y18.6648
G01 X20.6422 Y18.6256
G01 X20.6339 Y18.6211
G01 X20.5551 Y18.5738
G01 X20.4811 Y18.5191
G01 X20.4738 Y18.5131
G01 X20.4058 Y18.4512
G01 X20.3439 Y18.3832
G01 X20.3379 Y18.3759
G01 X20.2832 Y18.3019
G01 X20.2359 Y18.2231
G01 X20.2314 Y18.2148
G01 X20.1922 Y18.1316
G01 X20.1611 Y18.0451
G01 X20.1584 Y18.0360
G01 X20.1361 Y17.9468
G01 X20.1227 Y17.8568
G01 X18.7067 Y17.1649
G01 X18.6858 Y17.1800
G01 X18.5975 Y17.2328
G01 X18.5065 Y17.2757
G01 X18.4119 Y17.3096
G01 X18.3144 Y17.3343
G01 X18.3051 Y17.3362
G01 X18.2080 Y17.3504
G01 X18.1076 Y17.3555
G01 X18.0071 Y17.3508
G01 X17.9977 Y17.3499
G01 X17.9006 Y17.3353
G01 X17.8008 Y17.3103
G01 X17.7083 Y17.2774
G01 X17.6996 Y17.2738
G01 X17.6108 Y17.2317
G01 X17.5266 Y17.1813
G01 X17.5187 Y17.1760
G01 X17.4399 Y17.1175
G01 X17.3637 Y17.0483
G01 X17.2945 Y16.9721
G01 X17.2360 Y16.8933
G01 X17.2307 Y16.8854
G01 X17.1803 Y16.8012
G01 X17.1382 Y16.7124
G01 X17.1346 Y16.7037
G01 X17.1031 Y16.6157
G01 X17.1004 Y16.6067
G01 X17.0767 Y16.5114
G01 X17.0616 Y16.4096
G01 X17.0565 Y16.3068
G01 X17.0616 Y16.2040
G01 X17.0767 Y16.1022
G01 X17.1017 Y16.0024
G01 X17.1363 Y15.9055
G01 X17.1803 Y15.8124
G01 X17.2332 Y15.7242
G01 X17.2945 Y15.6415
G01 X17.3637 Y15.5653
G01 X17.4399 Y15.4961
G01 X17.5226 Y15.4348
G01 X17.6108 Y15.3819
G01 X17.7039 Y15.3379
G01 X17.8008 Y15.3033
G01 X17.9006 Y15.2783
G01 X18.0024 Y15.2632
G01 X18.1052 Y15.2581
G01 X18.2080 Y15.2632
G01 X18.3098 Y15.2783
G01 X18.4096 Y15.3033
G01 X18.5065 Y15.3379
G01 X18.5996 Y15.3819
G01 X18.6878 Y15.4348
G01 X18.7705 Y15.4961
G01 X18.8467 Y15.5653
G01 X18.9159 Y15.6415
G01 X18.9772 Y15.7242
G01 X19.0301 Y15.8124
G01 X19.0741 Y15.9055
G01 X19.1087 Y16.0024
G01 X19.1337 Y16.1022
G01 X19.1486 Y16.2017
G00 Z1.0000
G00 X20.0976 Y13.0097
G01 F60.00
G01 Z-0.0800
G01 F60.00
G01 X20.1003 Y13.0007
G01 X20.1234 Y12.9363
G01 X15.3749 Y7.4038
G01 X15.3276 Y7.4154
G01 X15.2219 Y7.4311
G01 X15.1127 Y7.4367
G01 X15.1056 Y7.4368
G01 X14.9965 Y7.4313
G01 X14.8907 Y7.4157
G01 X14.8815 Y7.4139
G01 X14.7755 Y7.3871
G01 X14.6727 Y7.3502
G01 X14.5760 Y7.3046
G01 X14.5676 Y7.3001
G01 X14.4760 Y7.2451
G01 X14.3863 Y7.1786
G01 X14.3070 Y7.1069
G01 X14.3003 Y7.1002
G01 X14.2317 Y7.0245
G01 X14.2257 Y7.0172
G01 X14.1621 Y6.9312
G01 X14.1047 Y6.8355
G01 X14.0570 Y6.7345
G01 X14.0194 Y6.6294
G01 X13.9923 Y6.5211
G01 X13.9759 Y6.4107
G01 X13.9704 Y6.2992
G01 X13.9759 Y6.1877
G01 X13.9923 Y6.0773
G01 X14.0194 Y5.9690
G01 X14.0570 Y5.8639
G01 X14.1047 Y5.7629
G01 X14.1621 Y5.6672
G01 X14.2286 Y5.5775
G01 X14.3036 Y5.4948
G01 X14.3827 Y5.4229
G01 X14.3900 Y5.4169
G01 X14.4760 Y5.3533
G01 X14.5717 Y5.2959
G01 X14.6727 Y5.2482
G01 X14.7778 Y5.2106
G01 X14.8861 Y5.1835
G01 X14.9965 Y5.1671
G01 X15.1080 Y5.1616
G01 X15.2148 Y5.1667
G01 X15.2242 Y5.1677
G01 X15.3299 Y5.1835
G01 X15.4337 Y5.2093
G01 X15.4427 Y5.2121
G01 X15.5389 Y5.2465
G01 X15.5477 Y5.2501
G01 X15.6443 Y5.2959
G01 X15.7400 Y5.3533
G01 X15.8297 Y5.4198
G01 X15.9107 Y5.4931
G01 X15.9843 Y5.5739
G01 X15.9903 Y5.5812
G01 X16.0539 Y5.6672
G01 X16.1113 Y5.7629
G01 X16.1590 Y5.8639
G01 X16.1951 Y5.9645
G01 X16.1979 Y5.9735
G01 X16.2237 Y6.0773
G01 X16.2401 Y6.1877
G01 X16.2455 Y6.2945
G01 X16.2455 Y6.3039
G01 X16.2399 Y6.4131
G01 X16.2237 Y6.5211
G01 X16.1973 Y6.6272
G01 X16.1599 Y6.7323
G01 X16.1472 Y6.7597
G01 X20.8882 Y12.2833
G01 X20.9025 Y12.2802
G01 X20.9996 Y12.2660
G01 X21.0977 Y12.2610
G01 X21.1071 Y12.2610
G01 X21.2052 Y12.2660
G01 X21.3023 Y12.2802
G01 X21.3116 Y12.2821
G01 X21.4023 Y12.3048
G01 X21.4113 Y12.3075
G01 X21.5037 Y12.3407
G01 X21.5925 Y12.3826
G01 X21.6009 Y12.3871
G01 X21.6850 Y12.4376
G01 X21.7677 Y12.4989
G01 X21.8405 Y12.5648
G01 X21.8472 Y12.5715
G01 X21.9145 Y12.6462
G01 X21.9744 Y12.7270
G01 X22.0273 Y12.8152
G01 X22.0713 Y12.9083
G01 X22.1045 Y13.0007
G01 X22.1066 Y13.0074
G01 X22.1309 Y13.1050
G01 X22.1455 Y13.2021
G01 X22.1463 Y13.2092
G01 X22.1511 Y13.3120
G01 X22.1463 Y13.4100
G01 X22.1396 Y13.4567
G01 X22.2257 Y13.5238
G01 X22.2550 Y13.5487
G01 X22.2630 Y13.5561
G01 X22.2929 Y13.5873
G01 X22.3208 Y13.6222
G01 X22.3271 Y13.6310
G01 X22.3492 Y13.6653
G01 X25.0055 Y18.2556
G01 X25.0187 Y18.2554
G01 X25.1168 Y18.2604
G01 X25.2139 Y18.2746
G01 X25.2232 Y18.2765
G01 X25.3184 Y18.3005
G01 X25.4109 Y18.3334
G01 X25.4196 Y18.3370
G01 X25.5041 Y18.3770
G01 X25.5125 Y18.3815
G01 X25.5966 Y18.4320
G01 X25.6756 Y18.4904
G01 X25.6829 Y18.4964
G01 X25.7555 Y18.5625
G01 X25.8216 Y18.6351
G01 X25.8276 Y18.6424
G01 X25.8860 Y18.7214
G01 X25.9389 Y18.8096
G01 X25.9810 Y18.8984
G01 X25.9846 Y18.9071
G01 X26.0175 Y18.9996
G01 X26.0425 Y19.0994
G01 X26.0571 Y19.1965
G01 X26.0580 Y19.2059
G01 X26.0627 Y19.3040
G01 X26.0580 Y19.4021
G01 X26.0571 Y19.4115
G01 X26.0434 Y19.5039
G01 X26.0415 Y19.5132
G01 X26.0175 Y19.6084
G01 X25.9846 Y19.7009
G01 X25.9810 Y19.7096
G01 X25.9389 Y19.7984
G01 X25.8872 Y19.8846
G01 X25.8750 Y19.9016
G01 X26.2843 Y20.7204
G01 X36.1332 Y20.3678
G01 X36.1471 Y20.3390
G01 X36.1995 Y20.2516
G01 X36.2035 Y20.2457
G01 X36.2658 Y20.1621
G01 X36.3359 Y20.0849
G01 X36.4114 Y20.0164
G01 X36.4187 Y20.0104
G01 X36.4967 Y19.9525
G01 X36.5046 Y19.9472
G01 X36.5921 Y19.8949
G01 X36.6842 Y19.8512
G01 X36.6929 Y19.8476
G01 X36.7889 Y19.8134
G01 X36.8924 Y19.7875
G01 X36.9932 Y19.7724
G01 X37.0026 Y19.7715
G01 X37.0997 Y19.7667
G01 X37.1091 Y19.7667
G01 X37.2109 Y19.7718
G01 X37.3118 Y19.7867
G01 X37.3210 Y19.7885
G01 X37.4153 Y19.8121
G01 X37.4244 Y19.8149
G01 X37.5203 Y19.8493
G01 X37.6167 Y19.8949
G01 X37.7082 Y19.9498
G01 X37.7901 Y20.0104
G01 X37.7974 Y20.0164
G01 X37.8729 Y20.0849
G01 X37.9414 Y20.1604
G01 X37.9474 Y20.1677
G01 X38.0080 Y20.2496
G01 X38.0605 Y20.3370
G01 X38.0650 Y20.3453
G01 X38.1085 Y20.4375
G01 X38.1429 Y20.5334
G01 X38.1457 Y20.5425
G01 X38.1703 Y20.6414
G01 X38.1860 Y20.7469
G01 X38.1911 Y20.8487
G01 X38.1911 Y20.8581
G01 X38.1860 Y20.9599
G01 X38.1711 Y21.0608
G01 X38.1693 Y21.0700
G01 X38.1444 Y21.1689
G01 X38.1102 Y21.2649
G01 X38.1066 Y21.2736
G01 X38.0629 Y21.3657
G01 X38.0106 Y21.4532
G01 X38.0053 Y21.4611
G01 X37.9445 Y21.5429
G01 X37.8761 Y21.6185
G01 X37.8695 Y21.6251
G01 X37.7939 Y21.6935
G01 X37.7082 Y21.7570
G01 X37.6208 Y21.8095
G01 X37.6125 Y21.8140
G01 X37.5203 Y21.8575
G01 X37.4199 Y21.8934
G01 X37.3210 Y21.9183
G01 X37.3118 Y21.9201
G01 X37.2109 Y21.9350
G01 X37.1068 Y21.9402
G01 X37.0026 Y21.9353
G01 X36.9932 Y21.9344
G01 X36.8924 Y21.9193
G01 X36.7935 Y21.8947
G01 X36.7844 Y21.8919
G01 X36.6885 Y21.8575
G01 X36.5963 Y21.8140
G01 X36.5880 Y21.8095
G01 X36.5006 Y21.7570
G01 X36.4187 Y21.6964
G01 X36.4114 Y21.6904
G01 X36.3359 Y21.6219
G01 X36.2674 Y21.5464
G01 X36.2614 Y21.5391
G01 X36.2008 Y21.4572
G01 X36.1504 Y21.3734
G01 X25.9972 Y21.7369
G01 X25.9679 Y21.7370
G01 X25.9479 Y21.7362
G01 X25.9163 Y21.7333
G01 X25.8965 Y21.7303
G01 X25.8700 Y21.7252
G01 X25.8528 Y21.7210
G01 X25.8224 Y21.7121
G01 X25.8035 Y21.7055
G01 X25.7742 Y21.6935
G01 X25.7582 Y21.6860
G01 X25.7323 Y21.6724
G01 X25.7130 Y21.6609
G01 X25.6886 Y21.6447
G01 X25.6743 Y21.6342
G01 X25.6516 Y21.6158
G01 X25.6384 Y21.6040
G01 X25.6125 Y21.5784
G01 X25.6007 Y21.5653
G01 X25.5835 Y21.5445
G01 X25.5700 Y21.5266
G01 X25.5537 Y21.5023
G01 X25.5445 Y21.4871
G01 X25.5295 Y21.4593
G01 X24.9753 Y20.3509
G01 X24.9112 Y20.3476
G01 X24.8117 Y20.3330
G01 X24.7141 Y20.3088
G01 X24.7073 Y20.3068
G01 X24.6127 Y20.2729
G01 X24.5239 Y20.2310
G01 X24.5155 Y20.2265
G01 X24.4334 Y20.1772
G01 X24.4275 Y20.1732
G01 X24.3487 Y20.1147
G01 X24.2759 Y20.0488
G01 X24.2692 Y20.0421
G01 X24.2033 Y19.9693
G01 X24.1448 Y19.8905
G01 X24.1395 Y19.8826
G01 X24.0903 Y19.8004
G01 X24.0470 Y19.7096
G01 X24.0434 Y19.7009
G01 X24.0105 Y19.6084
G01 X23.9865 Y19.5132
G01 X23.9846 Y19.5039
G01 X23.9704 Y19.4068
G01 X23.9654 Y19.3087
G01 X23.9653 Y19.3016
G01 X23.9704 Y19.2012
G01 X23.9846 Y19.1041
G01 X23.9865 Y19.0948
G01 X24.0105 Y18.9996
G01 X24.0434 Y18.9071
G01 X24.0470 Y18.8984
G01 X24.0891 Y18.8096
G01 X24.1273 Y18.7457
G01 X21.5340 Y14.2643
G01 X21.5015 Y14.2793
G01 X21.4091 Y14.3124
G01 X21.3116 Y14.3371
G01 X21.3047 Y14.3386
G01 X21.2052 Y14.3532
G01 X21.1071 Y14.3582
G01 X21.0977 Y14.3582
G01 X20.9973 Y14.3530
G01 X20.8978 Y14.3381
G01 X20.8025 Y14.3144
G01 X20.7935 Y14.3117
G01 X20.7011 Y14.2785
G01 X20.6080 Y14.2345
G01 X20.5238 Y14.1841
G01 X20.5159 Y14.1788
G01 X20.4353 Y14.1187
G01 X20.3609 Y14.0511
G01 X20.2948 Y13.9785
G01 X20.2888 Y13.9712
G01 X20.2304 Y13.8922
G01 X20.1775 Y13.8040
G01 X20.1354 Y13.7152
G01 X20.1318 Y13.7065
G01 X20.0989 Y13.6140
G01 X20.0749 Y13.5188
G01 X20.0730 Y13.5095
G01 X20.0588 Y13.4124
G01 X20.0537 Y13.3096
G01 X20.0584 Y13.2115
G01 X20.0593 Y13.2021
G01 X20.0739 Y13.1050
G01 X20.0976 Y13.0097
G00 Z1.0000
G00 X19.9962 Y12.9792
G01 F60.00
G01 Z-0.0800
G01 F60.00
G01 X20.0030 Y12.9585
G01 X15.3361 Y7.5211
G01 X15.2299 Y7.5366
G01 X15.1179 Y7.5424
G01 X15.0981 Y7.5424
G01 X14.9861 Y7.5366
G01 X14.8752 Y7.5204
G01 X14.8557 Y7.5166
G01 X14.7471 Y7.4891
G01 X14.6322 Y7.4480
G01 X14.5307 Y7.4003
G01 X14.5132 Y7.3909
G01 X14.4172 Y7.3331
G01 X14.3192 Y7.2604
G01 X14.2360 Y7.1853
G01 X14.2219 Y7.1712
G01 X14.1468 Y7.0880
G01 X14.0798 Y6.9981
G01 X14.0688 Y6.9816
G01 X14.0114 Y6.8853
G01 X13.9592 Y6.7750
G01 X13.9181 Y6.6601
G01 X13.8885 Y6.5418
G01 X13.8706 Y6.4211
G01 X13.8646 Y6.2992
G01 X13.8706 Y6.1773
G01 X13.8885 Y6.0566
G01 X13.9181 Y5.9383
G01 X13.9592 Y5.8234
G01 X14.0114 Y5.7131
G01 X14.0741 Y5.6084
G01 X14.1468 Y5.5104
G01 X14.2288 Y5.4200
G01 X14.3192 Y5.3380
G01 X14.4091 Y5.2710
G01 X14.4256 Y5.2600
G01 X14.5219 Y5.2026
G01 X14.6231 Y5.1545
G01 X14.6414 Y5.1469
G01 X14.7376 Y5.1124
G01 X14.7566 Y5.1067
G01 X14.8654 Y5.0797
G01 X14.9861 Y5.0618
G01 X15.1080 Y5.0558
G01 X15.2299 Y5.0618
G01 X15.3506 Y5.0797
G01 X15.4594 Y5.1067
G01 X15.4784 Y5.1124
G01 X15.5746 Y5.1469
G01 X15.5929 Y5.1545
G01 X15.6941 Y5.2026
G01 X15.7988 Y5.2653
G01 X15.8968 Y5.3380
G01 X15.9837 Y5.4165
G01 X15.9941 Y5.4272
G01 X16.0627 Y5.5029
G01 X16.0753 Y5.5182
G01 X16.1419 Y5.6084
G01 X16.2046 Y5.7131
G01 X16.2527 Y5.8143
G01 X16.2603 Y5.8326
G01 X16.2979 Y5.9383
G01 X16.3265 Y6.0518
G01 X16.3292 Y6.0664
G01 X16.3442 Y6.1675
G01 X16.3462 Y6.1872
G01 X16.3514 Y6.2992
G01 X16.3459 Y6.4161
G01 X16.3442 Y6.4309
G01 X16.3292 Y6.5320
G01 X16.3265 Y6.5466
G01 X16.2979 Y6.6601
G01 X16.2696 Y6.7398
G01 X20.9297 Y12.1692
G01 X20.9794 Y12.1619
G01 X20.9942 Y12.1602
G01 X21.0974 Y12.1551
G01 X21.1123 Y12.1553
G01 X21.2057 Y12.1599
G01 X21.2205 Y12.1612
G01 X21.3276 Y12.1773
G01 X21.4280 Y12.2022
G01 X21.4470 Y12.2079
G01 X21.5396 Y12.2411
G01 X21.5533 Y12.2470
G01 X21.6466 Y12.2914
G01 X21.7354 Y12.3443
G01 X21.7519 Y12.3554
G01 X21.8348 Y12.4171
G01 X21.9116 Y12.4864
G01 X21.9256 Y12.5004
G01 X21.9884 Y12.5697
G01 X21.9980 Y12.5811
G01 X22.0623 Y12.6682
G01 X22.1206 Y12.7654
G01 X22.1690 Y12.8678
G01 X22.2072 Y12.9745
G01 X22.2347 Y13.0844
G01 X22.2514 Y13.1964
G01 X22.2569 Y13.3096
G01 X22.2522 Y13.4103
G01 X22.2927 Y13.4419
G01 X22.3274 Y13.4715
G01 X22.3374 Y13.4809
G01 X22.3693 Y13.5140
G01 X22.3817 Y13.5286
G01 X22.4100 Y13.5648
G01 X22.4177 Y13.5762
G01 X22.4420 Y13.6144
G01 X25.0677 Y18.1519
G01 X25.1173 Y18.1543
G01 X25.1321 Y18.1556
G01 X25.2344 Y18.1708
G01 X25.2489 Y18.1738
G01 X25.3396 Y18.1966
G01 X25.3539 Y18.2007
G01 X25.4558 Y18.2374
G01 X25.5494 Y18.2813
G01 X25.5669 Y18.2907
G01 X25.6513 Y18.3413
G01 X25.6635 Y18.3498
G01 X25.7464 Y18.4115
G01 X25.8232 Y18.4808
G01 X25.8372 Y18.4948
G01 X25.9065 Y18.5716
G01 X25.9682 Y18.6545
G01 X25.9793 Y18.6710
G01 X26.0322 Y18.7598
G01 X26.0766 Y18.8531
G01 X26.0842 Y18.8714
G01 X26.1188 Y18.9689
G01 X26.1442 Y19.0691
G01 X26.1480 Y19.0885
G01 X26.1630 Y19.1908
G01 X26.1683 Y19.2941
G01 X26.1685 Y19.3090
G01 X26.1637 Y19.4073
G01 X26.1617 Y19.4270
G01 X26.1463 Y19.5292
G01 X26.1202 Y19.6344
G01 X26.1157 Y19.6486
G01 X26.0842 Y19.7366
G01 X26.0787 Y19.7504
G01 X26.0322 Y19.8482
G01 X25.9965 Y19.9082
G01 X26.3485 Y20.6122
G01 X36.0685 Y20.2642
G01 X36.1128 Y20.1908
G01 X36.1764 Y20.1046
G01 X36.1890 Y20.0893
G01 X36.2611 Y20.0101
G01 X36.3403 Y19.9380
G01 X36.3556 Y19.9254
G01 X36.4418 Y19.8618
G01 X36.5336 Y19.8065
G01 X36.5511 Y19.7971
G01 X36.6480 Y19.7516
G01 X36.7488 Y19.7152
G01 X36.7678 Y19.7095
G01 X36.8717 Y19.6837
G01 X36.9777 Y19.6677
G01 X36.9974 Y19.6658
G01 X37.0994 Y19.6608
G01 X37.1143 Y19.6610
G01 X37.2114 Y19.6658
G01 X37.2311 Y19.6677
G01 X37.3371 Y19.6837
G01 X37.4506 Y19.7121
G01 X37.5515 Y19.7480
G01 X37.5699 Y19.7556
G01 X37.6666 Y19.8016
G01 X37.7586 Y19.8565
G01 X37.7751 Y19.8675
G01 X37.8610 Y19.9315
G01 X37.9405 Y20.0033
G01 X37.9545 Y20.0173
G01 X38.0263 Y20.0968
G01 X38.0903 Y20.1827
G01 X38.1013 Y20.1992
G01 X38.1513 Y20.2826
G01 X38.1585 Y20.2956
G01 X38.2022 Y20.3879
G01 X38.2098 Y20.4063
G01 X38.2457 Y20.5072
G01 X38.2719 Y20.6111
G01 X38.2758 Y20.6305
G01 X38.2913 Y20.7365
G01 X38.2970 Y20.8534
G01 X38.2913 Y20.9703
G01 X38.2758 Y21.0763
G01 X38.2719 Y21.0957
G01 X38.2483 Y21.1900
G01 X38.2426 Y21.2090
G01 X38.2062 Y21.3098
G01 X38.1607 Y21.4067
G01 X38.1513 Y21.4242
G01 X38.0960 Y21.5160
G01 X38.0263 Y21.6100
G01 X37.9477 Y21.6967
G01 X37.8685 Y21.7688
G01 X37.8532 Y21.7814
G01 X37.7670 Y21.8450
G01 X37.6752 Y21.9003
G01 X37.6577 Y21.9097
G01 X37.5699 Y21.9512
G01 X37.5515 Y21.9588
G01 X37.4506 Y21.9947
G01 X37.3419 Y22.0221
G01 X37.3273 Y22.0248
G01 X37.2311 Y22.0391
G01 X37.2114 Y22.0410
G01 X37.1044 Y22.0460
G01 X36.9875 Y22.0403
G01 X36.8717 Y22.0231
G01 X36.7678 Y21.9973
G01 X36.7488 Y21.9916
G01 X36.6573 Y21.9588
G01 X36.6434 Y21.9533
G01 X36.5422 Y21.9052
G01 X36.4502 Y21.8503
G01 X36.4337 Y21.8393
G01 X36.3556 Y21.7814
G01 X36.3440 Y21.7721
G01 X36.2611 Y21.6967
G01 X36.1857 Y21.6138
G01 X36.1764 Y21.6022
G01 X36.1156 Y21.5201
G01 X36.1075 Y21.5076
G01 X36.0918 Y21.4814
G01 X32.3153 Y21.6166
G01 X32.7406 Y21.6166
G01 X32.7554 Y21.6176
G01 X32.7652 Y21.6188
G01 X32.7847 Y21.6226
G01 X32.7942 Y21.6253
G01 X32.8083 Y21.6301
G01 X32.8220 Y21.6360
G01 X32.8352 Y21.6428
G01 X32.8478 Y21.6506
G01 X32.8559 Y21.6563
G01 X32.8676 Y21.6656
G01 X32.8784 Y21.6758
G01 X32.8886 Y21.6866
G01 X32.8949 Y21.6943
G01 X32.9036 Y21.7064
G01 X32.9114 Y21.7190
G01 X32.9182 Y21.7322
G01 X32.9241 Y21.7459
G01 X32.9289 Y21.7600
G01 X32.9316 Y21.7695
G01 X32.9337 Y21.7792
G01 X32.9361 Y21.7939
G01 X32.9371 Y21.8037
G01 X32.9376 Y21.8186
G01 X32.9376 Y23.9064
G01 X32.9366 Y23.9212
G01 X32.9337 Y23.9408
G01 X32.9303 Y23.9553
G01 X32.9258 Y23.9695
G01 X32.9203 Y23.9833
G01 X32.9138 Y23.9966
G01 X32.9063 Y24.0095
G01 X32.8949 Y24.0257
G01 X32.8819 Y24.0407
G01 X32.8676 Y24.0544
G01 X32.8599 Y24.0607
G01 X32.8478 Y24.0694
G01 X32.8308 Y24.0796
G01 X32.8129 Y24.0880
G01 X32.7990 Y24.0932
G01 X32.7895 Y24.0961
G01 X32.7701 Y24.1004
G01 X32.7603 Y24.1019
G01 X32.7455 Y24.1032
G01 X30.9180 Y24.1034
G01 X29.8069 Y24.8348
G01 X29.3577 Y29.2834
G01 X29.4350 Y29.3410
G01 X29.5182 Y29.4161
G01 X29.5323 Y29.4302
G01 X29.6074 Y29.5134
G01 X29.6744 Y29.6033
G01 X29.6854 Y29.6198
G01 X29.7428 Y29.7161
G01 X29.7909 Y29.8173
G01 X29.7985 Y29.8356
G01 X29.8361 Y29.9413
G01 X29.8636 Y30.0499
G01 X29.8674 Y30.0694
G01 X29.8836 Y30.1803
G01 X29.8894 Y30.2923
G01 X29.8894 Y30.3121
G01 X29.8836 Y30.4241
G01 X29.8674 Y30.5350
G01 X29.8636 Y30.5545
G01 X29.8361 Y30.6631
G01 X29.7985 Y30.7688
G01 X29.7909 Y30.7871
G01 X29.7428 Y30.8883
G01 X29.6801 Y30.9930
G01 X29.6135 Y31.0832
G01 X29.6009 Y31.0985
G01 X29.5254 Y31.1814
G01 X29.4425 Y31.2569
G01 X29.4272 Y31.2695
G01 X29.3370 Y31.3361
G01 X29.2410 Y31.3939
G01 X29.2279 Y31.4011
G01 X29.1220 Y31.4510
G01 X29.0166 Y31.4890
G01 X28.9976 Y31.4947
G01 X28.8888 Y31.5217
G01 X28.7779 Y31.5384
G01 X28.7582 Y31.5404
G01 X28.6462 Y31.5456
G01 X28.5342 Y31.5404
G01 X28.5145 Y31.5384
G01 X28.4036 Y31.5217
G01 X28.2948 Y31.4947
G01 X28.2758 Y31.4890
G01 X28.1704 Y31.4510
G01 X28.0689 Y31.4033
G01 X28.0514 Y31.3939
G01 X27.9554 Y31.3361
G01 X27.8574 Y31.2634
G01 X27.7742 Y31.1883
G01 X27.7601 Y31.1742
G01 X27.6850 Y31.0910
G01 X27.6180 Y31.0011
G01 X27.6070 Y30.9846
G01 X27.5496 Y30.8883
G01 X27.5015 Y30.7871
G01 X27.4939 Y30.7688
G01 X27.4563 Y30.6631
G01 X27.4288 Y30.5545
G01 X27.4250 Y30.5350
G01 X27.4088 Y30.4241
G01 X27.4030 Y30.3121
G01 X27.4030 Y30.2923
G01 X27.4080 Y30.1902
G01 X27.4093 Y30.1754
G01 X27.4250 Y30.0694
G01 X27.4288 Y30.0499
G01 X27.4563 Y29.9413
G01 X27.4939 Y29.8356
G01 X27.5015 Y29.8173
G01 X27.5496 Y29.7161
G01 X27.6070 Y29.6198
G01 X27.6180 Y29.6033
G01 X27.6850 Y29.5134
G01 X27.7601 Y29.4302
G01 X27.7742 Y29.4161
G01 X27.8574 Y29.3410
G01 X27.9473 Y29.2740
G01 X27.9638 Y29.2630
G01 X28.0601 Y29.2056
G01 X28.1463 Y29.1645
G01 X28.6251 Y24.4222
G01 X28.6329 Y24.3701
G01 X28.6365 Y24.3531
G01 X28.6486 Y24.3071
G01 X28.6524 Y24.2955
G01 X28.6651 Y24.2606
G01 X28.6689 Y24.2509
G01 X28.6738 Y24.2398
G01 X28.6922 Y24.2016
G01 X28.6979 Y24.1909
G01 X28.7254 Y24.1459
G01 X28.7325 Y24.1359
G01 X28.7579 Y24.1020
G01 X28.7657 Y24.0927
G01 X28.7942 Y24.0614
G01 X28.8064 Y24.0490
G01 X28.8458 Y24.0139
G01 X28.8554 Y24.0064
G01 X28.8854 Y23.9844
G01 X28.8958 Y23.9772
G01 X30.4304 Y22.9671
G01 X30.4254 Y22.8600
G01 X30.4306 Y22.7480
G01 X30.4326 Y22.7283
G01 X30.4476 Y22.6272
G01 X30.4508 Y22.6105
G01 X30.4510 Y21.8087
G01 X30.4523 Y21.7939
G01 X30.4557 Y21.7743
G01 X30.4610 Y21.7552
G01 X30.4662 Y21.7413
G01 X30.4724 Y21.7278
G01 X30.4821 Y21.7105
G01 X30.4935 Y21.6943
G01 X30.5045 Y21.6814
G01 X26.0010 Y21.8426
G01 X25.9676 Y21.8429
G01 X25.9413 Y21.8418
G01 X25.9080 Y21.8388
G01 X25.8770 Y21.8343
G01 X25.8443 Y21.8279
G01 X25.8235 Y21.8228
G01 X25.7915 Y21.8133
G01 X25.7666 Y21.8047
G01 X25.7356 Y21.7921
G01 X25.7162 Y21.7832
G01 X25.6821 Y21.7655
G01 X25.6735 Y21.7606
G01 X25.6552 Y21.7496
G01 X25.6274 Y21.7311
G01 X25.6102 Y21.7184
G01 X25.5842 Y21.6974
G01 X25.5645 Y21.6799
G01 X25.5373 Y21.6529
G01 X25.5228 Y21.6371
G01 X25.5015 Y21.6114
G01 X25.4856 Y21.5904
G01 X25.4668 Y21.5628
G01 X25.4506 Y21.5360
G01 X25.4348 Y21.5066
G01 X24.9083 Y20.4535
G01 X24.8910 Y20.4517
G01 X24.7888 Y20.4363
G01 X24.6884 Y20.4114
G01 X24.6694 Y20.4057
G01 X24.5722 Y20.3706
G01 X24.4786 Y20.3267
G01 X24.4611 Y20.3173
G01 X24.3726 Y20.2639
G01 X24.2816 Y20.1965
G01 X24.2048 Y20.1272
G01 X24.1908 Y20.1132
G01 X24.1215 Y20.0364
G01 X24.0598 Y19.9535
G01 X24.0487 Y19.9370
G01 X23.9982 Y19.8526
G01 X23.9913 Y19.8394
G01 X23.9474 Y19.7458
G01 X23.9123 Y19.6486
G01 X23.9066 Y19.6296
G01 X23.8817 Y19.5292
G01 X23.8663 Y19.4270
G01 X23.8643 Y19.4073
G01 X23.8595 Y19.3040
G01 X23.8643 Y19.2007
G01 X23.8663 Y19.1810
G01 X23.8817 Y19.0788
G01 X23.9066 Y18.9784
G01 X23.9123 Y18.9594
G01 X23.9474 Y18.8622
G01 X23.9913 Y18.7686
G01 X23.9982 Y18.7554
G01 X24.0045 Y18.7448
G01 X21.4882 Y14.3965
G01 X21.4470 Y14.4113
G01 X21.4328 Y14.4158
G01 X21.3325 Y14.4409
G01 X21.3179 Y14.4436
G01 X21.2254 Y14.4573
G01 X21.2106 Y14.4590
G01 X21.1024 Y14.4641
G01 X20.9991 Y14.4593
G01 X20.9794 Y14.4573
G01 X20.8869 Y14.4436
G01 X20.8723 Y14.4409
G01 X20.7673 Y14.4144
G01 X20.6698 Y14.3798
G01 X20.6515 Y14.3722
G01 X20.5582 Y14.3278
G01 X20.4694 Y14.2749
G01 X20.4529 Y14.2638
G01 X20.3700 Y14.2021
G01 X20.2896 Y14.1294
G01 X20.2792 Y14.1188
G01 X20.2164 Y14.0495
G01 X20.2038 Y14.0342
G01 X20.1425 Y13.9510
G01 X20.0891 Y13.8625
G01 X20.0797 Y13.8450
G01 X20.0358 Y13.7514
G01 X20.0007 Y13.6542
G01 X19.9950 Y13.6352
G01 X19.9701 Y13.5348
G01 X19.9547 Y13.4326
G01 X19.9527 Y13.4129
G01 X19.9479 Y13.3096
G01 X19.9527 Y13.2063
G01 X19.9547 Y13.1866
G01 X19.9701 Y13.0844
G01 X19.9962 Y12.9792
G00 Z1.0000
G00 X22.9519 Y13.5850
G01 F60.00
G01 Z-0.0800
G01 F60.00
G01 X22.9499 Y13.5653
G01 X22.9451 Y13.4620
G01 X22.9506 Y13.3488
G01 X22.9673 Y13.2368
G01 X22.9948 Y13.1269
G01 X23.0330 Y13.0202
G01 X23.0814 Y12.9178
G01 X23.1397 Y12.8206
G01 X23.2071 Y12.7296
G01 X23.2832 Y12.6456
G01 X23.3672 Y12.5695
G01 X23.4582 Y12.5021
G01 X23.5554 Y12.4438
G01 X23.6578 Y12.3954
G01 X23.7645 Y12.3572
G01 X23.8744 Y12.3297
G01 X23.9864 Y12.3130
G01 X24.0996 Y12.3075
G01 X24.2128 Y12.3130
G01 X24.3248 Y12.3297
G01 X24.4347 Y12.3572
G01 X24.5414 Y12.3954
G01 X24.6438 Y12.4438
G01 X24.7410 Y12.5021
G01 X24.8320 Y12.5695
G01 X24.9160 Y12.6456
G01 X24.9921 Y12.7296
G01 X25.0595 Y12.8206
G01 X25.1178 Y12.9178
G01 X25.1662 Y13.0202
G01 X25.2044 Y13.1269
G01 X25.2319 Y13.2368
G01 X25.2486 Y13.3488
G01 X25.2541 Y13.4620
G01 X25.2486 Y13.5752
G01 X25.2319 Y13.6872
G01 X25.2044 Y13.7971
G01 X25.1662 Y13.9038
G01 X25.1178 Y14.0062
G01 X25.0595 Y14.1034
G01 X24.9921 Y14.1944
G01 X24.9160 Y14.2784
G01 X24.8320 Y14.3545
G01 X24.7410 Y14.4219
G01 X24.6438 Y14.4802
G01 X24.5414 Y14.5286
G01 X24.4347 Y14.5668
G01 X24.3248 Y14.5943
G01 X24.2128 Y14.6110
G01 X24.0996 Y14.6165
G01 X23.9864 Y14.6110
G01 X23.8744 Y14.5943
G01 X23.7645 Y14.5668
G01 X23.6578 Y14.5286
G01 X23.5554 Y14.4802
G01 X23.4582 Y14.4219
G01 X23.3672 Y14.3545
G01 X23.2832 Y14.2784
G01 X23.2071 Y14.1944
G01 X23.1397 Y14.1034
G01 X23.0814 Y14.0062
G01 X23.0330 Y13.9038
G01 X22.9948 Y13.7971
G01 X22.9673 Y13.6872
G01 X22.9519 Y13.5850
G00 Z1.0000
G00 X23.0565 Y13.5695
G01 F60.00
G01 Z-0.0800
G01 F60.00
G01 X23.0556 Y13.5601
G01 X23.0509 Y13.4620
G01 X23.0560 Y13.3592
G01 X23.0711 Y13.2574
G01 X23.0961 Y13.1576
G01 X23.1307 Y13.0607
G01 X23.1747 Y12.9676
G01 X23.2276 Y12.8794
G01 X23.2889 Y12.7967
G01 X23.3581 Y12.7205
G01 X23.4343 Y12.6513
G01 X23.5170 Y12.5900
G01 X23.6052 Y12.5371
G01 X23.6983 Y12.4931
G01 X23.7952 Y12.4585
G01 X23.8950 Y12.4335
G01 X23.9968 Y12.4184
G01 X24.0996 Y12.4133
G01 X24.2024 Y12.4184
G01 X24.3042 Y12.4335
G01 X24.4040 Y12.4585
G01 X24.5009 Y12.4931
G01 X24.5940 Y12.5371
G01 X24.6822 Y12.5900
G01 X24.7649 Y12.6513
G01 X24.8411 Y12.7205
G01 X24.9103 Y12.7967
G01 X24.9716 Y12.8794
G01 X25.0245 Y12.9676
G01 X25.0685 Y13.0607
G01 X25.1031 Y13.1576
G01 X25.1281 Y13.2574
G01 X25.1432 Y13.3592
G01 X25.1483 Y13.4620
G01 X25.1432 Y13.5648
G01 X25.1281 Y13.6666
G01 X25.1031 Y13.7664
G01 X25.0685 Y13.8633
G01 X25.0245 Y13.9564
G01 X24.9716 Y14.0446
G01 X24.9103 Y14.1273
G01 X24.8411 Y14.2035
G01 X24.7649 Y14.2727
G01 X24.6822 Y14.3340
G01 X24.5940 Y14.3869
G01 X24.5009 Y14.4309
G01 X24.4040 Y14.4655
G01 X24.3042 Y14.4905
G01 X24.2024 Y14.5056
G01 X24.0996 Y14.5107
G01 X23.9968 Y14.5056
G01 X23.8950 Y14.4905
G01 X23.7952 Y14.4655
G01 X23.6983 Y14.4309
G01 X23.6052 Y14.3869
G01 X23.5170 Y14.3340
G01 X23.4343 Y14.2727
G01 X23.3581 Y14.2035
G01 X23.2889 Y14.1273
G01 X23.2276 Y14.0446
G01 X23.1747 Y13.9564
G01 X23.1307 Y13.8633
G01 X23.0961 Y13.7664
G01 X23.0711 Y13.6666
G01 X23.0565 Y13.5695
G00 Z1.0000
G00 X13.8648 Y14.9451
G01 F60.00
G01 Z-0.0800
G01 F60.00
G01 X13.8646 Y14.1738
G01 X7.2732 Y12.3186
G01 X7.2079 Y12.3775
G01 X7.1246 Y12.4396
G01 X7.1081 Y12.4506
G01 X7.0275 Y12.4990
G01 X7.0144 Y12.5061
G01 X6.9159 Y12.5525
G01 X6.8182 Y12.5878
G01 X6.7992 Y12.5935
G01 X6.7080 Y12.6164
G01 X6.6934 Y12.6194
G01 X6.5857 Y12.6352
G01 X6.4819 Y12.6406
G01 X6.4621 Y12.6406
G01 X6.3583 Y12.6352
G01 X6.2457 Y12.6185
G01 X6.1448 Y12.5935
G01 X6.1258 Y12.5878
G01 X6.0373 Y12.5561
G01 X6.0190 Y12.5485
G01 X5.9252 Y12.5038
G01 X5.8275 Y12.4453
G01 X5.7361 Y12.3775
G01 X5.6517 Y12.3011
G01 X5.5753 Y12.2167
G01 X5.5075 Y12.1253
G01 X5.4490 Y12.0276
G01 X5.4003 Y11.9247
G01 X5.3619 Y11.8175
G01 X5.3343 Y11.7071
G01 X5.3176 Y11.5945
G01 X5.3120 Y11.4808
G01 X5.3176 Y11.3671
G01 X5.3343 Y11.2545
G01 X5.3619 Y11.1441
G01 X5.3967 Y11.0461
G01 X5.4043 Y11.0278
G01 X5.4490 Y10.9340
G01 X5.5075 Y10.8363
G01 X5.5753 Y10.7449
G01 X5.6449 Y10.6677
G01 X5.6589 Y10.6537
G01 X5.7286 Y10.5906
G01 X5.7439 Y10.5780
G01 X5.8275 Y10.5163
G01 X5.9252 Y10.4578
G01 X6.0281 Y10.4091
G01 X6.1258 Y10.3738
G01 X6.1448 Y10.3681
G01 X6.2360 Y10.3452
G01 X6.2555 Y10.3414
G01 X6.3583 Y10.3264
G01 X6.4720 Y10.3208
G01 X6.5857 Y10.3264
G01 X6.6885 Y10.3414
G01 X6.7080 Y10.3452
G01 X6.7992 Y10.3681
G01 X6.8182 Y10.3738
G01 X6.9159 Y10.4091
G01 X7.0100 Y10.4533
G01 X7.0275 Y10.4626
G01 X7.1165 Y10.5163
G01 X7.2001 Y10.5780
G01 X7.2154 Y10.5906
G01 X7.2923 Y10.6605
G01 X7.3622 Y10.7374
G01 X7.3748 Y10.7527
G01 X7.4365 Y10.8363
G01 X7.4902 Y10.9253
G01 X7.4995 Y10.9428
G01 X7.5437 Y11.0369
G01 X7.5810 Y11.1407
G01 X13.8646 Y12.9093
G01 X13.8648 Y12.8425
G01 X13.8668 Y12.8228
G01 X13.8695 Y12.8081
G01 X13.8748 Y12.7890
G01 X13.8819 Y12.7705
G01 X13.8908 Y12.7528
G01 X13.9014 Y12.7361
G01 X13.9136 Y12.7204
G01 X13.9273 Y12.7061
G01 X13.9346 Y12.6994
G01 X13.9463 Y12.6901
G01 X13.9627 Y12.6791
G01 X13.9714 Y12.6742
G01 X13.9847 Y12.6677
G01 X14.0032 Y12.6606
G01 X14.0175 Y12.6564
G01 X14.0272 Y12.6543
G01 X14.0468 Y12.6514
G01 X14.0666 Y12.6504
G01 X14.8585 Y12.6504
G01 X14.8752 Y12.6472
G01 X14.9861 Y12.6310
G01 X15.0981 Y12.6252
G01 X15.1130 Y12.6250
G01 X15.2299 Y12.6310
G01 X15.3408 Y12.6472
G01 X15.3575 Y12.6504
G01 X16.1593 Y12.6506
G01 X16.1741 Y12.6519
G01 X16.1888 Y12.6543
G01 X16.2033 Y12.6577
G01 X16.2175 Y12.6622
G01 X16.2313 Y12.6677
G01 X16.2446 Y12.6742
G01 X16.2533 Y12.6791
G01 X16.2657 Y12.6872
G01 X16.2776 Y12.6962
G01 X16.2851 Y12.7027
G01 X16.2922 Y12.7096
G01 X16.3024 Y12.7204
G01 X16.3146 Y12.7361
G01 X16.3227 Y12.7485
G01 X16.3276 Y12.7572
G01 X16.3360 Y12.7751
G01 X16.3396 Y12.7843
G01 X16.3441 Y12.7985
G01 X16.3475 Y12.8130
G01 X16.3492 Y12.8228
G01 X16.3509 Y12.8375
G01 X16.3514 Y12.8474
G01 X16.3514 Y14.9352
G01 X16.3509 Y14.9501
G01 X16.3492 Y14.9648
G01 X16.3465 Y14.9795
G01 X16.3427 Y14.9938
G01 X16.3379 Y15.0079
G01 X16.3320 Y15.0216
G01 X16.3252 Y15.0348
G01 X16.3174 Y15.0474
G01 X16.3087 Y15.0595
G01 X16.2991 Y15.0709
G01 X16.2887 Y15.0815
G01 X16.2776 Y15.0914
G01 X16.2697 Y15.0975
G01 X16.2575 Y15.1059
G01 X16.2446 Y15.1134
G01 X16.2313 Y15.1199
G01 X16.2175 Y15.1254
G01 X16.2033 Y15.1299
G01 X16.1888 Y15.1333
G01 X16.1790 Y15.1350
G01 X16.1643 Y15.1367
G01 X16.1544 Y15.1372
G01 X15.7166 Y15.1372
G01 X15.7166 Y16.2436
G01 X15.7847 Y16.2847
G01 X15.8768 Y16.3528
G01 X15.8882 Y16.3623
G01 X15.9621 Y16.4293
G01 X15.9727 Y16.4397
G01 X16.0495 Y16.5247
G01 X16.1150 Y16.6126
G01 X16.1260 Y16.6291
G01 X16.1773 Y16.7146
G01 X16.1845 Y16.7276
G01 X16.2333 Y16.8313
G01 X16.2705 Y16.9344
G01 X16.2762 Y16.9534
G01 X16.3026 Y17.0598
G01 X16.3202 Y17.1780
G01 X16.3258 Y17.2875
G01 X16.3258 Y17.3073
G01 X16.3202 Y17.4168
G01 X16.3026 Y17.5350
G01 X16.2762 Y17.6414
G01 X16.2705 Y17.6604
G01 X16.2333 Y17.7635
G01 X16.1867 Y17.8627
G01 X16.1773 Y17.8802
G01 X16.1207 Y17.9741
G01 X16.0556 Y18.0623
G01 X16.0431 Y18.0776
G01 X15.9693 Y18.1587
G01 X15.8882 Y18.2325
G01 X15.8729 Y18.2450
G01 X15.7847 Y18.3101
G01 X15.6822 Y18.3716
G01 X15.5741 Y18.4227
G01 X15.4616 Y18.4630
G01 X15.3456 Y18.4920
G01 X15.2274 Y18.5096
G01 X15.1080 Y18.5154
G01 X14.9886 Y18.5096
G01 X14.8704 Y18.4920
G01 X14.7544 Y18.4630
G01 X14.6419 Y18.4227
G01 X14.5338 Y18.3716
G01 X14.4313 Y18.3101
G01 X14.3353 Y18.2389
G01 X14.2467 Y18.1587
G01 X14.1665 Y18.0701
G01 X14.0953 Y17.9741
G01 X14.0338 Y17.8716
G01 X13.9827 Y17.7635
G01 X13.9455 Y17.6604
G01 X13.9398 Y17.6414
G01 X13.9156 Y17.5447
G01 X13.9117 Y17.5253
G01 X13.8958 Y17.4168
G01 X13.8900 Y17.2974
G01 X13.8958 Y17.1780
G01 X13.9125 Y17.0647
G01 X13.9156 Y17.0501
G01 X13.9424 Y16.9438
G01 X13.9827 Y16.8313
G01 X14.0338 Y16.7232
G01 X14.0900 Y16.6291
G01 X14.0981 Y16.6166
G01 X14.1665 Y16.5247
G01 X14.2399 Y16.4433
G01 X14.2503 Y16.4327
G01 X14.3278 Y16.3623
G01 X14.3431 Y16.3498
G01 X14.4313 Y16.2847
G01 X14.4994 Y16.2436
G01 X14.4994 Y15.1372
G01 X14.0616 Y15.1372
G01 X14.0468 Y15.1362
G01 X14.0321 Y15.1342
G01 X14.0223 Y15.1323
G01 X14.0080 Y15.1285
G01 X13.9939 Y15.1237
G01 X13.9802 Y15.1178
G01 X13.9670 Y15.1110
G01 X13.9544 Y15.1032
G01 X13.9423 Y15.0945
G01 X13.9309 Y15.0849
G01 X13.9169 Y15.0709
G01 X13.9073 Y15.0595
G01 X13.8959 Y15.0433
G01 X13.8884 Y15.0304
G01 X13.8819 Y15.0171
G01 X13.8764 Y15.0033
G01 X13.8719 Y14.9891
G01 X13.8685 Y14.9746
G01 X13.8661 Y14.9599
G01 X13.8648 Y14.9451
G00 Z1.0000
G00 X7.4801 Y11.1725
G01 F60.00
G01 Z-0.0800
G01 F60.00
G01 X7.4938 Y11.2261
G01 X13.9704 Y13.0490
G01 X13.9704 Y12.8500
G01 X13.9714 Y12.8383
G01 X13.9739 Y12.8267
G01 X13.9760 Y12.8200
G01 X13.9787 Y12.8134
G01 X13.9818 Y12.8071
G01 X13.9853 Y12.8009
G01 X13.9893 Y12.7951
G01 X13.9938 Y12.7896
G01 X13.9986 Y12.7844
G01 X14.0038 Y12.7796
G01 X14.0093 Y12.7751
G01 X14.0151 Y12.7711
G01 X14.0213 Y12.7676
G01 X14.0276 Y12.7645
G01 X14.0342 Y12.7618
G01 X14.0409 Y12.7597
G01 X14.0478 Y12.7581
G01 X14.0548 Y12.7569
G01 X14.0666 Y12.7562
G01 X14.8715 Y12.7562
G01 X14.8838 Y12.7532
G01 X14.8907 Y12.7519
G01 X14.9965 Y12.7363
G01 X15.1080 Y12.7308
G01 X15.2195 Y12.7363
G01 X15.3253 Y12.7519
G01 X15.3322 Y12.7532
G01 X15.3445 Y12.7562
G01 X16.1541 Y12.7563
G01 X16.1612 Y12.7569
G01 X16.1682 Y12.7581
G01 X16.1773 Y12.7603
G01 X16.1840 Y12.7626
G01 X16.1905 Y12.7654
G01 X16.1989 Y12.7699
G01 X16.2048 Y12.7738
G01 X16.2104 Y12.7780
G01 X16.2174 Y12.7844
G01 X16.2252 Y12.7932
G01 X16.2319 Y12.8029
G01 X16.2364 Y12.8113
G01 X16.2400 Y12.8200
G01 X16.2427 Y12.8290
G01 X16.2446 Y12.8383
G01 X16.2456 Y12.8500
G01 X16.2456 Y14.9352
G01 X16.2449 Y14.9470
G01 X16.2437 Y14.9540
G01 X16.2421 Y14.9609
G01 X16.2400 Y14.9676
G01 X16.2373 Y14.9742
G01 X16.2342 Y14.9805
G01 X16.2307 Y14.9867
G01 X16.2267 Y14.9925
G01 X16.2222 Y14.9980
G01 X16.2174 Y15.0032
G01 X16.2122 Y15.0080
G01 X16.2067 Y15.0125
G01 X16.2009 Y15.0165
G01 X16.1947 Y15.0200
G01 X16.1884 Y15.0231
G01 X16.1818 Y15.0258
G01 X16.1751 Y15.0279
G01 X16.1682 Y15.0295
G01 X16.1612 Y15.0307
G01 X16.1494 Y15.0314
G01 X15.6108 Y15.0314
G01 X15.6108 Y16.3062
G01 X15.6344 Y16.3177
G01 X15.7239 Y16.3714
G01 X15.8098 Y16.4348
G01 X15.8154 Y16.4392
G01 X15.8944 Y16.5110
G01 X15.9647 Y16.5883
G01 X15.9706 Y16.5956
G01 X16.0314 Y16.6775
G01 X16.0353 Y16.6835
G01 X16.0889 Y16.7731
G01 X16.1336 Y16.8675
G01 X16.1372 Y16.8762
G01 X16.1723 Y16.9745
G01 X16.1978 Y17.0758
G01 X16.1996 Y17.0851
G01 X16.2146 Y17.1860
G01 X16.2152 Y17.1931
G01 X16.2202 Y17.2974
G01 X16.2148 Y17.4064
G01 X16.1988 Y17.5144
G01 X16.1723 Y17.6203
G01 X16.1355 Y17.7230
G01 X16.0889 Y17.8217
G01 X16.0328 Y17.9153
G01 X15.9677 Y18.0030
G01 X15.8977 Y18.0804
G01 X15.8910 Y18.0871
G01 X15.8136 Y18.1571
G01 X15.7298 Y18.2194
G01 X15.7219 Y18.2247
G01 X15.6323 Y18.2783
G01 X15.5336 Y18.3249
G01 X15.4309 Y18.3617
G01 X15.3296 Y18.3872
G01 X15.3203 Y18.3890
G01 X15.2170 Y18.4042
G01 X15.1127 Y18.4095
G01 X15.1033 Y18.4095
G01 X14.9990 Y18.4042
G01 X14.8910 Y18.3882
G01 X14.7897 Y18.3630
G01 X14.7807 Y18.3602
G01 X14.6824 Y18.3249
G01 X14.5879 Y18.2804
G01 X14.5796 Y18.2759
G01 X14.4901 Y18.2222
G01 X14.4062 Y18.1600
G01 X14.3989 Y18.1541
G01 X14.3216 Y18.0838
G01 X14.2513 Y18.0065
G01 X14.2454 Y17.9992
G01 X14.1832 Y17.9153
G01 X14.1295 Y17.8258
G01 X14.1260 Y17.8196
G01 X14.0805 Y17.7230
G01 X14.0452 Y17.6247
G01 X14.0424 Y17.6157
G01 X14.0182 Y17.5190
G01 X14.0164 Y17.5097
G01 X14.0012 Y17.4064
G01 X13.9958 Y17.2974
G01 X14.0012 Y17.1884
G01 X14.0167 Y17.0827
G01 X14.0182 Y17.0758
G01 X14.0437 Y16.9745
G01 X14.0788 Y16.8762
G01 X14.0824 Y16.8675
G01 X14.1250 Y16.7773
G01 X14.1295 Y16.7690
G01 X14.1832 Y16.6795
G01 X14.2454 Y16.5956
G01 X14.2513 Y16.5883
G01 X14.3216 Y16.5110
G01 X14.4024 Y16.4377
G01 X14.4862 Y16.3754
G01 X14.4921 Y16.3714
G01 X14.5816 Y16.3177
G01 X14.6052 Y16.3062
G01 X14.6052 Y15.0314
G01 X14.0666 Y15.0314
G01 X14.0595 Y15.0311
G01 X14.0502 Y15.0300
G01 X14.0387 Y15.0273
G01 X14.0298 Y15.0241
G01 X14.0192 Y15.0189
G01 X14.0093 Y15.0125
G01 X14.0003 Y15.0049
G01 X13.9922 Y14.9962
G01 X13.9866 Y14.9886
G01 X13.9829 Y14.9826
G01 X13.9796 Y14.9763
G01 X13.9768 Y14.9698
G01 X13.9745 Y14.9631
G01 X13.9718 Y14.9516
G01 X13.9709 Y14.9446
G01 X13.9704 Y14.9376
G01 X13.9704 Y14.0937
G01 X7.2415 Y12.1998
G01 X7.2157 Y12.2279
G01 X7.1426 Y12.2942
G01 X7.1371 Y12.2986
G01 X7.0557 Y12.3586
G01 X6.9689 Y12.4105
G01 X6.8797 Y12.4528
G01 X6.8710 Y12.4564
G01 X6.7757 Y12.4903
G01 X6.6777 Y12.5147
G01 X6.5800 Y12.5293
G01 X6.5706 Y12.5303
G01 X6.4720 Y12.5350
G01 X6.3734 Y12.5303
G01 X6.3640 Y12.5293
G01 X6.2663 Y12.5147
G01 X6.1683 Y12.4903
G01 X6.1615 Y12.4881
G01 X6.0686 Y12.4548
G01 X5.9793 Y12.4126
G01 X5.9709 Y12.4082
G01 X5.8863 Y12.3573
G01 X5.8069 Y12.2986
G01 X5.7996 Y12.2926
G01 X5.7266 Y12.2262
G01 X5.6602 Y12.1532
G01 X5.6542 Y12.1459
G01 X5.5955 Y12.0665
G01 X5.5446 Y11.9819
G01 X5.5402 Y11.9735
G01 X5.4980 Y11.8842
G01 X5.4632 Y11.7868
G01 X5.4381 Y11.6865
G01 X5.4229 Y11.5841
G01 X5.4178 Y11.4808
G01 X5.4229 Y11.3775
G01 X5.4381 Y11.2751
G01 X5.4632 Y11.1748
G01 X5.4980 Y11.0774
G01 X5.5423 Y10.9839
G01 X5.5955 Y10.8951
G01 X5.6571 Y10.8120
G01 X5.7266 Y10.7354
G01 X5.8032 Y10.6659
G01 X5.8863 Y10.6043
G01 X5.9751 Y10.5511
G01 X6.0686 Y10.5068
G01 X6.1660 Y10.4720
G01 X6.2663 Y10.4469
G01 X6.3687 Y10.4317
G01 X6.4720 Y10.4266
G01 X6.5753 Y10.4317
G01 X6.6777 Y10.4469
G01 X6.7780 Y10.4720
G01 X6.8754 Y10.5068
G01 X6.9689 Y10.5511
G01 X7.0577 Y10.6043
G01 X7.1408 Y10.6659
G01 X7.2174 Y10.7354
G01 X7.2869 Y10.8120
G01 X7.3485 Y10.8951
G01 X7.4017 Y10.9839
G01 X7.4460 Y11.0774
G01 X7.4801 Y11.1725
G00 Z1.0000
G00 X17.0618 Y26.5719
G01 F60.00
G01 Z-0.0800
G01 F60.00
G01 X17.0609 Y26.5590
G01 X3.0547 Y20.4402
G01 X2.9937 Y20.4853
G01 X2.9091 Y20.5362
G01 X2.9007 Y20.5406
G01 X2.8114 Y20.5828
G01 X2.7140 Y20.6176
G01 X2.6183 Y20.6417
G01 X2.6090 Y20.6435
G01 X2.5113 Y20.6579
G01 X2.4127 Y20.6629
G01 X2.4033 Y20.6629
G01 X2.3047 Y20.6579
G01 X2.2023 Y20.6427
G01 X2.1065 Y20.6189
G01 X2.0975 Y20.6161
G01 X2.0046 Y20.5828
G01 X1.9153 Y20.5406
G01 X1.9069 Y20.5362
G01 X1.8223 Y20.4853
G01 X1.7392 Y20.4237
G01 X1.6626 Y20.3542
G01 X1.5931 Y20.2776
G01 X1.5315 Y20.1945
G01 X1.4783 Y20.1057
G01 X1.4340 Y20.0122
G01 X1.3992 Y19.9148
G01 X1.3741 Y19.8145
G01 X1.3589 Y19.7121
G01 X1.3538 Y19.6088
G01 X1.3589 Y19.5055
G01 X1.3741 Y19.4031
G01 X1.3992 Y19.3028
G01 X1.4340 Y19.2054
G01 X1.4762 Y19.1161
G01 X1.4806 Y19.1077
G01 X1.5315 Y19.0231
G01 X1.5931 Y18.9400
G01 X1.6626 Y18.8634
G01 X1.7356 Y18.7970
G01 X1.7429 Y18.7910
G01 X1.8185 Y18.7350
G01 X1.8263 Y18.7297
G01 X1.9111 Y18.6791
G01 X2.0003 Y18.6368
G01 X2.0090 Y18.6332
G01 X2.1020 Y18.6000
G01 X2.2023 Y18.5749
G01 X2.3047 Y18.5597
G01 X2.4080 Y18.5546
G01 X2.5113 Y18.5597
G01 X2.6137 Y18.5749
G01 X2.7140 Y18.6000
G01 X2.8114 Y18.6348
G01 X2.9007 Y18.6770
G01 X2.9091 Y18.6814
G01 X2.9937 Y18.7323
G01 X3.0768 Y18.7939
G01 X3.1500 Y18.8601
G01 X3.1567 Y18.8668
G01 X3.2229 Y18.9400
G01 X3.2818 Y19.0193
G01 X3.2871 Y19.0271
G01 X3.3354 Y19.1077
G01 X3.3398 Y19.1161
G01 X3.3820 Y19.2054
G01 X3.4153 Y19.2983
G01 X3.4181 Y19.3073
G01 X3.4419 Y19.4031
G01 X3.4565 Y19.5008
G01 X3.4573 Y19.5078
G01 X3.4579 Y19.5190
G01 X17.4643 Y25.6379
G01 X17.5226 Y25.5948
G01 X17.6067 Y25.5443
G01 X17.6151 Y25.5398
G01 X17.7039 Y25.4979
G01 X17.7963 Y25.4647
G01 X17.8053 Y25.4620
G01 X17.9006 Y25.4383
G01 X18.0001 Y25.4234
G01 X18.0071 Y25.4228
G01 X18.1052 Y25.4181
G01 X18.2033 Y25.4228
G01 X18.2127 Y25.4237
G01 X18.3098 Y25.4383
G01 X18.4051 Y25.4620
G01 X18.4141 Y25.4647
G01 X18.5087 Y25.4989
G01 X18.5996 Y25.5419
G01 X18.6838 Y25.5923
G01 X18.6917 Y25.5976
G01 X18.7705 Y25.6561
G01 X18.8433 Y25.7220
G01 X18.8500 Y25.7287
G01 X18.9159 Y25.8015
G01 X18.9744 Y25.8803
G01 X18.9797 Y25.8882
G01 X19.0301 Y25.9724
G01 X19.0722 Y26.0612
G01 X19.0758 Y26.0699
G01 X19.1087 Y26.1624
G01 X19.1327 Y26.2576
G01 X19.1346 Y26.2669
G01 X19.1488 Y26.3640
G01 X19.1539 Y26.4668
G01 X19.1488 Y26.5696
G01 X19.1337 Y26.6714
G01 X19.1087 Y26.7712
G01 X19.0741 Y26.8681
G01 X19.0301 Y26.9612
G01 X18.9772 Y27.0494
G01 X18.9159 Y27.1321
G01 X18.8467 Y27.2083
G01 X18.7705 Y27.2775
G01 X18.6878 Y27.3388
G01 X18.5996 Y27.3917
G01 X18.5065 Y27.4357
G01 X18.4096 Y27.4703
G01 X18.3098 Y27.4953
G01 X18.2080 Y27.5104
G01 X18.1052 Y27.5155
G01 X18.0024 Y27.5104
G01 X17.9006 Y27.4953
G01 X17.8008 Y27.4703
G01 X17.7039 Y27.4357
G01 X17.6108 Y27.3917
G01 X17.5226 Y27.3388
G01 X17.4399 Y27.2775
G01 X17.3637 Y27.2083
G01 X17.2945 Y27.1321
G01 X17.2332 Y27.0494
G01 X17.1803 Y26.9612
G01 X17.1363 Y26.8681
G01 X17.1017 Y26.7712
G01 X17.0767 Y26.6714
G01 X17.0618 Y26.5719
G00 Z1.0000
G00 X16.9739 Y26.6969
G01 F60.00
G01 Z-0.0800
G01 F60.00
G01 X16.9712 Y26.6823
G01 X16.9637 Y26.6320
G01 X3.0685 Y20.5618
G01 X3.0566 Y20.5705
G01 X3.0483 Y20.5760
G01 X2.9548 Y20.6318
G01 X2.8610 Y20.6765
G01 X2.8427 Y20.6841
G01 X2.7447 Y20.7189
G01 X2.6440 Y20.7444
G01 X2.6245 Y20.7482
G01 X2.5315 Y20.7620
G01 X2.5118 Y20.7640
G01 X2.4080 Y20.7688
G01 X2.3042 Y20.7640
G01 X2.2845 Y20.7620
G01 X2.1817 Y20.7465
G01 X2.0808 Y20.7215
G01 X2.0618 Y20.7158
G01 X1.9641 Y20.6805
G01 X1.8656 Y20.6341
G01 X1.8525 Y20.6270
G01 X1.7635 Y20.5733
G01 X1.6721 Y20.5055
G01 X1.5877 Y20.4291
G01 X1.5113 Y20.3447
G01 X1.4435 Y20.2533
G01 X1.3850 Y20.1556
G01 X1.3363 Y20.0527
G01 X1.2979 Y19.9455
G01 X1.2703 Y19.8351
G01 X1.2536 Y19.7225
G01 X1.2480 Y19.6088
G01 X1.2536 Y19.4951
G01 X1.2703 Y19.3825
G01 X1.2979 Y19.2721
G01 X1.3363 Y19.1649
G01 X1.3827 Y19.0664
G01 X1.3898 Y19.0533
G01 X1.4435 Y18.9643
G01 X1.5113 Y18.8729
G01 X1.5877 Y18.7885
G01 X1.6646 Y18.7186
G01 X1.6799 Y18.7060
G01 X1.7554 Y18.6500
G01 X1.7719 Y18.6390
G01 X1.8612 Y18.5858
G01 X1.9550 Y18.5411
G01 X1.9733 Y18.5335
G01 X2.0713 Y18.4987
G01 X2.1817 Y18.4711
G01 X2.2943 Y18.4544
G01 X2.4080 Y18.4488
G01 X2.5217 Y18.4544
G01 X2.6343 Y18.4711
G01 X2.7447 Y18.4987
G01 X2.8519 Y18.5371
G01 X2.9460 Y18.5813
G01 X2.9635 Y18.5906
G01 X3.0525 Y18.6443
G01 X3.1361 Y18.7060
G01 X3.1514 Y18.7186
G01 X3.2283 Y18.7885
G01 X3.2982 Y18.8654
G01 X3.3078 Y18.8768
G01 X3.3668 Y18.9562
G01 X3.3778 Y18.9727
G01 X3.4310 Y19.0620
G01 X3.4778 Y19.1603
G01 X3.4833 Y19.1741
G01 X3.5150 Y19.2626
G01 X3.5194 Y19.2768
G01 X3.5447 Y19.3776
G01 X3.5474 Y19.3923
G01 X3.5554 Y19.4462
G01 X17.4505 Y25.5164
G01 X17.4638 Y25.5069
G01 X17.4722 Y25.5015
G01 X17.5610 Y25.4486
G01 X17.6543 Y25.4042
G01 X17.6726 Y25.3966
G01 X17.7701 Y25.3620
G01 X17.8703 Y25.3366
G01 X17.8897 Y25.3328
G01 X17.9920 Y25.3178
G01 X18.0953 Y25.3125
G01 X18.1151 Y25.3125
G01 X18.2184 Y25.3178
G01 X18.3207 Y25.3328
G01 X18.3401 Y25.3366
G01 X18.4403 Y25.3620
G01 X18.5378 Y25.3966
G01 X18.5516 Y25.4021
G01 X18.6406 Y25.4441
G01 X18.6581 Y25.4535
G01 X18.7466 Y25.5069
G01 X18.8298 Y25.5682
G01 X18.8451 Y25.5808
G01 X18.9216 Y25.6504
G01 X18.9977 Y25.7344
G01 X19.0651 Y25.8254
G01 X19.1185 Y25.9139
G01 X19.1279 Y25.9314
G01 X19.1718 Y26.0250
G01 X19.2069 Y26.1222
G01 X19.2126 Y26.1412
G01 X19.2375 Y26.2416
G01 X19.2542 Y26.3536
G01 X19.2597 Y26.4668
G01 X19.2542 Y26.5800
G01 X19.2375 Y26.6920
G01 X19.2100 Y26.8019
G01 X19.1718 Y26.9086
G01 X19.1234 Y27.0110
G01 X19.0651 Y27.1082
G01 X18.9977 Y27.1992
G01 X18.9216 Y27.2832
G01 X18.8376 Y27.3593
G01 X18.7466 Y27.4267
G01 X18.6494 Y27.4850
G01 X18.5470 Y27.5334
G01 X18.4403 Y27.5716
G01 X18.3304 Y27.5991
G01 X18.2184 Y27.6158
G01 X18.1052 Y27.6213
G01 X17.9920 Y27.6158
G01 X17.8800 Y27.5991
G01 X17.7701 Y27.5716
G01 X17.6634 Y27.5334
G01 X17.5610 Y27.4850
G01 X17.4638 Y27.4267
G01 X17.3728 Y27.3593
G01 X17.2888 Y27.2832
G01 X17.2127 Y27.1992
G01 X17.1453 Y27.1082
G01 X17.0870 Y27.0110
G01 X17.0386 Y26.9086
G01 X17.0004 Y26.8019
G01 X16.9739 Y26.6969
G00 Z1.0000
G00 X19.7603 Y28.5860
G01 F60.00
G01 Z-0.0800
G01 F60.00
G01 X19.7749 Y28.5829
G01 X19.8316 Y28.5745
G01 X20.1989 Y26.7378
G01 X20.1880 Y26.7278
G01 X20.1776 Y26.7172
G01 X20.1148 Y26.6479
G01 X20.1022 Y26.6326
G01 X20.0409 Y26.5494
G01 X19.9826 Y26.4522
G01 X19.9342 Y26.3498
G01 X19.8991 Y26.2526
G01 X19.8934 Y26.2336
G01 X19.8685 Y26.1332
G01 X19.8518 Y26.0212
G01 X19.8465 Y25.9179
G01 X19.8465 Y25.8981
G01 X19.8518 Y25.7948
G01 X19.8685 Y25.6828
G01 X19.8934 Y25.5824
G01 X19.8991 Y25.5634
G01 X19.9342 Y25.4662
G01 X19.9826 Y25.3638
G01 X20.0409 Y25.2666
G01 X20.1083 Y25.1756
G01 X20.1776 Y25.0988
G01 X20.1916 Y25.0848
G01 X20.2609 Y25.0220
G01 X20.2762 Y25.0094
G01 X20.3594 Y24.9481
G01 X20.4479 Y24.8947
G01 X20.4654 Y24.8853
G01 X20.5590 Y24.8414
G01 X20.6657 Y24.8032
G01 X20.7756 Y24.7757
G01 X20.8876 Y24.7590
G01 X21.0008 Y24.7535
G01 X21.1140 Y24.7590
G01 X21.2260 Y24.7757
G01 X21.3312 Y24.8018
G01 X21.3454 Y24.8063
G01 X21.4334 Y24.8378
G01 X21.4517 Y24.8454
G01 X21.5450 Y24.8898
G01 X21.6422 Y24.9481
G01 X21.7254 Y25.0094
G01 X21.7407 Y25.0220
G01 X21.8172 Y25.0916
G01 X21.8933 Y25.1756
G01 X21.9607 Y25.2666
G01 X22.0141 Y25.3551
G01 X22.0235 Y25.3726
G01 X22.0674 Y25.4662
G01 X22.1056 Y25.5729
G01 X22.1310 Y25.6731
G01 X22.1348 Y25.6925
G01 X22.1485 Y25.7850
G01 X22.1502 Y25.7998
G01 X22.1553 Y25.9080
G01 X22.1498 Y26.0212
G01 X22.1331 Y26.1332
G01 X22.1082 Y26.2336
G01 X22.1025 Y26.2526
G01 X22.0710 Y26.3406
G01 X22.0634 Y26.3589
G01 X22.0190 Y26.4522
G01 X21.9635 Y26.5453
G01 X21.9550 Y26.5575
G01 X21.8994 Y26.6326
G01 X21.8868 Y26.6479
G01 X21.8172 Y26.7244
G01 X21.7407 Y26.7940
G01 X21.7293 Y26.8036
G01 X21.6422 Y26.8679
G01 X21.5494 Y26.9238
G01 X21.5362 Y26.9307
G01 X21.4472 Y26.9727
G01 X21.4334 Y26.9782
G01 X21.3890 Y26.9941
G01 X21.0259 Y28.8096
G01 X21.0768 Y28.8401
G01 X21.0893 Y28.8483
G01 X21.2194 Y28.9448
G01 X21.2308 Y28.9544
G01 X21.3435 Y29.0565
G01 X21.3541 Y29.0669
G01 X21.4661 Y29.1907
G01 X21.5628 Y29.3207
G01 X21.5739 Y29.3372
G01 X21.6521 Y29.4677
G01 X21.6569 Y29.4763
G01 X21.6638 Y29.4903
G01 X25.1656 Y29.4903
G01 X25.2270 Y29.4230
G01 X25.3099 Y29.3475
G01 X25.3252 Y29.3349
G01 X25.4154 Y29.2683
G01 X25.5114 Y29.2105
G01 X25.5289 Y29.2011
G01 X25.6304 Y29.1534
G01 X25.7358 Y29.1154
G01 X25.7548 Y29.1097
G01 X25.8636 Y29.0827
G01 X25.9745 Y29.0660
G01 X25.9942 Y29.0640
G01 X26.1062 Y29.0588
G01 X26.2182 Y29.0640
G01 X26.2379 Y29.0660
G01 X26.3488 Y29.0827
G01 X26.4671 Y29.1123
G01 X26.5820 Y29.1534
G01 X26.6923 Y29.2056
G01 X26.7970 Y29.2683
G01 X26.8950 Y29.3410
G01 X26.9854 Y29.4230
G01 X27.0674 Y29.5134
G01 X27.1344 Y29.6033
G01 X27.1454 Y29.6198
G01 X27.1979 Y29.7074
G01 X27.2073 Y29.7249
G01 X27.2550 Y29.8264
G01 X27.2930 Y29.9318
G01 X27.2987 Y29.9508
G01 X27.3257 Y30.0596
G01 X27.3424 Y30.1705
G01 X27.3444 Y30.1902
G01 X27.3496 Y30.3022
G01 X27.3436 Y30.4241
G01 X27.3257 Y30.5448
G01 X27.2975 Y30.6584
G01 X27.2930 Y30.6726
G01 X27.2585 Y30.7688
G01 X27.2509 Y30.7871
G01 X27.2028 Y30.8883
G01 X27.1454 Y30.9846
G01 X27.1344 Y31.0011
G01 X27.0674 Y31.0910
G01 X26.9923 Y31.1742
G01 X26.9782 Y31.1883
G01 X26.8950 Y31.2634
G01 X26.8051 Y31.3304
G01 X26.7886 Y31.3414
G01 X26.6923 Y31.3988
G01 X26.5820 Y31.4510
G01 X26.4766 Y31.4890
G01 X26.4576 Y31.4947
G01 X26.3585 Y31.5196
G01 X26.3439 Y31.5226
G01 X26.2379 Y31.5384
G01 X26.2182 Y31.5404
G01 X26.1062 Y31.5456
G01 X25.9942 Y31.5404
G01 X25.9745 Y31.5384
G01 X25.8636 Y31.5217
G01 X25.7548 Y31.4947
G01 X25.7358 Y31.4890
G01 X25.6304 Y31.4510
G01 X25.5289 Y31.4033
G01 X25.5114 Y31.3939
G01 X25.4154 Y31.3361
G01 X25.3252 Y31.2695
G01 X25.3099 Y31.2569
G01 X25.2270 Y31.1814
G01 X25.1656 Y31.1141
G01 X21.6638 Y31.1141
G01 X21.6569 Y31.1281
G01 X21.6521 Y31.1367
G01 X21.5739 Y31.2672
G01 X21.5628 Y31.2837
G01 X21.4661 Y31.4137
G01 X21.3575 Y31.5339
G01 X21.3435 Y31.5479
G01 X21.2233 Y31.6565
G01 X21.0852 Y31.7589
G01 X20.9377 Y31.8473
G01 X20.7823 Y31.9209
G01 X20.6204 Y31.9788
G01 X20.4633 Y32.0184
G01 X20.4438 Y32.0222
G01 X20.2934 Y32.0446
G01 X20.2736 Y32.0465
G01 X20.1118 Y32.0542
G01 X19.9401 Y32.0458
G01 X19.7700 Y32.0205
G01 X19.6080 Y31.9802
G01 X19.5938 Y31.9757
G01 X19.4413 Y31.9209
G01 X19.2948 Y31.8518
G01 X19.2773 Y31.8425
G01 X19.1468 Y31.7643
G01 X19.1303 Y31.7532
G01 X19.0003 Y31.6565
G01 X18.8729 Y31.5411
G01 X18.7575 Y31.4137
G01 X18.6608 Y31.2837
G01 X18.6497 Y31.2672
G01 X18.5715 Y31.1367
G01 X18.5622 Y31.1192
G01 X18.4931 Y30.9727
G01 X18.4352 Y30.8108
G01 X18.3935 Y30.6440
G01 X18.3694 Y30.4838
G01 X18.3675 Y30.4640
G01 X18.3600 Y30.3121
G01 X18.3600 Y30.2923
G01 X18.3682 Y30.1305
G01 X18.3935 Y29.9604
G01 X18.4352 Y29.7936
G01 X18.4896 Y29.6410
G01 X18.4972 Y29.6227
G01 X18.5622 Y29.4852
G01 X18.5715 Y29.4677
G01 X18.6551 Y29.3288
G01 X18.7575 Y29.1907
G01 X18.8729 Y29.0633
G01 X18.9928 Y28.9544
G01 X19.0082 Y28.9418
G01 X19.1303 Y28.8512
G01 X19.1468 Y28.8401
G01 X19.2859 Y28.7571
G01 X19.4413 Y28.6835
G01 X19.6032 Y28.6256
G01 X19.7603 Y28.5860
G00 Z1.0000
G00 X19.7860 Y28.6887
G01 F60.00
G01 Z-0.0800
G01 F60.00
G01 X19.7953 Y28.6868
G01 X19.9208 Y28.6682
G01 X20.3145 Y26.6997
G01 X20.2593 Y26.6495
G01 X20.1901 Y26.5733
G01 X20.1288 Y26.4906
G01 X20.0783 Y26.4065
G01 X20.0738 Y26.3981
G01 X20.0338 Y26.3136
G01 X20.0302 Y26.3049
G01 X19.9973 Y26.2124
G01 X19.9727 Y26.1149
G01 X19.9577 Y26.0155
G01 X19.9568 Y26.0061
G01 X19.9521 Y25.9080
G01 X19.9572 Y25.8052
G01 X19.9723 Y25.7034
G01 X19.9960 Y25.6081
G01 X19.9987 Y25.5991
G01 X20.0319 Y25.5067
G01 X20.0759 Y25.4136
G01 X20.1288 Y25.3254
G01 X20.1901 Y25.2427
G01 X20.2560 Y25.1699
G01 X20.2627 Y25.1632
G01 X20.3319 Y25.1004
G01 X20.3392 Y25.0944
G01 X20.4182 Y25.0360
G01 X20.5023 Y24.9855
G01 X20.5107 Y24.9810
G01 X20.5995 Y24.9391
G01 X20.6964 Y24.9045
G01 X20.7962 Y24.8795
G01 X20.8980 Y24.8644
G01 X21.0008 Y24.8593
