(G-CODE GENERATED BY FLATCAM v8.994 - www.flatcam.org - Version Date: 2020/11/7)

(Name: latch2_drill.txt_cnc)
(Type: G-code from Geometry)
(Units: MM)

(Created on lunedì, 10 maggio 2021 at 11:50)

(This preprocessor is the default preprocessor used by FlatCAM.)
(It is made to work with MACH3 compatible motion controllers.)


(TOOLS DIAMETER: )
(Tool: 1 -> Dia: 0.8999982)
(Tool: 2 -> Dia: 0.889)
(Tool: 3 -> Dia: 0.9652)
(Tool: 4 -> Dia: 1.0999978)
(Tool: 5 -> Dia: 0.7619999999999999)
(Tool: 6 -> Dia: 1.0668)
(Tool: 7 -> Dia: 1.016)
(Tool: 8 -> Dia: 0.999998)

(FEEDRATE Z: )
(Tool: 1 -> Feedrate: 50.0)
(Tool: 2 -> Feedrate: 50.0)
(Tool: 3 -> Feedrate: 50.0)
(Tool: 4 -> Feedrate: 50.0)
(Tool: 5 -> Feedrate: 50.0)
(Tool: 6 -> Feedrate: 50.0)
(Tool: 7 -> Feedrate: 50.0)
(Tool: 8 -> Feedrate: 50.0)

(FEEDRATE RAPIDS: )
(Tool: 1 -> Feedrate Rapids: 1500)
(Tool: 2 -> Feedrate Rapids: 1500)
(Tool: 3 -> Feedrate Rapids: 1500)
(Tool: 4 -> Feedrate Rapids: 1500)
(Tool: 5 -> Feedrate Rapids: 1500)
(Tool: 6 -> Feedrate Rapids: 1500)
(Tool: 7 -> Feedrate Rapids: 1500)
(Tool: 8 -> Feedrate Rapids: 1500)

(Z_CUT: )
(Tool: 1 -> Z_Cut: -2.0)
(Tool: 2 -> Z_Cut: -2.0)
(Tool: 3 -> Z_Cut: -2.0)
(Tool: 4 -> Z_Cut: -2.0)
(Tool: 5 -> Z_Cut: -2.0)
(Tool: 6 -> Z_Cut: -2.0)
(Tool: 7 -> Z_Cut: -2.0)
(Tool: 8 -> Z_Cut: -2.0)

(Tools Offset: )
(Tool: 1 -> Offset Z: 0.0)
(Tool: 2 -> Offset Z: 0.0)
(Tool: 3 -> Offset Z: 0.0)
(Tool: 4 -> Offset Z: 0.0)
(Tool: 5 -> Offset Z: 0.0)
(Tool: 6 -> Offset Z: 0.0)
(Tool: 7 -> Offset Z: 0.0)
(Tool: 8 -> Offset Z: 0.0)

(Z_MOVE: )
(Tool: 1 -> Z_Move: 2)
(Tool: 2 -> Z_Move: 2)
(Tool: 3 -> Z_Move: 2)
(Tool: 4 -> Z_Move: 2)
(Tool: 5 -> Z_Move: 2)
(Tool: 6 -> Z_Move: 2)
(Tool: 7 -> Z_Move: 2)
(Tool: 8 -> Z_Move: 2)

(Z Toolchange: 25.0 mm)
(X,Y Toolchange: 0.0000, 0.0000 mm)
(Z Start: None mm)
(Z End: 0.5 mm)
(X,Y End: 0.0000, 0.0000 mm)
(Steps per circle: 64)
(Preprocessor Excellon: default)

(X range:    2.5513 ...   38.2452  mm)
(Y range:    2.7000 ...   30.8547  mm)

(Spindle Speed: 5000 RPM)
G21
G90
G94

G01 F50.00

M5
G00 Z25.0000
T1
G00 X0.0000 Y0.0000                
M6
(MSG, Change to Tool Dia = 0.9000 ||| Total drills for tool T1 = 40)
M0
G00 Z25.0000

G01 F50.00
M03 S5000
G00 X33.7312 Y11.4732
G01 Z-2.0000
G01 Z0
G00 Z2.0000
G00 X25.1028 Y6.3043
G01 Z-2.0000
G01 Z0
G00 Z2.0000
G00 X26.1010 Y3.3045
G01 Z-2.0000
G01 Z0
G00 Z2.0000
G00 X19.1008 Y3.1445
G01 Z-2.0000
G01 Z0
G00 Z2.0000
G00 X16.1011 Y3.3045
G01 Z-2.0000
G01 Z0
G00 Z2.0000
G00 X13.1013 Y3.3045
G01 Z-2.0000
G01 Z0
G00 Z2.0000
G00 X7.1018 Y3.3045
G01 Z-2.0000
G01 Z0
G00 Z2.0000
G00 X3.1013 Y3.3045
G01 Z-2.0000
G01 Z0
G00 Z2.0000
G00 X3.1013 Y7.3025
G01 Z-2.0000
G01 Z0
G00 Z2.0000
G00 X7.1018 Y10.8737
G01 Z-2.0000
G01 Z0
G00 Z2.0000
G00 X10.1016 Y7.7343
G01 Z-2.0000
G01 Z0
G00 Z2.0000
G00 X19.1008 Y13.3045
G01 Z-2.0000
G01 Z0
G00 Z2.0000
G00 X16.1011 Y13.4645
G01 Z-2.0000
G01 Z0
G00 Z2.0000
G00 X13.1013 Y13.4645
G01 Z-2.0000
G01 Z0
G00 Z2.0000
G00 X10.1016 Y15.3035
G01 Z-2.0000
G01 Z0
G00 Z2.0000
G00 X6.1011 Y15.7099
G01 Z-2.0000
G01 Z0
G00 Z2.0000
G00 X3.1013 Y18.3032
G01 Z-2.0000
G01 Z0
G00 Z2.0000
G00 X3.1013 Y20.8432
G01 Z-2.0000
G01 Z0
G00 Z2.0000
G00 X6.1011 Y25.8699
G01 Z-2.0000
G01 Z0
G00 Z2.0000
G00 X3.1013 Y30.3047
G01 Z-2.0000
G01 Z0
G00 Z2.0000
G00 X9.0221 Y30.3047
G01 Z-2.0000
G01 Z0
G00 Z2.0000
G00 X11.5621 Y30.3047
G01 Z-2.0000
G01 Z0
G00 Z2.0000
G00 X14.1021 Y30.3047
G01 Z-2.0000
G01 Z0
G00 Z2.0000
G00 X20.1016 Y30.3047
G01 Z-2.0000
G01 Z0
G00 Z2.0000
G00 X26.1010 Y30.3047
G01 Z-2.0000
G01 Z0
G00 Z2.0000
G00 X25.1028 Y27.4625
G01 Z-2.0000
G01 Z0
G00 Z2.0000
G00 X22.1031 Y26.4643
G01 Z-2.0000
G01 Z0
G00 Z2.0000
G00 X19.1999 Y25.9080
G01 Z-2.0000
G01 Z0
G00 Z2.0000
G00 X16.1011 Y22.8575
G01 Z-2.0000
G01 Z0
G00 Z2.0000
G00 X9.0399 Y25.9080
G01 Z-2.0000
G01 Z0
G00 Z2.0000
G00 X8.5319 Y22.8575
G01 Z-2.0000
G01 Z0
G00 Z2.0000
G00 X10.1016 Y19.3040
G01 Z-2.0000
G01 Z0
G00 Z2.0000
G00 X12.6416 Y19.3040
G01 Z-2.0000
G01 Z0
G00 Z2.0000
G00 X15.1816 Y19.3040
G01 Z-2.0000
G01 Z0
G00 Z2.0000
G00 X19.1008 Y20.3048
G01 Z-2.0000
G01 Z0
G00 Z2.0000
G00 X19.1008 Y17.7597
G01 Z-2.0000
G01 Z0
G00 Z2.0000
G00 X22.1031 Y16.3043
G01 Z-2.0000
G01 Z0
G00 Z2.0000
G00 X25.1028 Y13.8735
G01 Z-2.0000
G01 Z0
G00 Z2.0000
G00 X25.1028 Y17.3025
G01 Z-2.0000
G01 Z0
G00 Z2.0000
G00 X37.7952 Y19.6012
G01 Z-2.0000
G01 Z0
G00 Z2.0000
M05
G00 Z0.50
G00 X0.0 Y0.0


