(G-CODE GENERATED BY FLATCAM v8.994 - www.flatcam.org - Version Date: 2020/11/7)

(Name: latch2_copperTop.gtl_iso_combined_cnc)
(Type: G-code from Geometry)
(Units: MM)

(Created on lunedì, 10 maggio 2021 at 12:00)

(This preprocessor is the default preprocessor used by FlatCAM.)
(It is made to work with MACH3 compatible motion controllers.)

(TOOL DIAMETER: 0.1924 mm)
(Feedrate_XY: 60.0 mm/min)
(Feedrate_Z: 60.0 mm/min)
(Feedrate rapids 500.0 mm/min)

(Z_Cut: -0.08 mm)
(Z_Move: 1.0 mm)
(Z Start: None mm)
(Z End: 15.0 mm)
(X,Y End: 0.0000, 0.0000 mm)
(Steps per circle: 64)
(Preprocessor Geometry: default)

(X range:    1.3468 ...   41.2926  mm)
(Y range:    1.3251 ...   32.0542  mm)

(Spindle Speed: 15000.0 RPM)
G21
G90
G94

G01 F60.00

M5
G00 Z25.0000
G00 X0.0000 Y0.0000
T1
M6    
(MSG, Change to Tool Dia = 0.1924)
M0
G00 Z25.0000

(splinde speed gradually to 15000rpm)
M03 S1000
G4 P0.5
M03 S2000
G4 P0.5
M03 S5000
G4 P0.5
M03 S7500


G01 F60.00
G00 X4.0268 Y2.5532
G01 F60.00
G01 Z-0.0800
G01 F60.00
G01 X4.0876 Y2.6353
G01 X4.0957 Y2.6478
G01 X4.1231 Y2.6934
G01 X6.0286 Y2.6934
G01 X6.0781 Y2.6112
G01 X6.1447 Y2.5210
G01 X6.1573 Y2.5057
G01 X6.2328 Y2.4228
G01 X6.3157 Y2.3473
G01 X6.3310 Y2.3347
G01 X6.4212 Y2.2681
G01 X6.5172 Y2.2103
G01 X6.5347 Y2.2009
G01 X6.6362 Y2.1532
G01 X6.7416 Y2.1152
G01 X6.7606 Y2.1095
G01 X6.8694 Y2.0825
G01 X6.9803 Y2.0658
G01 X7.0000 Y2.0638
G01 X7.1021 Y2.0588
G01 X7.1170 Y2.0586
G01 X7.2240 Y2.0638
G01 X7.2437 Y2.0658
G01 X7.3546 Y2.0825
G01 X7.4634 Y2.1095
G01 X7.4824 Y2.1152
G01 X7.5878 Y2.1532
G01 X7.6893 Y2.2009
G01 X7.7068 Y2.2103
G01 X7.8028 Y2.2681
G01 X7.8930 Y2.3347
G01 X7.9083 Y2.3473
G01 X7.9912 Y2.4228
G01 X8.0667 Y2.5057
G01 X8.0793 Y2.5210
G01 X8.1459 Y2.6112
G01 X8.1954 Y2.6934
G01 X12.1265 Y2.6934
G01 X12.1438 Y2.6647
G01 X12.1493 Y2.6565
G01 X12.2108 Y2.5735
G01 X12.2204 Y2.5621
G01 X12.2832 Y2.4928
G01 X12.2936 Y2.4822
G01 X12.3740 Y2.4095
G01 X12.4569 Y2.3478
G01 X12.4734 Y2.3367
G01 X12.5535 Y2.2887
G01 X12.5666 Y2.2815
G01 X12.6646 Y2.2354
G01 X12.7618 Y2.2003
G01 X12.7808 Y2.1946
G01 X12.8812 Y2.1697
G01 X12.9834 Y2.1543
G01 X13.0031 Y2.1523
G01 X13.1064 Y2.1475
G01 X13.2146 Y2.1526
G01 X13.2294 Y2.1543
G01 X13.3316 Y2.1697
G01 X13.4415 Y2.1972
G01 X13.5482 Y2.2354
G01 X13.6506 Y2.2838
G01 X13.7478 Y2.3421
G01 X13.8388 Y2.4095
G01 X13.9228 Y2.4856
G01 X13.9989 Y2.5696
G01 X14.0663 Y2.6606
G01 X14.1246 Y2.7578
G01 X14.1730 Y2.8602
G01 X14.2112 Y2.9669
G01 X14.2387 Y3.0768
G01 X14.2554 Y3.1888
G01 X14.2609 Y3.3020
G01 X14.2558 Y3.4102
G01 X14.2541 Y3.4250
G01 X14.2387 Y3.5272
G01 X14.2138 Y3.6276
G01 X14.2081 Y3.6466
G01 X14.1766 Y3.7346
G01 X14.1690 Y3.7529
G01 X14.1246 Y3.8462
G01 X14.0663 Y3.9434
G01 X13.9989 Y4.0344
G01 X13.9228 Y4.1184
G01 X13.8388 Y4.1945
G01 X13.7478 Y4.2619
G01 X13.6506 Y4.3202
G01 X13.5573 Y4.3646
G01 X13.5390 Y4.3722
G01 X13.4510 Y4.4037
G01 X13.4320 Y4.4094
G01 X13.3316 Y4.4343
G01 X13.2294 Y4.4497
G01 X13.2097 Y4.4517
G01 X13.1064 Y4.4565
G01 X13.0031 Y4.4517
G01 X12.9834 Y4.4497
G01 X12.8812 Y4.4343
G01 X12.7808 Y4.4094
G01 X12.7618 Y4.4037
G01 X12.6646 Y4.3686
G01 X12.5666 Y4.3225
G01 X12.5535 Y4.3153
G01 X12.4734 Y4.2673
G01 X12.4569 Y4.2562
G01 X12.3740 Y4.1945
G01 X12.2936 Y4.1218
G01 X12.2832 Y4.1112
G01 X12.2204 Y4.0419
G01 X12.2108 Y4.0305
G01 X12.1493 Y3.9475
G01 X12.1437 Y3.9393
G01 X12.1265 Y3.9106
G01 X8.1954 Y3.9106
G01 X8.1459 Y3.9928
G01 X8.0793 Y4.0830
G01 X8.0667 Y4.0983
G01 X7.9912 Y4.1812
G01 X7.9083 Y4.2567
G01 X7.8930 Y4.2693
G01 X7.8028 Y4.3359
G01 X7.7068 Y4.3937
G01 X7.6893 Y4.4031
G01 X7.5878 Y4.4508
G01 X7.4824 Y4.4888
G01 X7.4634 Y4.4945
G01 X7.3546 Y4.5215
G01 X7.2437 Y4.5382
G01 X7.2240 Y4.5402
G01 X7.1170 Y4.5454
G01 X7.1021 Y4.5452
G01 X7.0000 Y4.5402
G01 X6.9803 Y4.5382
G01 X6.8694 Y4.5215
G01 X6.7606 Y4.4945
G01 X6.7416 Y4.4888
G01 X6.6362 Y4.4508
G01 X6.5347 Y4.4031
G01 X6.5172 Y4.3937
G01 X6.4212 Y4.3359
G01 X6.3310 Y4.2693
G01 X6.3157 Y4.2567
G01 X6.2328 Y4.1812
G01 X6.1573 Y4.0983
G01 X6.1447 Y4.0830
G01 X6.0781 Y3.9928
G01 X6.0286 Y3.9106
G01 X4.1231 Y3.9106
G01 X4.0957 Y3.9562
G01 X4.0876 Y3.9687
G01 X4.0238 Y4.0547
G01 X4.0142 Y4.0661
G01 X3.9489 Y4.1381
G01 X3.9386 Y4.1488
G01 X3.8629 Y4.2174
G01 X3.8476 Y4.2300
G01 X3.7614 Y4.2936
G01 X3.6653 Y4.3514
G01 X3.6521 Y4.3583
G01 X3.5552 Y4.4038
G01 X3.4544 Y4.4402
G01 X3.4354 Y4.4459
G01 X3.3315 Y4.4717
G01 X3.2255 Y4.4877
G01 X3.2058 Y4.4896
G01 X3.1087 Y4.4944
G01 X3.0889 Y4.4944
G01 X2.9819 Y4.4889
G01 X2.8661 Y4.4717
G01 X2.7526 Y4.4433
G01 X2.6517 Y4.4074
G01 X2.6333 Y4.3998
G01 X2.5455 Y4.3583
G01 X2.5280 Y4.3489
G01 X2.4362 Y4.2936
G01 X2.3500 Y4.2300
G01 X2.3347 Y4.2174
G01 X2.2555 Y4.1453
G01 X2.1769 Y4.0586
G01 X2.1072 Y3.9646
G01 X2.0470 Y3.8642
G01 X1.9970 Y3.7584
G01 X1.9575 Y3.6482
G01 X1.9291 Y3.5347
G01 X1.9119 Y3.4189
G01 X1.9062 Y3.3020
G01 X1.9119 Y3.1851
G01 X1.9291 Y3.0693
G01 X1.9575 Y2.9558
G01 X1.9970 Y2.8456
G01 X2.0470 Y2.7398
G01 X2.1072 Y2.6394
G01 X2.1769 Y2.5454
G01 X2.2555 Y2.4587
G01 X2.3422 Y2.3801
G01 X2.4362 Y2.3104
G01 X2.5366 Y2.2502
G01 X2.6424 Y2.2002
G01 X2.7526 Y2.1607
G01 X2.8661 Y2.1323
G01 X2.9819 Y2.1151
G01 X3.0988 Y2.1094
G01 X3.2157 Y2.1151
G01 X3.3315 Y2.1323
G01 X3.4450 Y2.1607
G01 X3.5552 Y2.2002
G01 X3.6610 Y2.2502
G01 X3.7614 Y2.3104
G01 X3.8554 Y2.3801
G01 X3.9421 Y2.4587
G01 X4.0142 Y2.5379
G01 X4.0268 Y2.5532
G00 Z1.0000
G00 X4.0050 Y2.7022
G01 F60.00
G01 Z-0.0800
G01 F60.00
G01 X4.0549 Y2.7856
G01 X4.0619 Y2.7992
G01 X6.0928 Y2.7992
G01 X6.1099 Y2.7637
G01 X6.1648 Y2.6720
G01 X6.2297 Y2.5840
G01 X6.2341 Y2.5785
G01 X6.3076 Y2.4976
G01 X6.3867 Y2.4257
G01 X6.3940 Y2.4197
G01 X6.4820 Y2.3548
G01 X6.5757 Y2.2987
G01 X6.6723 Y2.2529
G01 X6.6811 Y2.2493
G01 X6.7818 Y2.2134
G01 X6.8855 Y2.1873
G01 X6.8947 Y2.1855
G01 X7.0005 Y2.1699
G01 X7.1120 Y2.1644
G01 X7.2188 Y2.1695
G01 X7.2282 Y2.1705
G01 X7.3339 Y2.1863
G01 X7.4422 Y2.2134
G01 X7.5429 Y2.2493
G01 X7.5517 Y2.2529
G01 X7.6483 Y2.2987
G01 X7.7420 Y2.3548
G01 X7.8300 Y2.4197
G01 X7.8373 Y2.4257
G01 X7.9164 Y2.4976
G01 X7.9899 Y2.5785
G01 X7.9943 Y2.5840
G01 X8.0592 Y2.6720
G01 X8.1141 Y2.7637
G01 X8.1312 Y2.7992
G01 X12.1865 Y2.7992
G01 X12.2344 Y2.7194
G01 X12.2928 Y2.6404
G01 X12.2988 Y2.6331
G01 X12.3649 Y2.5605
G01 X12.4411 Y2.4913
G01 X12.5199 Y2.4328
G01 X12.5278 Y2.4275
G01 X12.6120 Y2.3771
G01 X12.7051 Y2.3331
G01 X12.7975 Y2.2999
G01 X12.8065 Y2.2972
G01 X12.9018 Y2.2735
G01 X12.9989 Y2.2589
G01 X13.0083 Y2.2580
G01 X13.1064 Y2.2533
G01 X13.2068 Y2.2581
G01 X13.2139 Y2.2589
G01 X13.3110 Y2.2735
G01 X13.4108 Y2.2985
G01 X13.5077 Y2.3331
G01 X13.6008 Y2.3771
G01 X13.6890 Y2.4300
G01 X13.7717 Y2.4913
G01 X13.8479 Y2.5605
G01 X13.9171 Y2.6367
G01 X13.9784 Y2.7194
G01 X14.0313 Y2.8076
G01 X14.0753 Y2.9007
G01 X14.1099 Y2.9976
G01 X14.1349 Y3.0974
G01 X14.1500 Y3.1992
G01 X14.1551 Y3.3020
G01 X14.1503 Y3.4024
G01 X14.1495 Y3.4095
G01 X14.1349 Y3.5066
G01 X14.1099 Y3.6064
G01 X14.0753 Y3.7033
G01 X14.0334 Y3.7921
G01 X14.0289 Y3.8005
G01 X13.9784 Y3.8846
G01 X13.9200 Y3.9636
G01 X13.9140 Y3.9709
G01 X13.8512 Y4.0401
G01 X13.8445 Y4.0468
G01 X13.7717 Y4.1127
G01 X13.6890 Y4.1740
G01 X13.6008 Y4.2269
G01 X13.5077 Y4.2709
G01 X13.4108 Y4.3055
G01 X13.3110 Y4.3305
G01 X13.2092 Y4.3456
G01 X13.1111 Y4.3506
G01 X13.1017 Y4.3506
G01 X13.0083 Y4.3460
G01 X12.9989 Y4.3451
G01 X12.9018 Y4.3305
G01 X12.8065 Y4.3068
G01 X12.7975 Y4.3041
G01 X12.7051 Y4.2709
G01 X12.6163 Y4.2290
G01 X12.6079 Y4.2245
G01 X12.5238 Y4.1740
G01 X12.4448 Y4.1156
G01 X12.4375 Y4.1096
G01 X12.3649 Y4.0435
G01 X12.2988 Y3.9709
G01 X12.2928 Y3.9636
G01 X12.2344 Y3.8846
G01 X12.1865 Y3.8048
G01 X8.1312 Y3.8048
G01 X8.1141 Y3.8403
G01 X8.0592 Y3.9320
G01 X8.0552 Y3.9379
G01 X7.9899 Y4.0255
G01 X7.9164 Y4.1064
G01 X7.8373 Y4.1783
G01 X7.8300 Y4.1843
G01 X7.7420 Y4.2492
G01 X7.6483 Y4.3053
G01 X7.5517 Y4.3511
G01 X7.5429 Y4.3547
G01 X7.4422 Y4.3906
G01 X7.3385 Y4.4167
G01 X7.3293 Y4.4185
G01 X7.2235 Y4.4341
G01 X7.1120 Y4.4396
G01 X7.0052 Y4.4345
G01 X6.9958 Y4.4335
G01 X6.8901 Y4.4177
G01 X6.7818 Y4.3906
G01 X6.6811 Y4.3547
G01 X6.6723 Y4.3511
G01 X6.5757 Y4.3053
G01 X6.4820 Y4.2492
G01 X6.3940 Y4.1843
G01 X6.3867 Y4.1783
G01 X6.3076 Y4.1064
G01 X6.2341 Y4.0255
G01 X6.1688 Y3.9379
G01 X6.1648 Y3.9320
G01 X6.1099 Y3.8403
G01 X6.0928 Y3.8048
G01 X4.0619 Y3.8048
G01 X4.0549 Y3.8184
G01 X4.0024 Y3.9058
G01 X3.9418 Y3.9877
G01 X3.9358 Y3.9950
G01 X3.8673 Y4.0705
G01 X3.7918 Y4.1390
G01 X3.7845 Y4.1450
G01 X3.7065 Y4.2029
G01 X3.6986 Y4.2082
G01 X3.6111 Y4.2605
G01 X3.5190 Y4.3042
G01 X3.5103 Y4.3078
G01 X3.4143 Y4.3420
G01 X3.3154 Y4.3669
G01 X3.3062 Y4.3687
G01 X3.2053 Y4.3836
G01 X3.1012 Y4.3888
G01 X3.0941 Y4.3887
G01 X2.9923 Y4.3836
G01 X2.8914 Y4.3687
G01 X2.8822 Y4.3669
G01 X2.7833 Y4.3420
G01 X2.6873 Y4.3078
G01 X2.6786 Y4.3042
G01 X2.5865 Y4.2605
G01 X2.4990 Y4.2082
G01 X2.4911 Y4.2029
G01 X2.4093 Y4.1421
G01 X2.3337 Y4.0737
G01 X2.3271 Y4.0671
G01 X2.2587 Y3.9915
G01 X2.1952 Y3.9058
G01 X2.1403 Y3.8143
G01 X2.0947 Y3.7179
G01 X2.0588 Y3.6175
G01 X2.0329 Y3.5140
G01 X2.0172 Y3.4085
G01 X2.0120 Y3.3020
G01 X2.0172 Y3.1955
G01 X2.0329 Y3.0900
G01 X2.0588 Y2.9865
G01 X2.0947 Y2.8861
G01 X2.1403 Y2.7897
G01 X2.1952 Y2.6982
G01 X2.2587 Y2.6125
G01 X2.3303 Y2.5335
G01 X2.4093 Y2.4619
G01 X2.4950 Y2.3984
G01 X2.5865 Y2.3435
G01 X2.6829 Y2.2979
G01 X2.7833 Y2.2620
G01 X2.8868 Y2.2361
G01 X2.9923 Y2.2204
G01 X3.0988 Y2.2152
G01 X3.2053 Y2.2204
G01 X3.3108 Y2.2361
G01 X3.4143 Y2.2620
G01 X3.5147 Y2.2979
G01 X3.6111 Y2.3435
G01 X3.7026 Y2.3984
G01 X3.7883 Y2.4619
G01 X3.8673 Y2.5335
G01 X3.9389 Y2.6125
G01 X3.9997 Y2.6943
G01 X4.0050 Y2.7022
G00 Z1.0000
G00 X3.4595 Y6.1604
G01 F60.00
G01 Z-0.0800
G01 F60.00
G01 X3.5572 Y6.1954
G01 X3.5767 Y6.2041
G01 X4.8559 Y5.2689
G01 X4.8952 Y5.2431
G01 X4.9063 Y5.2369
G01 X4.9386 Y5.2197
G01 X4.9547 Y5.2120
G01 X4.9983 Y5.1941
G01 X5.0152 Y5.1884
G01 X5.0604 Y5.1751
G01 X5.0728 Y5.1723
G01 X5.1087 Y5.1653
G01 X5.1264 Y5.1626
G01 X5.1779 Y5.1579
G01 X14.8722 Y4.6939
G01 X15.1637 Y3.9709
G01 X15.1465 Y3.9475
G01 X15.1409 Y3.9393
G01 X15.0878 Y3.8506
G01 X15.0809 Y3.8374
G01 X15.0410 Y3.7529
G01 X15.0351 Y3.7392
G01 X14.9988 Y3.6371
G01 X14.9734 Y3.5369
G01 X14.9696 Y3.5175
G01 X14.9552 Y3.4201
G01 X14.9539 Y3.4053
G01 X14.9491 Y3.3020
G01 X14.9539 Y3.1987
G01 X14.9559 Y3.1790
G01 X14.9713 Y3.0768
G01 X14.9962 Y2.9764
G01 X15.0019 Y2.9574
G01 X15.0351 Y2.8648
G01 X15.0410 Y2.8511
G01 X15.0854 Y2.7578
G01 X15.1383 Y2.6690
G01 X15.1494 Y2.6525
G01 X15.2111 Y2.5696
G01 X15.2804 Y2.4928
G01 X15.2944 Y2.4788
G01 X15.3712 Y2.4095
G01 X15.4622 Y2.3421
G01 X15.5507 Y2.2887
G01 X15.5682 Y2.2793
G01 X15.6618 Y2.2354
G01 X15.7590 Y2.2003
G01 X15.7780 Y2.1946
G01 X15.8735 Y2.1707
G01 X15.8881 Y2.1680
G01 X15.9904 Y2.1530
G01 X16.1036 Y2.1475
G01 X16.2168 Y2.1530
G01 X16.3288 Y2.1697
G01 X16.4387 Y2.1972
G01 X16.5454 Y2.2354
G01 X16.6478 Y2.2838
G01 X16.7450 Y2.3421
G01 X16.8360 Y2.4095
G01 X16.9200 Y2.4856
G01 X16.9961 Y2.5696
G01 X17.0635 Y2.6606
G01 X17.1218 Y2.7578
G01 X17.1702 Y2.8602
G01 X17.2084 Y2.9669
G01 X17.2349 Y3.0719
G01 X17.2376 Y3.0865
G01 X17.2526 Y3.1888
G01 X17.2581 Y3.3020
G01 X17.2526 Y3.4152
G01 X17.2359 Y3.5272
G01 X17.2084 Y3.6371
G01 X17.1702 Y3.7438
G01 X17.1218 Y3.8462
G01 X17.0662 Y3.9393
G01 X17.0578 Y3.9515
G01 X16.9961 Y4.0344
G01 X16.9200 Y4.1184
G01 X16.8360 Y4.1945
G01 X16.7531 Y4.2562
G01 X16.7409 Y4.2647
G01 X16.6478 Y4.3202
G01 X16.5545 Y4.3646
G01 X16.5408 Y4.3705
G01 X16.4482 Y4.4037
G01 X16.4340 Y4.4082
G01 X16.3337 Y4.4333
G01 X16.3191 Y4.4360
G01 X16.2867 Y4.4408
G01 X15.8553 Y5.5108
G01 X15.8407 Y5.5441
G01 X15.8279 Y5.5694
G01 X15.8124 Y5.5968
G01 X15.8000 Y5.6166
G01 X15.7792 Y5.6464
G01 X15.7649 Y5.6649
G01 X15.7445 Y5.6888
G01 X15.7286 Y5.7059
G01 X15.7217 Y5.7130
G01 X15.6952 Y5.7380
G01 X15.6775 Y5.7531
G01 X15.6527 Y5.7725
G01 X15.6337 Y5.7860
G01 X15.6030 Y5.8056
G01 X15.5827 Y5.8172
G01 X15.5503 Y5.8337
G01 X15.5290 Y5.8433
G01 X15.4998 Y5.8548
G01 X15.4682 Y5.8654
G01 X15.4379 Y5.8738
G01 X15.4152 Y5.8790
G01 X15.3744 Y5.8860
G01 X15.3512 Y5.8888
G01 X15.3199 Y5.8911
G01 X5.4187 Y6.3650
G01 X4.3011 Y7.1823
G01 X4.3030 Y7.1966
G01 X4.3037 Y7.2065
G01 X4.3088 Y7.3152
G01 X4.3037 Y7.4239
G01 X4.3018 Y7.4436
G01 X4.2856 Y7.5513
G01 X4.2594 Y7.6569
G01 X4.2536 Y7.6759
G01 X4.2167 Y7.7783
G01 X4.1704 Y7.8767
G01 X4.1611 Y7.8942
G01 X4.1049 Y7.9874
G01 X4.0403 Y8.0750
G01 X4.0277 Y8.0903
G01 X3.9544 Y8.1708
G01 X3.8739 Y8.2441
G01 X3.8626 Y8.2537
G01 X3.7792 Y8.3156
G01 X3.7627 Y8.3266
G01 X3.6692 Y8.3823
G01 X3.5709 Y8.4291
G01 X3.5526 Y8.4367
G01 X3.4500 Y8.4731
G01 X3.3349 Y8.5020
G01 X3.2272 Y8.5182
G01 X3.2075 Y8.5201
G01 X3.0988 Y8.5252
G01 X2.9901 Y8.5201
G01 X2.9704 Y8.5182
G01 X2.8627 Y8.5020
G01 X2.7476 Y8.4731
G01 X2.6357 Y8.4331
G01 X2.5284 Y8.3823
G01 X2.4266 Y8.3213
G01 X2.3312 Y8.2506
G01 X2.2432 Y8.1708
G01 X2.1634 Y8.0828
G01 X2.0927 Y7.9874
G01 X2.0317 Y7.8856
G01 X1.9809 Y7.7783
G01 X1.9409 Y7.6664
G01 X1.9120 Y7.5513
G01 X1.8946 Y7.4338
G01 X1.8888 Y7.3152
G01 X1.8946 Y7.1966
G01 X1.9120 Y7.0791
G01 X1.9409 Y6.9640
G01 X1.9809 Y6.8521
G01 X2.0317 Y6.7448
G01 X2.0927 Y6.6430
G01 X2.1634 Y6.5476
G01 X2.2432 Y6.4596
G01 X2.3312 Y6.3798
G01 X2.4266 Y6.3091
G01 X2.5284 Y6.2481
G01 X2.6357 Y6.1973
G01 X2.7476 Y6.1573
G01 X2.8627 Y6.1284
G01 X2.9802 Y6.1110
G01 X3.0988 Y6.1052
G01 X3.2174 Y6.1110
G01 X3.3349 Y6.1284
G01 X3.4405 Y6.1546
G01 X3.4595 Y6.1604
G00 Z1.0000
G00 X3.4238 Y6.2600
G01 F60.00
G01 Z-0.0800
G01 F60.00
G01 X3.5214 Y6.2951
G01 X3.5884 Y6.3266
G01 X4.9121 Y5.3586
G01 X4.9470 Y5.3354
G01 X4.9555 Y5.3305
G01 X4.9951 Y5.3098
G01 X5.0338 Y5.2939
G01 X5.0453 Y5.2898
G01 X5.0854 Y5.2779
G01 X5.1292 Y5.2691
G01 X5.1389 Y5.2677
G01 X5.1830 Y5.2636
G01 X14.9450 Y4.7964
G01 X15.2840 Y3.9555
G01 X15.2316 Y3.8846
G01 X15.1811 Y3.8005
G01 X15.1766 Y3.7921
G01 X15.1366 Y3.7076
G01 X15.1330 Y3.6989
G01 X15.1001 Y3.6064
G01 X15.0761 Y3.5112
G01 X15.0742 Y3.5019
G01 X15.0600 Y3.4048
G01 X15.0549 Y3.3020
G01 X15.0600 Y3.1992
G01 X15.0742 Y3.1021
G01 X15.0755 Y3.0951
G01 X15.1001 Y2.9976
G01 X15.1347 Y2.9007
G01 X15.1787 Y2.8076
G01 X15.2291 Y2.7234
G01 X15.2344 Y2.7155
G01 X15.2900 Y2.6404
G01 X15.2960 Y2.6331
G01 X15.3621 Y2.5605
G01 X15.4347 Y2.4944
G01 X15.4402 Y2.4899
G01 X15.5171 Y2.4328
G01 X15.5250 Y2.4275
G01 X15.6092 Y2.3771
G01 X15.6980 Y2.3350
G01 X15.7067 Y2.3314
G01 X15.7992 Y2.2985
G01 X15.8990 Y2.2735
G01 X15.9961 Y2.2589
G01 X16.0055 Y2.2580
G01 X16.1036 Y2.2533
G01 X16.2017 Y2.2580
G01 X16.2111 Y2.2589
G01 X16.3082 Y2.2735
G01 X16.4035 Y2.2972
G01 X16.4125 Y2.2999
G01 X16.5049 Y2.3331
G01 X16.5937 Y2.3750
G01 X16.6021 Y2.3795
G01 X16.6862 Y2.4300
G01 X16.7652 Y2.4884
G01 X16.7725 Y2.4944
G01 X16.8451 Y2.5605
G01 X16.9112 Y2.6331
G01 X16.9172 Y2.6404
G01 X16.9756 Y2.7194
G01 X17.0261 Y2.8035
G01 X17.0306 Y2.8119
G01 X17.0725 Y2.9007
G01 X17.1057 Y2.9931
G01 X17.1084 Y3.0021
G01 X17.1317 Y3.0951
G01 X17.1330 Y3.1021
G01 X17.1472 Y3.1992
G01 X17.1523 Y3.3020
G01 X17.1472 Y3.4048
G01 X17.1321 Y3.5066
G01 X17.1071 Y3.6064
G01 X17.0725 Y3.7033
G01 X17.0285 Y3.7964
G01 X16.9768 Y3.8826
G01 X16.9728 Y3.8885
G01 X16.9143 Y3.9673
G01 X16.8451 Y4.0435
G01 X16.7689 Y4.1127
G01 X16.6901 Y4.1712
G01 X16.6822 Y4.1765
G01 X16.5980 Y4.2269
G01 X16.5092 Y4.2690
G01 X16.5005 Y4.2726
G01 X16.4125 Y4.3041
G01 X16.4035 Y4.3068
G01 X16.3082 Y4.3305
G01 X16.2112 Y4.3450
G01 X15.7571 Y5.4712
G01 X15.7440 Y5.5009
G01 X15.7364 Y5.5160
G01 X15.7229 Y5.5402
G01 X15.7115 Y5.5586
G01 X15.6943 Y5.5832
G01 X15.6825 Y5.5985
G01 X15.6629 Y5.6213
G01 X15.6497 Y5.6354
G01 X15.6280 Y5.6562
G01 X15.6134 Y5.6688
G01 X15.5898 Y5.6874
G01 X15.5741 Y5.6986
G01 X15.5487 Y5.7148
G01 X15.5320 Y5.7244
G01 X15.5052 Y5.7380
G01 X15.4876 Y5.7459
G01 X15.4596 Y5.7568
G01 X15.4390 Y5.7636
G01 X15.4101 Y5.7716
G01 X15.3912 Y5.7758
G01 X15.3639 Y5.7807
G01 X15.3448 Y5.7831
G01 X15.3148 Y5.7854
G01 X5.3819 Y6.2608
G01 X4.1871 Y7.1346
G01 X4.1977 Y7.2070
G01 X4.2030 Y7.3128
G01 X4.2029 Y7.3199
G01 X4.1974 Y7.4258
G01 X4.1818 Y7.5306
G01 X4.1567 Y7.6312
G01 X4.1540 Y7.6402
G01 X4.1198 Y7.7356
G01 X4.1170 Y7.7421
G01 X4.0726 Y7.8357
G01 X4.0194 Y7.9247
G01 X4.0142 Y7.9325
G01 X3.9524 Y8.0157
G01 X3.8828 Y8.0926
G01 X3.8762 Y8.0992
G01 X3.7993 Y8.1688
G01 X3.7161 Y8.2306
G01 X3.7083 Y8.2358
G01 X3.6193 Y8.2890
G01 X3.5257 Y8.3334
G01 X3.5170 Y8.3370
G01 X3.4193 Y8.3719
G01 X3.3142 Y8.3982
G01 X3.2117 Y8.4135
G01 X3.2023 Y8.4144
G01 X3.0988 Y8.4194
G01 X2.9953 Y8.4144
G01 X2.9859 Y8.4135
G01 X2.8834 Y8.3982
G01 X2.7783 Y8.3719
G01 X2.6762 Y8.3353
G01 X2.5783 Y8.2890
G01 X2.4853 Y8.2333
G01 X2.3983 Y8.1688
G01 X2.3180 Y8.0960
G01 X2.2452 Y8.0157
G01 X2.1807 Y7.9287
G01 X2.1250 Y7.8357
G01 X2.0787 Y7.7378
G01 X2.0421 Y7.6357
G01 X2.0158 Y7.5306
G01 X1.9999 Y7.4234
G01 X1.9946 Y7.3152
G01 X1.9999 Y7.2070
G01 X2.0158 Y7.0998
G01 X2.0421 Y6.9947
G01 X2.0787 Y6.8926
G01 X2.1250 Y6.7947
G01 X2.1807 Y6.7017
G01 X2.2452 Y6.6147
G01 X2.3180 Y6.5344
G01 X2.3983 Y6.4616
G01 X2.4853 Y6.3971
G01 X2.5783 Y6.3414
G01 X2.6762 Y6.2951
G01 X2.7783 Y6.2585
G01 X2.8834 Y6.2322
G01 X2.9906 Y6.2163
G01 X3.0988 Y6.2110
G01 X3.2070 Y6.2163
G01 X3.3142 Y6.2322
G01 X3.4148 Y6.2573
G01 X3.4238 Y6.2600
G00 Z1.0000
G00 X6.0410 Y9.6554
G01 F60.00
G01 Z-0.0800
G01 F60.00
G01 X6.0557 Y9.6537
G01 X6.0706 Y9.6532
G01 X6.8625 Y9.6532
G01 X6.8792 Y9.6500
G01 X6.9901 Y9.6338
G01 X7.1120 Y9.6278
G01 X7.2339 Y9.6338
G01 X7.3448 Y9.6500
G01 X7.3615 Y9.6532
G01 X8.1584 Y9.6532
G01 X8.1781 Y9.6547
G01 X8.1977 Y9.6581
G01 X8.2168 Y9.6634
G01 X8.2353 Y9.6705
G01 X8.2442 Y9.6748
G01 X8.2573 Y9.6819
G01 X8.2737 Y9.6929
G01 X8.2891 Y9.7055
G01 X8.3031 Y9.7195
G01 X8.3127 Y9.7309
G01 X8.3241 Y9.7471
G01 X8.3316 Y9.7600
G01 X8.3400 Y9.7779
G01 X8.3452 Y9.7918
G01 X8.3505 Y9.8109
G01 X8.3539 Y9.8305
G01 X8.3554 Y9.8502
G01 X8.3554 Y11.9380
G01 X8.3544 Y11.9578
G01 X8.3532 Y11.9676
G01 X8.3505 Y11.9823
G01 X8.3452 Y12.0014
G01 X8.3381 Y12.0199
G01 X8.3338 Y12.0288
G01 X8.3267 Y12.0419
G01 X8.3157 Y12.0583
G01 X8.3031 Y12.0737
G01 X8.2891 Y12.0877
G01 X8.2777 Y12.0973
G01 X8.2615 Y12.1087
G01 X8.2486 Y12.1162
G01 X8.2307 Y12.1246
G01 X8.2120 Y12.1313
G01 X8.1977 Y12.1351
G01 X8.1781 Y12.1385
G01 X8.1584 Y12.1400
G01 X6.0706 Y12.1400
G01 X6.0508 Y12.1390
G01 X6.0361 Y12.1370
G01 X6.0263 Y12.1351
G01 X6.0072 Y12.1298
G01 X5.9887 Y12.1227
G01 X5.9710 Y12.1138
G01 X5.9625 Y12.1087
G01 X5.9503 Y12.1003
G01 X5.9349 Y12.0877
G01 X5.9209 Y12.0737
G01 X5.9083 Y12.0583
G01 X5.8973 Y12.0419
G01 X5.8902 Y12.0288
G01 X5.8821 Y12.0107
G01 X5.8759 Y11.9919
G01 X5.8725 Y11.9774
G01 X5.8696 Y11.9578
G01 X5.8686 Y11.9430
G01 X5.8688 Y9.8453
G01 X5.8701 Y9.8305
G01 X5.8735 Y9.8109
G01 X5.8773 Y9.7966
G01 X5.8840 Y9.7779
G01 X5.8924 Y9.7600
G01 X5.8999 Y9.7471
G01 X5.9083 Y9.7349
G01 X5.9209 Y9.7195
G01 X5.9313 Y9.7089
G01 X5.9463 Y9.6959
G01 X5.9625 Y9.6845
G01 X5.9754 Y9.6770
G01 X5.9887 Y9.6705
G01 X6.0072 Y9.6634
G01 X6.0215 Y9.6592
G01 X6.0410 Y9.6554
G00 Z1.0000
G00 X6.0565 Y9.7600
G01 F60.00
G01 Z-0.0800
G01 F60.00
G01 X6.0635 Y9.7593
G01 X6.0706 Y9.7590
G01 X6.8755 Y9.7590
G01 X6.8878 Y9.7560
G01 X6.8947 Y9.7547
G01 X7.0005 Y9.7391
G01 X7.1073 Y9.7337
G01 X7.1144 Y9.7336
G01 X7.2235 Y9.7391
G01 X7.3293 Y9.7547
G01 X7.3362 Y9.7560
G01 X7.3485 Y9.7590
G01 X8.1581 Y9.7591
G01 X8.1675 Y9.7600
G01 X8.1768 Y9.7619
G01 X8.1858 Y9.7646
G01 X8.1924 Y9.7673
G01 X8.2008 Y9.7715
G01 X8.2088 Y9.7766
G01 X8.2162 Y9.7824
G01 X8.2231 Y9.7889
G01 X8.2292 Y9.7960
G01 X8.2334 Y9.8018
G01 X8.2382 Y9.8099
G01 X8.2423 Y9.8184
G01 X8.2447 Y9.8250
G01 X8.2473 Y9.8341
G01 X8.2489 Y9.8434
G01 X8.2496 Y9.8528
G01 X8.2496 Y11.9380
G01 X8.2491 Y11.9474
G01 X8.2473 Y11.9591
G01 X8.2447 Y11.9682
G01 X8.2413 Y11.9770
G01 X8.2371 Y11.9854
G01 X8.2320 Y11.9934
G01 X8.2262 Y12.0008
G01 X8.2197 Y12.0077
G01 X8.2126 Y12.0138
G01 X8.2049 Y12.0193
G01 X8.1967 Y12.0239
G01 X8.1902 Y12.0269
G01 X8.1813 Y12.0301
G01 X8.1745 Y12.0319
G01 X8.1652 Y12.0335
G01 X8.1558 Y12.0342
G01 X6.0706 Y12.0342
G01 X6.0612 Y12.0337
G01 X6.0518 Y12.0323
G01 X6.0427 Y12.0301
G01 X6.0338 Y12.0269
G01 X6.0253 Y12.0228
G01 X6.0172 Y12.0180
G01 X6.0096 Y12.0124
G01 X6.0009 Y12.0043
G01 X5.9962 Y11.9990
G01 X5.9906 Y11.9914
G01 X5.9858 Y11.9833
G01 X5.9817 Y11.9748
G01 X5.9793 Y11.9682
G01 X5.9767 Y11.9591
G01 X5.9751 Y11.9498
G01 X5.9744 Y11.9404
G01 X5.9744 Y9.8528
G01 X5.9749 Y9.8458
G01 X5.9763 Y9.8364
G01 X5.9785 Y9.8273
G01 X5.9808 Y9.8206
G01 X5.9847 Y9.8119
G01 X5.9881 Y9.8057
G01 X5.9920 Y9.7998
G01 X5.9978 Y9.7924
G01 X6.0043 Y9.7855
G01 X6.0096 Y9.7808
G01 X6.0172 Y9.7752
G01 X6.0232 Y9.7715
G01 X6.0316 Y9.7673
G01 X6.0404 Y9.7639
G01 X6.0495 Y9.7613
G01 X6.0565 Y9.7600
G00 Z1.0000
G00 X9.0537 Y6.5850
G01 F60.00
G01 Z-0.0800
G01 F60.00
G01 X9.0607 Y6.5843
G01 X9.0678 Y6.5840
G01 X11.1530 Y6.5840
G01 X11.1624 Y6.5847
G01 X11.1717 Y6.5863
G01 X11.1808 Y6.5889
G01 X11.1896 Y6.5923
G01 X11.1980 Y6.5965
G01 X11.2060 Y6.6016
G01 X11.2134 Y6.6074
G01 X11.2203 Y6.6139
G01 X11.2250 Y6.6192
G01 X11.2306 Y6.6268
G01 X11.2354 Y6.6349
G01 X11.2395 Y6.6434
G01 X11.2427 Y6.6523
G01 X11.2445 Y6.6591
G01 X11.2461 Y6.6684
G01 X11.2468 Y6.6778
G01 X11.2468 Y8.7630
G01 X11.2463 Y8.7724
G01 X11.2445 Y8.7841
G01 X11.2419 Y8.7932
G01 X11.2385 Y8.8020
G01 X11.2343 Y8.8104
G01 X11.2292 Y8.8184
G01 X11.2234 Y8.8258
G01 X11.2169 Y8.8327
G01 X11.2098 Y8.8388
G01 X11.2040 Y8.8430
G01 X11.1959 Y8.8478
G01 X11.1874 Y8.8519
G01 X11.1785 Y8.8551
G01 X11.1717 Y8.8569
G01 X11.1624 Y8.8585
G01 X11.1553 Y8.8591
G01 X10.3457 Y8.8592
G01 X10.3334 Y8.8622
G01 X10.3265 Y8.8635
G01 X10.2207 Y8.8791
G01 X10.1092 Y8.8846
G01 X9.9977 Y8.8791
G01 X9.8919 Y8.8635
G01 X9.8850 Y8.8622
G01 X9.8727 Y8.8592
G01 X9.0631 Y8.8591
G01 X9.0560 Y8.8585
G01 X9.0467 Y8.8569
G01 X9.0376 Y8.8543
G01 X9.0288 Y8.8509
G01 X9.0204 Y8.8467
G01 X9.0124 Y8.8416
G01 X9.0050 Y8.8358
G01 X8.9981 Y8.8293
G01 X8.9934 Y8.8240
G01 X8.9878 Y8.8164
G01 X8.9830 Y8.8083
G01 X8.9789 Y8.7998
G01 X8.9765 Y8.7932
G01 X8.9739 Y8.7841
G01 X8.9723 Y8.7748
G01 X8.9716 Y8.7654
G01 X8.9716 Y6.6778
G01 X8.9723 Y6.6684
G01 X8.9735 Y6.6614
G01 X8.9757 Y6.6523
G01 X8.9780 Y6.6456
G01 X8.9819 Y6.6369
G01 X8.9853 Y6.6307
G01 X8.9905 Y6.6229
G01 X8.9950 Y6.6174
G01 X8.9998 Y6.6122
G01 X9.0068 Y6.6058
G01 X9.0144 Y6.6002
G01 X9.0204 Y6.5965
G01 X9.0288 Y6.5923
G01 X9.0354 Y6.5896
G01 X9.0444 Y6.5869
G01 X9.0537 Y6.5850
G00 Z1.0000
G00 X9.0382 Y6.4804
G01 F60.00
G01 Z-0.0800
G01 F60.00
G01 X9.0529 Y6.4787
G01 X9.0678 Y6.4782
G01 X11.1556 Y6.4782
G01 X11.1753 Y6.4797
G01 X11.1851 Y6.4812
G01 X11.1997 Y6.4842
G01 X11.2187 Y6.4900
G01 X11.2370 Y6.4976
G01 X11.2545 Y6.5069
G01 X11.2709 Y6.5179
G01 X11.2863 Y6.5305
G01 X11.3003 Y6.5445
G01 X11.3099 Y6.5559
G01 X11.3213 Y6.5721
G01 X11.3288 Y6.5850
G01 X11.3372 Y6.6029
G01 X11.3439 Y6.6216
G01 X11.3477 Y6.6359
G01 X11.3511 Y6.6555
G01 X11.3526 Y6.6752
G01 X11.3526 Y8.7630
G01 X11.3516 Y8.7828
G01 X11.3504 Y8.7926
G01 X11.3477 Y8.8073
G01 X11.3424 Y8.8264
G01 X11.3353 Y8.8449
G01 X11.3264 Y8.8626
G01 X11.3186 Y8.8752
G01 X11.3129 Y8.8833
G01 X11.3003 Y8.8987
G01 X11.2863 Y8.9127
G01 X11.2749 Y8.9223
G01 X11.2587 Y8.9337
G01 X11.2458 Y8.9412
G01 X11.2325 Y8.9477
G01 X11.2187 Y8.9532
G01 X11.1997 Y8.9590
G01 X11.1851 Y8.9620
G01 X11.1655 Y8.9645
G01 X11.1506 Y8.9650
G01 X10.3587 Y8.9650
G01 X10.3420 Y8.9682
G01 X10.2311 Y8.9844
G01 X10.1092 Y8.9904
G01 X9.9873 Y8.9844
G01 X9.8764 Y8.9682
G01 X9.8597 Y8.9650
G01 X9.0678 Y8.9650
G01 X9.0529 Y8.9645
G01 X9.0333 Y8.9620
G01 X9.0139 Y8.9577
G01 X8.9997 Y8.9532
G01 X8.9814 Y8.9456
G01 X8.9639 Y8.9363
G01 X8.9475 Y8.9253
G01 X8.9321 Y8.9127
G01 X8.9181 Y8.8987
G01 X8.9055 Y8.8833
G01 X8.8971 Y8.8711
G01 X8.8896 Y8.8582
G01 X8.8812 Y8.8403
G01 X8.8745 Y8.8216
G01 X8.8707 Y8.8073
G01 X8.8673 Y8.7877
G01 X8.8658 Y8.7680
G01 X8.8660 Y6.6703
G01 X8.8680 Y6.6506
G01 X8.8707 Y6.6359
G01 X8.8745 Y6.6216
G01 X8.8812 Y6.6029
G01 X8.8896 Y6.5850
G01 X8.8971 Y6.5721
G01 X8.9055 Y6.5599
G01 X8.9181 Y6.5445
G01 X8.9321 Y6.5305
G01 X8.9435 Y6.5209
G01 X8.9556 Y6.5122
G01 X8.9726 Y6.5020
G01 X8.9905 Y6.4936
G01 X9.0044 Y6.4884
G01 X9.0235 Y6.4831
G01 X9.0382 Y6.4804
G00 Z1.0000
G00 X6.9192 Y14.9134
G01 F60.00
G01 Z-0.0800
G01 F60.00
G01 X6.9853 Y14.9864
G01 X6.9916 Y14.9941
G01 X7.0067 Y15.0144
G01 X8.9716 Y14.8162
G01 X9.0126 Y14.7301
G01 X9.0753 Y14.6254
G01 X9.1480 Y14.5274
G01 X9.2231 Y14.4442
G01 X9.2372 Y14.4301
G01 X9.3129 Y14.3615
G01 X9.3282 Y14.3489
G01 X9.4184 Y14.2823
G01 X9.5187 Y14.2220
G01 X9.5319 Y14.2151
G01 X9.6243 Y14.1715
G01 X9.6426 Y14.1639
G01 X9.7483 Y14.1263
G01 X9.8666 Y14.0967
G01 X9.9873 Y14.0788
G01 X10.0993 Y14.0730
G01 X10.1191 Y14.0730
G01 X10.2212 Y14.0780
G01 X10.2360 Y14.0793
G01 X10.3518 Y14.0967
G01 X10.4701 Y14.1263
G01 X10.5850 Y14.1674
G01 X10.6953 Y14.2196
G01 X10.8000 Y14.2823
G01 X10.8980 Y14.3550
G01 X10.9884 Y14.4370
G01 X11.0704 Y14.5274
G01 X11.1431 Y14.6254
G01 X11.2058 Y14.7301
G01 X11.2580 Y14.8404
G01 X11.2991 Y14.9553
G01 X11.3287 Y15.0736
G01 X11.3466 Y15.1943
G01 X11.3526 Y15.3162
G01 X11.3474 Y15.4282
G01 X11.3461 Y15.4430
G01 X11.3287 Y15.5588
G01 X11.3017 Y15.6676
G01 X11.2960 Y15.6866
G01 X11.2615 Y15.7828
G01 X11.2539 Y15.8011
G01 X11.2058 Y15.9023
G01 X11.1431 Y16.0070
G01 X11.0704 Y16.1050
G01 X10.9953 Y16.1882
G01 X10.9812 Y16.2023
G01 X10.9055 Y16.2709
G01 X10.8902 Y16.2835
G01 X10.8000 Y16.3501
G01 X10.6953 Y16.4128
G01 X10.5850 Y16.4650
G01 X10.4796 Y16.5030
G01 X10.4606 Y16.5087
G01 X10.3615 Y16.5336
G01 X10.3469 Y16.5366
G01 X10.2311 Y16.5536
G01 X10.1191 Y16.5594
G01 X10.0993 Y16.5594
G01 X9.9873 Y16.5536
G01 X9.8764 Y16.5374
G01 X9.8569 Y16.5336
G01 X9.7483 Y16.5061
G01 X9.6334 Y16.4650
G01 X9.5319 Y16.4173
G01 X9.5144 Y16.4079
G01 X9.4184 Y16.3501
G01 X9.3204 Y16.2774
G01 X9.2372 Y16.2023
G01 X9.2231 Y16.1882
G01 X9.1480 Y16.1050
G01 X9.0904 Y16.0277
G01 X7.1343 Y16.2249
G01 X7.1187 Y16.2580
G01 X7.1118 Y16.2712
G01 X7.0586 Y16.3599
G01 X7.0502 Y16.3721
G01 X6.9946 Y16.4472
G01 X6.9853 Y16.4588
G01 X6.9192 Y16.5318
G01 X6.9052 Y16.5458
G01 X6.8284 Y16.6151
G01 X6.7415 Y16.6797
G01 X6.7290 Y16.6879
G01 X6.6402 Y16.7408
G01 X6.5469 Y16.7852
G01 X6.5286 Y16.7928
G01 X6.4311 Y16.8274
G01 X6.3309 Y16.8528
G01 X6.3115 Y16.8566
G01 X6.2141 Y16.8710
G01 X6.1993 Y16.8723
G01 X6.0960 Y16.8771
G01 X5.9828 Y16.8716
G01 X5.8708 Y16.8549
G01 X5.7704 Y16.8300
G01 X5.7514 Y16.8243
G01 X5.6634 Y16.7928
G01 X5.6451 Y16.7852
G01 X5.5518 Y16.7408
G01 X5.4630 Y16.6879
G01 X5.4465 Y16.6768
G01 X5.3636 Y16.6151
G01 X5.2796 Y16.5390
G01 X5.2035 Y16.4550
G01 X5.1361 Y16.3640
G01 X5.0778 Y16.2668
G01 X5.0294 Y16.1644
G01 X4.9912 Y16.0577
G01 X4.9637 Y15.9478
G01 X4.9470 Y15.8358
G01 X4.9415 Y15.7226
G01 X4.9470 Y15.6094
G01 X4.9637 Y15.4974
G01 X4.9912 Y15.3875
G01 X5.0294 Y15.2808
G01 X5.0778 Y15.1784
G01 X5.1361 Y15.0812
G01 X5.2035 Y14.9902
G01 X5.2796 Y14.9062
G01 X5.3636 Y14.8301
G01 X5.4546 Y14.7627
G01 X5.5518 Y14.7044
G01 X5.6542 Y14.6560
G01 X5.7609 Y14.6178
G01 X5.8708 Y14.5903
G01 X5.9828 Y14.5736
G01 X6.0960 Y14.5681
G01 X6.2092 Y14.5736
G01 X6.3212 Y14.5903
G01 X6.4311 Y14.6178
G01 X6.5378 Y14.6560
G01 X6.6402 Y14.7044
G01 X6.7374 Y14.7627
G01 X6.8284 Y14.8301
G01 X6.9052 Y14.8994
G01 X6.9192 Y14.9134
G00 Z1.0000
G00 X6.8408 Y14.9845
G01 F60.00
G01 Z-0.0800
G01 F60.00
G01 X6.9067 Y15.0573
G01 X6.9575 Y15.1257
G01 X9.0458 Y14.9151
G01 X9.0591 Y14.8787
G01 X9.1071 Y14.7779
G01 X9.1633 Y14.6842
G01 X9.2283 Y14.5964
G01 X9.3015 Y14.5152
G01 X9.3082 Y14.5085
G01 X9.3875 Y14.4368
G01 X9.4733 Y14.3730
G01 X9.4792 Y14.3690
G01 X9.5729 Y14.3129
G01 X9.6739 Y14.2652
G01 X9.7790 Y14.2276
G01 X9.8827 Y14.2015
G01 X9.8919 Y14.1997
G01 X9.9930 Y14.1847
G01 X10.0024 Y14.1837
G01 X10.1092 Y14.1786
G01 X10.2207 Y14.1841
G01 X10.3311 Y14.2005
G01 X10.4394 Y14.2276
G01 X10.5445 Y14.2652
G01 X10.6455 Y14.3129
G01 X10.7412 Y14.3703
G01 X10.8309 Y14.4368
G01 X10.9136 Y14.5118
G01 X10.9886 Y14.5945
G01 X11.0551 Y14.6842
G01 X11.1125 Y14.7799
G01 X11.1602 Y14.8809
G01 X11.1978 Y14.9860
G01 X11.2249 Y15.0943
G01 X11.2413 Y15.2047
G01 X11.2468 Y15.3162
G01 X11.2413 Y15.4277
G01 X11.2249 Y15.5381
G01 X11.1991 Y15.6419
G01 X11.1963 Y15.6509
G01 X11.1619 Y15.7471
G01 X11.1583 Y15.7559
G01 X11.1125 Y15.8525
G01 X11.0551 Y15.9482
G01 X10.9886 Y16.0379
G01 X10.9169 Y16.1172
G01 X10.9102 Y16.1239
G01 X10.8345 Y16.1925
G01 X10.8272 Y16.1985
G01 X10.7412 Y16.2621
G01 X10.6455 Y16.3195
G01 X10.5445 Y16.3672
G01 X10.4439 Y16.4033
G01 X10.4349 Y16.4061
G01 X10.3288 Y16.4324
G01 X10.2207 Y16.4483
G01 X10.1139 Y16.4537
G01 X10.1045 Y16.4537
G01 X9.9977 Y16.4483
G01 X9.8873 Y16.4319
G01 X9.7835 Y16.4061
G01 X9.7745 Y16.4033
G01 X9.6717 Y16.3663
G01 X9.5729 Y16.3195
G01 X9.4812 Y16.2646
G01 X9.4733 Y16.2594
G01 X9.3857 Y16.1941
G01 X9.3048 Y16.1206
G01 X9.2313 Y16.0397
G01 X9.1647 Y15.9502
G01 X9.1438 Y15.9159
G01 X7.0641 Y16.1256
G01 X7.0230 Y16.2127
G01 X7.0185 Y16.2211
G01 X6.9680 Y16.3052
G01 X6.9096 Y16.3842
G01 X6.9036 Y16.3915
G01 X6.8375 Y16.4641
G01 X6.7649 Y16.5302
G01 X6.7576 Y16.5362
G01 X6.6786 Y16.5946
G01 X6.5945 Y16.6451
G01 X6.5861 Y16.6496
G01 X6.4973 Y16.6915
G01 X6.4049 Y16.7247
G01 X6.3959 Y16.7274
G01 X6.3006 Y16.7511
G01 X6.2035 Y16.7657
G01 X6.1941 Y16.7666
G01 X6.0960 Y16.7713
G01 X5.9932 Y16.7662
G01 X5.8914 Y16.7511
G01 X5.7961 Y16.7274
G01 X5.7871 Y16.7247
G01 X5.6991 Y16.6932
G01 X5.6904 Y16.6896
G01 X5.6016 Y16.6475
G01 X5.5174 Y16.5971
G01 X5.5095 Y16.5918
G01 X5.4307 Y16.5333
G01 X5.3545 Y16.4641
G01 X5.2853 Y16.3879
G01 X5.2240 Y16.3052
G01 X5.1711 Y16.2170
G01 X5.1271 Y16.1239
G01 X5.0925 Y16.0270
G01 X5.0675 Y15.9272
G01 X5.0524 Y15.8254
G01 X5.0473 Y15.7226
G01 X5.0524 Y15.6198
G01 X5.0675 Y15.5180
G01 X5.0925 Y15.4182
G01 X5.1271 Y15.3213
G01 X5.1711 Y15.2282
G01 X5.2240 Y15.1400
G01 X5.2853 Y15.0573
G01 X5.3545 Y14.9811
G01 X5.4307 Y14.9119
G01 X5.5134 Y14.8506
G01 X5.6016 Y14.7977
G01 X5.6947 Y14.7537
G01 X5.7916 Y14.7191
G01 X5.8914 Y14.6941
G01 X5.9932 Y14.6790
G01 X6.0960 Y14.6739
G01 X6.1988 Y14.6790
G01 X6.3006 Y14.6941
G01 X6.4004 Y14.7191
G01 X6.4973 Y14.7537
G01 X6.5904 Y14.7977
G01 X6.6786 Y14.8506
G01 X6.7613 Y14.9119
G01 X6.8341 Y14.9778
G01 X6.8408 Y14.9845
G00 Z1.0000
G00 X4.2861 Y18.2014
G01 F60.00
G01 Z-0.0800
G01 F60.00
G01 X4.2914 Y18.3134
G01 X4.2857 Y18.4303
G01 X4.2685 Y18.5461
G01 X4.2401 Y18.6596
G01 X4.2006 Y18.7698
G01 X4.1506 Y18.8756
G01 X4.0904 Y18.9760
G01 X4.0207 Y19.0700
G01 X3.9421 Y19.1567
G01 X3.8554 Y19.2353
G01 X3.7614 Y19.3050
G01 X3.6610 Y19.3652
G01 X3.5552 Y19.4152
G01 X3.4450 Y19.4547
G01 X3.3315 Y19.4831
G01 X3.2157 Y19.5003
G01 X3.0988 Y19.5060
G01 X2.9819 Y19.5003
G01 X2.8661 Y19.4831
G01 X2.7526 Y19.4547
G01 X2.6424 Y19.4152
G01 X2.5366 Y19.3652
G01 X2.4362 Y19.3050
G01 X2.3422 Y19.2353
G01 X2.2555 Y19.1567
G01 X2.1769 Y19.0700
G01 X2.1072 Y18.9760
G01 X2.0470 Y18.8756
G01 X1.9970 Y18.7698
G01 X1.9575 Y18.6596
G01 X1.9291 Y18.5461
G01 X1.9119 Y18.4303
G01 X1.9062 Y18.3134
G01 X1.9119 Y18.1965
G01 X1.9291 Y18.0807
G01 X1.9575 Y17.9672
G01 X1.9970 Y17.8570
G01 X2.0470 Y17.7512
G01 X2.1072 Y17.6508
G01 X2.1769 Y17.5568
G01 X2.2555 Y17.4701
G01 X2.3422 Y17.3915
G01 X2.4362 Y17.3218
G01 X2.5366 Y17.2616
G01 X2.6424 Y17.2116
G01 X2.7526 Y17.1721
G01 X2.8661 Y17.1437
G01 X2.9819 Y17.1265
G01 X3.0988 Y17.1208
G01 X3.2157 Y17.1265
G01 X3.3315 Y17.1437
G01 X3.4450 Y17.1721
G01 X3.5552 Y17.2116
G01 X3.6610 Y17.2616
G01 X3.7614 Y17.3218
G01 X3.8554 Y17.3915
G01 X3.9421 Y17.4701
G01 X4.0207 Y17.5568
G01 X4.0904 Y17.6508
G01 X4.1506 Y17.7512
G01 X4.2006 Y17.8570
G01 X4.2401 Y17.9672
G01 X4.2685 Y18.0807
G01 X4.2845 Y18.1867
G01 X4.2861 Y18.2014
G00 Z1.0000
G00 X4.1806 Y18.2092
G01 F60.00
G01 Z-0.0800
G01 F60.00
G01 X4.1856 Y18.3134
G01 X4.1804 Y18.4199
G01 X4.1647 Y18.5254
G01 X4.1388 Y18.6289
G01 X4.1029 Y18.7293
G01 X4.0573 Y18.8257
G01 X4.0024 Y18.9172
G01 X3.9389 Y19.0029
G01 X3.8673 Y19.0819
G01 X3.7883 Y19.1535
G01 X3.7026 Y19.2170
G01 X3.6111 Y19.2719
G01 X3.5147 Y19.3175
G01 X3.4143 Y19.3534
G01 X3.3108 Y19.3793
G01 X3.2053 Y19.3950
G01 X3.0988 Y19.4002
G01 X2.9923 Y19.3950
G01 X2.8868 Y19.3793
G01 X2.7833 Y19.3534
G01 X2.6829 Y19.3175
G01 X2.5865 Y19.2719
G01 X2.4950 Y19.2170
G01 X2.4093 Y19.1535
G01 X2.3303 Y19.0819
G01 X2.2587 Y19.0029
G01 X2.1952 Y18.9172
G01 X2.1403 Y18.8257
G01 X2.0947 Y18.7293
G01 X2.0588 Y18.6289
G01 X2.0329 Y18.5254
G01 X2.0172 Y18.4199
G01 X2.0120 Y18.3134
G01 X2.0172 Y18.2069
G01 X2.0329 Y18.1014
G01 X2.0588 Y17.9979
G01 X2.0947 Y17.8975
G01 X2.1403 Y17.8011
G01 X2.1952 Y17.7096
G01 X2.2587 Y17.6239
G01 X2.3303 Y17.5449
G01 X2.4093 Y17.4733
G01 X2.4950 Y17.4098
G01 X2.5865 Y17.3549
G01 X2.6829 Y17.3093
G01 X2.7833 Y17.2734
G01 X2.8868 Y17.2475
G01 X2.9923 Y17.2318
G01 X3.0988 Y17.2266
G01 X3.2053 Y17.2318
G01 X3.3108 Y17.2475
G01 X3.4143 Y17.2734
G01 X3.5147 Y17.3093
G01 X3.6111 Y17.3549
G01 X3.7026 Y17.4098
G01 X3.7883 Y17.4733
G01 X3.8673 Y17.5449
G01 X3.9389 Y17.6239
G01 X4.0024 Y17.7096
G01 X4.0573 Y17.8011
G01 X4.1029 Y17.8975
G01 X4.1388 Y17.9979
G01 X4.1647 Y18.1014
G01 X4.1798 Y18.2022
G01 X4.1806 Y18.2092
G00 Z1.0000
G00 X4.2861 Y20.7414
G01 F60.00
G01 Z-0.0800
G01 F60.00
G01 X4.2914 Y20.8534
G01 X4.2857 Y20.9703
G01 X4.2685 Y21.0861
G01 X4.2401 Y21.1996
G01 X4.2006 Y21.3098
G01 X4.1506 Y21.4156
G01 X4.0904 Y21.5160
G01 X4.0207 Y21.6100
G01 X3.9421 Y21.6967
G01 X3.8554 Y21.7753
G01 X3.7614 Y21.8450
G01 X3.6610 Y21.9052
G01 X3.5552 Y21.9552
G01 X3.4450 Y21.9947
G01 X3.3315 Y22.0231
G01 X3.2157 Y22.0403
G01 X3.0988 Y22.0460
G01 X2.9819 Y22.0403
G01 X2.8661 Y22.0231
G01 X2.7526 Y21.9947
G01 X2.6424 Y21.9552
G01 X2.5366 Y21.9052
G01 X2.4362 Y21.8450
G01 X2.3422 Y21.7753
G01 X2.2555 Y21.6967
G01 X2.1769 Y21.6100
G01 X2.1072 Y21.5160
G01 X2.0470 Y21.4156
G01 X1.9970 Y21.3098
G01 X1.9575 Y21.1996
G01 X1.9291 Y21.0861
G01 X1.9119 Y20.9703
G01 X1.9062 Y20.8534
G01 X1.9119 Y20.7365
G01 X1.9291 Y20.6207
G01 X1.9575 Y20.5072
G01 X1.9970 Y20.3970
G01 X2.0470 Y20.2912
G01 X2.1072 Y20.1908
G01 X2.1769 Y20.0968
G01 X2.2555 Y20.0101
G01 X2.3422 Y19.9315
G01 X2.4362 Y19.8618
G01 X2.5366 Y19.8016
G01 X2.6424 Y19.7516
G01 X2.7526 Y19.7121
G01 X2.8661 Y19.6837
G01 X2.9819 Y19.6665
G01 X3.0988 Y19.6608
G01 X3.2157 Y19.6665
G01 X3.3315 Y19.6837
G01 X3.4450 Y19.7121
G01 X3.5552 Y19.7516
G01 X3.6610 Y19.8016
G01 X3.7614 Y19.8618
G01 X3.8554 Y19.9315
G01 X3.9421 Y20.0101
G01 X4.0207 Y20.0968
G01 X4.0904 Y20.1908
G01 X4.1506 Y20.2912
G01 X4.2006 Y20.3970
G01 X4.2401 Y20.5072
G01 X4.2685 Y20.6207
G01 X4.2845 Y20.7267
G01 X4.2861 Y20.7414
G00 Z1.0000
G00 X4.1806 Y20.7492
G01 F60.00
G01 Z-0.0800
G01 F60.00
G01 X4.1856 Y20.8534
G01 X4.1804 Y20.9599
G01 X4.1647 Y21.0654
G01 X4.1388 Y21.1689
G01 X4.1029 Y21.2693
G01 X4.0573 Y21.3657
G01 X4.0024 Y21.4572
G01 X3.9389 Y21.5429
G01 X3.8673 Y21.6219
G01 X3.7883 Y21.6935
G01 X3.7026 Y21.7570
G01 X3.6111 Y21.8119
G01 X3.5147 Y21.8575
G01 X3.4143 Y21.8934
G01 X3.3108 Y21.9193
G01 X3.2053 Y21.9350
G01 X3.0988 Y21.9402
G01 X2.9923 Y21.9350
G01 X2.8868 Y21.9193
G01 X2.7833 Y21.8934
G01 X2.6829 Y21.8575
G01 X2.5865 Y21.8119
G01 X2.4950 Y21.7570
G01 X2.4093 Y21.6935
G01 X2.3303 Y21.6219
G01 X2.2587 Y21.5429
G01 X2.1952 Y21.4572
G01 X2.1403 Y21.3657
G01 X2.0947 Y21.2693
G01 X2.0588 Y21.1689
G01 X2.0329 Y21.0654
G01 X2.0172 Y20.9599
G01 X2.0120 Y20.8534
G01 X2.0172 Y20.7469
G01 X2.0329 Y20.6414
G01 X2.0588 Y20.5379
G01 X2.0947 Y20.4375
G01 X2.1403 Y20.3411
G01 X2.1952 Y20.2496
G01 X2.2587 Y20.1639
G01 X2.3303 Y20.0849
G01 X2.4093 Y20.0133
G01 X2.4950 Y19.9498
G01 X2.5865 Y19.8949
G01 X2.6829 Y19.8493
G01 X2.7833 Y19.8134
G01 X2.8868 Y19.7875
G01 X2.9923 Y19.7718
G01 X3.0988 Y19.7666
G01 X3.2053 Y19.7718
G01 X3.3108 Y19.7875
G01 X3.4143 Y19.8134
G01 X3.5147 Y19.8493
G01 X3.6111 Y19.8949
G01 X3.7026 Y19.9498
G01 X3.7883 Y20.0133
G01 X3.8673 Y20.0849
G01 X3.9389 Y20.1639
G01 X4.0024 Y20.2496
G01 X4.0573 Y20.3411
G01 X4.1029 Y20.4375
G01 X4.1388 Y20.5379
G01 X4.1647 Y20.6414
G01 X4.1798 Y20.7422
G01 X4.1806 Y20.7492
G00 Z1.0000
G00 X7.4380 Y21.6188
G01 F60.00
G01 Z-0.0800
G01 F60.00
G01 X7.4527 Y21.6171
G01 X7.4676 Y21.6166
G01 X9.5554 Y21.6166
G01 X9.5653 Y21.6171
G01 X9.5800 Y21.6188
G01 X9.5995 Y21.6226
G01 X9.6185 Y21.6284
G01 X9.6368 Y21.6360
G01 X9.6543 Y21.6453
G01 X9.6707 Y21.6563
G01 X9.6861 Y21.6689
G01 X9.7001 Y21.6829
G01 X9.7097 Y21.6943
G01 X9.7211 Y21.7105
G01 X9.7308 Y21.7278
G01 X9.7370 Y21.7413
G01 X9.7422 Y21.7552
G01 X9.7475 Y21.7743
G01 X9.7502 Y21.7890
G01 X9.7519 Y21.8037
G01 X9.7524 Y21.8186
G01 X9.7524 Y22.6105
G01 X9.7556 Y22.6272
G01 X9.7718 Y22.7381
G01 X9.7778 Y22.8600
G01 X9.7718 Y22.9819
G01 X9.7556 Y23.0928
G01 X9.7524 Y23.1095
G01 X9.7524 Y23.9014
G01 X9.7519 Y23.9163
G01 X9.7502 Y23.9310
G01 X9.7464 Y23.9505
G01 X9.7406 Y23.9695
G01 X9.7330 Y23.9878
G01 X9.7237 Y24.0053
G01 X9.7127 Y24.0217
G01 X9.7001 Y24.0371
G01 X9.6861 Y24.0511
G01 X9.6707 Y24.0637
G01 X9.6585 Y24.0721
G01 X9.6412 Y24.0818
G01 X9.6277 Y24.0880
G01 X9.6138 Y24.0932
G01 X9.5947 Y24.0985
G01 X9.5751 Y24.1019
G01 X9.5554 Y24.1034
G01 X7.4676 Y24.1034
G01 X7.4478 Y24.1024
G01 X7.4282 Y24.0995
G01 X7.4137 Y24.0961
G01 X7.4042 Y24.0932
G01 X7.3857 Y24.0861
G01 X7.3680 Y24.0772
G01 X7.3513 Y24.0666
G01 X7.3433 Y24.0607
G01 X7.3319 Y24.0511
G01 X7.3179 Y24.0371
G01 X7.3053 Y24.0217
G01 X7.2969 Y24.0095
G01 X7.2872 Y23.9922
G01 X7.2791 Y23.9741
G01 X7.2729 Y23.9553
G01 X7.2695 Y23.9408
G01 X7.2671 Y23.9261
G01 X7.2656 Y23.9064
G01 X7.2658 Y21.8087
G01 X7.2671 Y21.7939
G01 X7.2705 Y21.7743
G01 X7.2758 Y21.7552
G01 X7.2810 Y21.7413
G01 X7.2872 Y21.7278
G01 X7.2969 Y21.7105
G01 X7.3083 Y21.6943
G01 X7.3179 Y21.6829
G01 X7.3319 Y21.6689
G01 X7.3433 Y21.6593
G01 X7.3554 Y21.6506
G01 X7.3724 Y21.6404
G01 X7.3903 Y21.6320
G01 X7.4042 Y21.6268
G01 X7.4185 Y21.6226
G01 X7.4380 Y21.6188
G00 Z1.0000
G00 X7.4535 Y21.7234
G01 F60.00
G01 Z-0.0800
G01 F60.00
G01 X7.4605 Y21.7227
G01 X7.4676 Y21.7224
G01 X9.5528 Y21.7224
G01 X9.5622 Y21.7231
G01 X9.5715 Y21.7247
G01 X9.5806 Y21.7273
G01 X9.5894 Y21.7307
G01 X9.5978 Y21.7349
G01 X9.6058 Y21.7400
G01 X9.6132 Y21.7458
G01 X9.6201 Y21.7523
G01 X9.6248 Y21.7576
G01 X9.6304 Y21.7652
G01 X9.6341 Y21.7712
G01 X9.6383 Y21.7796
G01 X9.6417 Y21.7884
G01 X9.6443 Y21.7975
G01 X9.6456 Y21.8045
G01 X9.6465 Y21.8139
G01 X9.6466 Y22.6235
G01 X9.6496 Y22.6358
G01 X9.6509 Y22.6427
G01 X9.6665 Y22.7485
G01 X9.6720 Y22.8600
G01 X9.6665 Y22.9715
G01 X9.6509 Y23.0773
G01 X9.6496 Y23.0842
G01 X9.6466 Y23.0965
G01 X9.6465 Y23.9061
G01 X9.6456 Y23.9155
G01 X9.6437 Y23.9248
G01 X9.6410 Y23.9338
G01 X9.6374 Y23.9425
G01 X9.6341 Y23.9488
G01 X9.6290 Y23.9568
G01 X9.6232 Y23.9642
G01 X9.6167 Y23.9711
G01 X9.6096 Y23.9772
G01 X9.6019 Y23.9827
G01 X9.5957 Y23.9862
G01 X9.5872 Y23.9903
G01 X9.5806 Y23.9927
G01 X9.5715 Y23.9953
G01 X9.5622 Y23.9969
G01 X9.5528 Y23.9976
G01 X7.4676 Y23.9976
G01 X7.4582 Y23.9971
G01 X7.4488 Y23.9957
G01 X7.4397 Y23.9935
G01 X7.4308 Y23.9903
G01 X7.4202 Y23.9851
G01 X7.4122 Y23.9800
G01 X7.4048 Y23.9742
G01 X7.3979 Y23.9677
G01 X7.3932 Y23.9624
G01 X7.3876 Y23.9548
G01 X7.3828 Y23.9467
G01 X7.3787 Y23.9382
G01 X7.3755 Y23.9293
G01 X7.3733 Y23.9202
G01 X7.3719 Y23.9108
G01 X7.3714 Y23.9038
G01 X7.3714 Y21.8162
G01 X7.3721 Y21.8068
G01 X7.3733 Y21.7998
G01 X7.3749 Y21.7929
G01 X7.3778 Y21.7840
G01 X7.3806 Y21.7775
G01 X7.3851 Y21.7691
G01 X7.3903 Y21.7613
G01 X7.3948 Y21.7558
G01 X7.3996 Y21.7506
G01 X7.4066 Y21.7442
G01 X7.4122 Y21.7400
G01 X7.4202 Y21.7349
G01 X7.4265 Y21.7316
G01 X7.4352 Y21.7280
G01 X7.4442 Y21.7253
G01 X7.4535 Y21.7234
G00 Z1.0000
G00 X7.2454 Y25.7744
G01 F60.00
G01 Z-0.0800
G01 F60.00
G01 X7.2505 Y25.8826
G01 X7.2450 Y25.9958
G01 X7.2283 Y26.1078
G01 X7.2008 Y26.2177
G01 X7.1626 Y26.3244
G01 X7.1142 Y26.4268
G01 X7.0559 Y26.5240
G01 X6.9885 Y26.6150
G01 X6.9124 Y26.6990
G01 X6.8284 Y26.7751
G01 X6.7374 Y26.8425
G01 X6.6402 Y26.9008
G01 X6.5378 Y26.9492
G01 X6.4311 Y26.9874
G01 X6.3212 Y27.0149
G01 X6.2092 Y27.0316
G01 X6.0960 Y27.0371
G01 X5.9828 Y27.0316
G01 X5.8708 Y27.0149
G01 X5.7609 Y26.9874
G01 X5.6542 Y26.9492
G01 X5.5518 Y26.9008
G01 X5.4546 Y26.8425
G01 X5.3636 Y26.7751
G01 X5.2796 Y26.6990
G01 X5.2035 Y26.6150
G01 X5.1361 Y26.5240
G01 X5.0778 Y26.4268
G01 X5.0294 Y26.3244
G01 X4.9912 Y26.2177
G01 X4.9637 Y26.1078
G01 X4.9470 Y25.9958
G01 X4.9415 Y25.8826
G01 X4.9470 Y25.7694
G01 X4.9637 Y25.6574
G01 X4.9912 Y25.5475
G01 X5.0294 Y25.4408
G01 X5.0778 Y25.3384
G01 X5.1361 Y25.2412
G01 X5.2035 Y25.1502
G01 X5.2796 Y25.0662
G01 X5.3636 Y24.9901
G01 X5.4546 Y24.9227
G01 X5.5518 Y24.8644
G01 X5.6542 Y24.8160
G01 X5.7609 Y24.7778
G01 X5.8708 Y24.7503
G01 X5.9828 Y24.7336
G01 X6.0960 Y24.7281
G01 X6.2092 Y24.7336
G01 X6.3212 Y24.7503
G01 X6.4311 Y24.7778
G01 X6.5378 Y24.8160
G01 X6.6402 Y24.8644
G01 X6.7374 Y24.9227
G01 X6.8284 Y24.9901
G01 X6.9124 Y25.0662
G01 X6.9885 Y25.1502
G01 X7.0559 Y25.2412
G01 X7.1142 Y25.3384
G01 X7.1626 Y25.4408
G01 X7.2008 Y25.5475
G01 X7.2283 Y25.6574
G01 X7.2437 Y25.7596
G01 X7.2454 Y25.7744
G00 Z1.0000
G00 X7.1399 Y25.7822
G01 F60.00
G01 Z-0.0800
G01 F60.00
G01 X7.1447 Y25.8826
G01 X7.1396 Y25.9854
G01 X7.1245 Y26.0872
G01 X7.0995 Y26.1870
G01 X7.0649 Y26.2839
G01 X7.0209 Y26.3770
G01 X6.9680 Y26.4652
G01 X6.9067 Y26.5479
G01 X6.8375 Y26.6241
G01 X6.7613 Y26.6933
G01 X6.6786 Y26.7546
G01 X6.5904 Y26.8075
G01 X6.4973 Y26.8515
G01 X6.4004 Y26.8861
G01 X6.3006 Y26.9111
G01 X6.1988 Y26.9262
G01 X6.0960 Y26.9313
G01 X5.9932 Y26.9262
G01 X5.8914 Y26.9111
G01 X5.7916 Y26.8861
G01 X5.6947 Y26.8515
G01 X5.6016 Y26.8075
G01 X5.5134 Y26.7546
G01 X5.4307 Y26.6933
G01 X5.3545 Y26.6241
G01 X5.2853 Y26.5479
G01 X5.2240 Y26.4652
G01 X5.1711 Y26.3770
G01 X5.1271 Y26.2839
G01 X5.0925 Y26.1870
G01 X5.0675 Y26.0872
G01 X5.0524 Y25.9854
G01 X5.0473 Y25.8826
G01 X5.0524 Y25.7798
G01 X5.0675 Y25.6780
G01 X5.0925 Y25.5782
G01 X5.1271 Y25.4813
G01 X5.1711 Y25.3882
G01 X5.2240 Y25.3000
G01 X5.2853 Y25.2173
G01 X5.3545 Y25.1411
G01 X5.4307 Y25.0719
G01 X5.5134 Y25.0106
G01 X5.6016 Y24.9577
G01 X5.6947 Y24.9137
G01 X5.7916 Y24.8791
G01 X5.8914 Y24.8541
G01 X5.9932 Y24.8390
G01 X6.0960 Y24.8339
G01 X6.1988 Y24.8390
G01 X6.3006 Y24.8541
G01 X6.4004 Y24.8791
G01 X6.4973 Y24.9137
G01 X6.5904 Y24.9577
G01 X6.6786 Y25.0106
G01 X6.7613 Y25.0719
G01 X6.8375 Y25.1411
G01 X6.9067 Y25.2173
G01 X6.9680 Y25.3000
G01 X7.0209 Y25.3882
G01 X7.0649 Y25.4813
G01 X7.0995 Y25.5782
G01 X7.1245 Y25.6780
G01 X7.1391 Y25.7751
G01 X7.1399 Y25.7822
G00 Z1.0000
G00 X10.0911 Y25.9056
G01 F60.00
G01 Z-0.0800
G01 F60.00
G01 X10.0910 Y25.9127
G01 X10.0860 Y26.0108
G01 X10.0709 Y26.1126
G01 X10.0459 Y26.2124
G01 X10.0113 Y26.3093
G01 X9.9673 Y26.4024
G01 X9.9144 Y26.4906
G01 X9.8531 Y26.5733
G01 X9.7839 Y26.6495
G01 X9.7077 Y26.7187
G01 X9.6250 Y26.7800
G01 X9.5368 Y26.8329
G01 X9.4437 Y26.8769
G01 X9.3468 Y26.9115
G01 X9.2470 Y26.9365
G01 X9.1452 Y26.9516
G01 X9.0424 Y26.9567
G01 X8.9396 Y26.9516
G01 X8.8378 Y26.9365
G01 X8.7380 Y26.9115
G01 X8.6411 Y26.8769
G01 X8.5480 Y26.8329
G01 X8.4598 Y26.7800
G01 X8.3771 Y26.7187
G01 X8.3009 Y26.6495
G01 X8.2317 Y26.5733
G01 X8.1704 Y26.4906
G01 X8.1175 Y26.4024
G01 X8.0735 Y26.3093
G01 X8.0389 Y26.2124
G01 X8.0139 Y26.1126
G01 X7.9988 Y26.0108
G01 X7.9937 Y25.9080
G01 X7.9988 Y25.8052
G01 X8.0139 Y25.7034
G01 X8.0389 Y25.6036
G01 X8.0735 Y25.5067
G01 X8.1175 Y25.4136
G01 X8.1704 Y25.3254
G01 X8.2317 Y25.2427
G01 X8.3009 Y25.1665
G01 X8.3771 Y25.0973
G01 X8.4598 Y25.0360
G01 X8.5480 Y24.9831
G01 X8.6411 Y24.9391
G01 X8.7380 Y24.9045
G01 X8.8378 Y24.8795
G01 X8.9396 Y24.8644
G01 X9.0424 Y24.8593
G01 X9.1452 Y24.8644
G01 X9.2470 Y24.8795
G01 X9.3468 Y24.9045
G01 X9.4437 Y24.9391
G01 X9.5368 Y24.9831
G01 X9.6250 Y25.0360
G01 X9.7077 Y25.0973
G01 X9.7839 Y25.1665
G01 X9.8531 Y25.2427
G01 X9.9144 Y25.3254
G01 X9.9673 Y25.4136
G01 X10.0113 Y25.5067
G01 X10.0459 Y25.6036
G01 X10.0709 Y25.7034
G01 X10.0860 Y25.8052
G01 X10.0911 Y25.9056
G00 Z1.0000
G00 X10.1969 Y25.9030
G01 F60.00
G01 Z-0.0800
G01 F60.00
G01 X10.1967 Y25.9179
G01 X10.1914 Y26.0212
G01 X10.1747 Y26.1332
G01 X10.1472 Y26.2431
G01 X10.1090 Y26.3498
G01 X10.0606 Y26.4522
G01 X10.0023 Y26.5494
G01 X9.9349 Y26.6404
G01 X9.8588 Y26.7244
G01 X9.7748 Y26.8005
G01 X9.6838 Y26.8679
G01 X9.5866 Y26.9262
G01 X9.4842 Y26.9746
G01 X9.3775 Y27.0128
G01 X9.2676 Y27.0403
G01 X9.1556 Y27.0570
G01 X9.0424 Y27.0625
G01 X8.9292 Y27.0570
G01 X8.8172 Y27.0403
G01 X8.7073 Y27.0128
G01 X8.6006 Y26.9746
G01 X8.4982 Y26.9262
G01 X8.4010 Y26.8679
G01 X8.3100 Y26.8005
G01 X8.2260 Y26.7244
G01 X8.1499 Y26.6404
G01 X8.0825 Y26.5494
G01 X8.0242 Y26.4522
G01 X7.9758 Y26.3498
G01 X7.9376 Y26.2431
G01 X7.9101 Y26.1332
G01 X7.8934 Y26.0212
G01 X7.8879 Y25.9080
G01 X7.8934 Y25.7948
G01 X7.9101 Y25.6828
G01 X7.9376 Y25.5729
G01 X7.9758 Y25.4662
G01 X8.0242 Y25.3638
G01 X8.0825 Y25.2666
G01 X8.1499 Y25.1756
G01 X8.2260 Y25.0916
G01 X8.3100 Y25.0155
G01 X8.4010 Y24.9481
G01 X8.4982 Y24.8898
G01 X8.6006 Y24.8414
G01 X8.7073 Y24.8032
G01 X8.8172 Y24.7757
G01 X8.9292 Y24.7590
G01 X9.0424 Y24.7535
G01 X9.1556 Y24.7590
G01 X9.2676 Y24.7757
G01 X9.3775 Y24.8032
G01 X9.4842 Y24.8414
G01 X9.5866 Y24.8898
G01 X9.6838 Y24.9481
G01 X9.7748 Y25.0155
G01 X9.8588 Y25.0916
G01 X9.9349 Y25.1756
G01 X10.0023 Y25.2666
G01 X10.0606 Y25.3638
G01 X10.1090 Y25.4662
G01 X10.1472 Y25.5729
G01 X10.1747 Y25.6828
G01 X10.1914 Y25.7948
G01 X10.1969 Y25.9030
G00 Z1.0000
G00 X7.9607 Y29.0593
G01 F60.00
G01 Z-0.0800
G01 F60.00
G01 X7.9756 Y29.0588
G01 X10.0634 Y29.0588
G01 X10.0831 Y29.0603
G01 X10.1027 Y29.0637
G01 X10.1218 Y29.0690
G01 X10.1403 Y29.0761
G01 X10.1536 Y29.0826
G01 X10.1623 Y29.0875
G01 X10.1787 Y29.0985
G01 X10.1941 Y29.1111
G01 X10.2081 Y29.1251
G01 X10.2207 Y29.1405
G01 X10.2317 Y29.1569
G01 X10.2388 Y29.1700
G01 X10.2469 Y29.1881
G01 X10.2531 Y29.2069
G01 X10.2565 Y29.2214
G01 X10.2589 Y29.2361
G01 X10.2604 Y29.2558
G01 X10.2604 Y31.3436
G01 X10.2594 Y31.3634
G01 X10.2582 Y31.3732
G01 X10.2555 Y31.3879
G01 X10.2502 Y31.4070
G01 X10.2431 Y31.4255
G01 X10.2388 Y31.4344
G01 X10.2317 Y31.4475
G01 X10.2207 Y31.4639
G01 X10.2081 Y31.4793
G01 X10.1941 Y31.4933
G01 X10.1787 Y31.5059
G01 X10.1665 Y31.5143
G01 X10.1492 Y31.5240
G01 X10.1311 Y31.5321
G01 X10.1123 Y31.5383
G01 X10.0978 Y31.5417
G01 X10.0782 Y31.5446
G01 X10.0634 Y31.5456
G01 X7.9756 Y31.5456
G01 X7.9558 Y31.5446
G01 X7.9362 Y31.5417
G01 X7.9217 Y31.5383
G01 X7.9122 Y31.5354
G01 X7.8937 Y31.5283
G01 X7.8760 Y31.5194
G01 X7.8593 Y31.5088
G01 X7.8436 Y31.4966
G01 X7.8363 Y31.4899
G01 X7.8259 Y31.4793
G01 X7.8133 Y31.4639
G01 X7.8049 Y31.4517
G01 X7.7952 Y31.4344
G01 X7.7871 Y31.4163
G01 X7.7809 Y31.3975
G01 X7.7775 Y31.3830
G01 X7.7751 Y31.3683
G01 X7.7736 Y31.3486
G01 X7.7738 Y29.2509
G01 X7.7751 Y29.2361
G01 X7.7785 Y29.2165
G01 X7.7823 Y29.2022
G01 X7.7890 Y29.1835
G01 X7.7974 Y29.1656
G01 X7.8049 Y29.1527
G01 X7.8163 Y29.1365
G01 X7.8293 Y29.1215
G01 X7.8399 Y29.1111
G01 X7.8553 Y29.0985
G01 X7.8717 Y29.0875
G01 X7.8892 Y29.0782
G01 X7.9029 Y29.0723
G01 X7.9217 Y29.0661
G01 X7.9411 Y29.0618
G01 X7.9607 Y29.0593
G00 Z1.0000
G00 X7.9685 Y29.1649
G01 F60.00
G01 Z-0.0800
G01 F60.00
G01 X7.9756 Y29.1646
G01 X10.0608 Y29.1646
G01 X10.0702 Y29.1653
G01 X10.0795 Y29.1669
G01 X10.0886 Y29.1695
G01 X10.0974 Y29.1729
G01 X10.1058 Y29.1771
G01 X10.1138 Y29.1822
G01 X10.1212 Y29.1880
G01 X10.1281 Y29.1945
G01 X10.1342 Y29.2016
G01 X10.1384 Y29.2074
G01 X10.1432 Y29.2155
G01 X10.1473 Y29.2240
G01 X10.1505 Y29.2329
G01 X10.1527 Y29.2420
G01 X10.1541 Y29.2514
G01 X10.1546 Y29.2584
G01 X10.1546 Y31.3436
G01 X10.1541 Y31.3530
G01 X10.1523 Y31.3647
G01 X10.1497 Y31.3738
G01 X10.1463 Y31.3826
G01 X10.1421 Y31.3910
G01 X10.1370 Y31.3990
G01 X10.1312 Y31.4064
G01 X10.1247 Y31.4133
G01 X10.1176 Y31.4194
G01 X10.1118 Y31.4236
G01 X10.1037 Y31.4284
G01 X10.0952 Y31.4325
G01 X10.0863 Y31.4357
G01 X10.0772 Y31.4379
G01 X10.0678 Y31.4393
G01 X10.0608 Y31.4398
G01 X7.9756 Y31.4398
G01 X7.9662 Y31.4393
G01 X7.9568 Y31.4379
G01 X7.9477 Y31.4357
G01 X7.9388 Y31.4325
G01 X7.9282 Y31.4273
G01 X7.9202 Y31.4222
G01 X7.9128 Y31.4164
G01 X7.9059 Y31.4099
G01 X7.9012 Y31.4046
G01 X7.8956 Y31.3970
G01 X7.8908 Y31.3889
G01 X7.8867 Y31.3804
G01 X7.8835 Y31.3715
G01 X7.8813 Y31.3624
G01 X7.8799 Y31.3530
G01 X7.8794 Y31.3460
G01 X7.8794 Y29.2584
G01 X7.8801 Y29.2490
G01 X7.8813 Y29.2420
G01 X7.8835 Y29.2329
G01 X7.8867 Y29.2240
G01 X7.8897 Y29.2175
G01 X7.8943 Y29.2093
G01 X7.8998 Y29.2016
G01 X7.9059 Y29.1945
G01 X7.9110 Y29.1895
G01 X7.9183 Y29.1835
G01 X7.9261 Y29.1783
G01 X7.9345 Y29.1738
G01 X7.9432 Y29.1702
G01 X7.9522 Y29.1675
G01 X7.9592 Y29.1660
G01 X7.9685 Y29.1649
G00 Z1.0000
G00 X3.2554 Y28.6636
G01 F60.00
G01 Z-0.0800
G01 F60.00
G01 X3.2648 Y28.6645
G01 X3.3318 Y28.6744
G01 X4.0595 Y27.5756
G01 X4.0655 Y27.5667
G01 X4.0976 Y27.5235
G01 X4.1089 Y27.5097
G01 X4.1452 Y27.4699
G01 X4.1527 Y27.4623
G01 X4.1944 Y27.4245
G01 X4.2044 Y27.4162
G01 X4.2535 Y27.3799
G01 X4.2624 Y27.3740
G01 X4.3107 Y27.3452
G01 X4.3222 Y27.3391
G01 X4.3710 Y27.3161
G01 X4.3874 Y27.3093
G01 X4.4382 Y27.2913
G01 X4.4484 Y27.2882
G01 X4.5053 Y27.2739
G01 X4.5181 Y27.2714
G01 X4.5737 Y27.2633
G01 X4.5844 Y27.2622
G01 X4.6405 Y27.2594
G01 X4.6536 Y27.2593
G01 X11.3084 Y27.3101
G01 X11.3577 Y27.3122
G01 X11.3799 Y27.3143
G01 X11.4311 Y27.3218
G01 X11.4483 Y27.3252
G01 X11.4711 Y27.3311
G01 X11.4940 Y27.3364
G01 X11.5154 Y27.3428
G01 X11.5641 Y27.3602
G01 X11.5803 Y27.3669
G01 X11.6015 Y27.3771
G01 X11.6229 Y27.3868
G01 X11.6427 Y27.3972
G01 X11.6627 Y27.4094
G01 X11.6831 Y27.4212
G01 X11.7017 Y27.4335
G01 X11.7433 Y27.4642
G01 X11.7569 Y27.4753
G01 X11.7742 Y27.4912
G01 X11.7919 Y27.5068
G01 X11.8077 Y27.5224
G01 X11.8234 Y27.5400
G01 X11.8395 Y27.5571
G01 X11.8522 Y27.5724
G01 X11.8819 Y27.6119
G01 X11.8944 Y27.6304
G01 X11.9063 Y27.6506
G01 X11.9187 Y27.6706
G01 X11.9282 Y27.6881
G01 X11.9506 Y27.7348
G01 X11.9583 Y27.7532
G01 X11.9660 Y27.7754
G01 X11.9743 Y27.7974
G01 X11.9809 Y27.8187
G01 X11.9935 Y27.8688
G01 X11.9970 Y27.8861
G01 X12.0003 Y27.9093
G01 X12.0041 Y27.9325
G01 X12.1356 Y29.0668
G01 X17.8677 Y23.6364
G01 X17.8947 Y23.6129
G01 X17.9053 Y23.6044
G01 X17.9305 Y23.5863
G01 X17.9459 Y23.5763
G01 X17.9727 Y23.5607
G01 X17.9890 Y23.5523
G01 X18.0172 Y23.5394
G01 X18.0320 Y23.5334
G01 X18.0681 Y23.5212
G01 X18.0812 Y23.5175
G01 X18.1137 Y23.5099
G01 X18.1294 Y23.5070
G01 X18.1602 Y23.5029
G01 X18.1784 Y23.5013
G01 X18.2118 Y23.5002
G01 X20.9042 Y23.5002
G01 X20.9204 Y23.5005
G01 X20.9511 Y23.5024
G01 X20.9719 Y23.5048
G01 X21.0046 Y23.5103
G01 X21.0204 Y23.5138
G01 X21.0479 Y23.5212
G01 X21.0678 Y23.5276
G01 X21.0988 Y23.5394
G01 X21.1136 Y23.5459
G01 X21.1391 Y23.5585
G01 X21.1554 Y23.5674
G01 X21.1855 Y23.5863
G01 X21.1987 Y23.5955
G01 X21.2213 Y23.6129
G01 X21.2373 Y23.6264
G01 X21.2614 Y23.6492
G01 X21.2726 Y23.6608
G01 X21.2914 Y23.6822
G01 X21.3043 Y23.6986
G01 X21.3209 Y23.7217
G01 X21.3298 Y23.7353
G01 X21.3476 Y23.7660
G01 X21.3550 Y23.7804
G01 X22.1654 Y25.4213
G01 X22.2031 Y25.4234
G01 X22.3049 Y25.4387
G01 X22.4024 Y25.4633
G01 X22.4949 Y25.4962
G01 X22.5015 Y25.4989
G01 X22.5924 Y25.5419
G01 X22.6806 Y25.5948
G01 X22.7633 Y25.6561
G01 X22.8379 Y25.7236
G01 X22.8428 Y25.7287
G01 X22.9087 Y25.8015
G01 X22.9672 Y25.8803
G01 X22.9725 Y25.8882
G01 X23.0205 Y25.9683
G01 X23.0250 Y25.9767
G01 X23.0669 Y26.0655
G01 X23.1015 Y26.1624
G01 X23.1265 Y26.2622
G01 X23.1414 Y26.3617
G01 X23.1420 Y26.3687
G01 X23.1467 Y26.4668
G01 X23.1420 Y26.5649
G01 X23.1411 Y26.5743
G01 X23.1265 Y26.6714
G01 X23.1028 Y26.7667
G01 X23.1001 Y26.7757
G01 X23.0669 Y26.8681
G01 X23.0250 Y26.9569
G01 X23.0205 Y26.9653
G01 X22.9700 Y27.0494
G01 X22.9116 Y27.1284
G01 X22.9056 Y27.1357
G01 X22.8395 Y27.2083
G01 X22.7669 Y27.2744
G01 X22.7596 Y27.2804
G01 X22.6806 Y27.3388
G01 X22.5965 Y27.3893
G01 X22.5881 Y27.3938
G01 X22.4993 Y27.4357
G01 X22.4069 Y27.4689
G01 X22.3979 Y27.4716
G01 X22.3026 Y27.4953
G01 X22.2055 Y27.5099
G01 X22.1961 Y27.5108
G01 X22.0980 Y27.5155
G01 X21.9999 Y27.5108
G01 X21.9905 Y27.5099
G01 X21.8934 Y27.4953
G01 X21.7981 Y27.4716
G01 X21.7891 Y27.4689
G01 X21.6989 Y27.4365
G01 X21.6924 Y27.4338
G01 X21.6036 Y27.3917
G01 X21.5154 Y27.3388
G01 X21.4327 Y27.2775
G01 X21.3565 Y27.2083
G01 X21.2873 Y27.1321
G01 X21.2260 Y27.0494
G01 X21.1731 Y26.9612
G01 X21.1310 Y26.8724
G01 X21.1283 Y26.8659
G01 X21.0959 Y26.7757
G01 X21.0932 Y26.7667
G01 X21.0695 Y26.6714
G01 X21.0549 Y26.5743
G01 X21.0540 Y26.5649
G01 X21.0493 Y26.4668
G01 X21.0540 Y26.3687
G01 X21.0546 Y26.3617
G01 X21.0686 Y26.2669
G01 X21.0705 Y26.2576
G01 X21.0945 Y26.1624
G01 X21.1283 Y26.0677
G01 X21.1710 Y25.9767
G01 X21.1743 Y25.9704
G01 X21.2248 Y25.8862
G01 X21.2538 Y25.8465
G01 X20.5917 Y24.5058
G01 X18.4122 Y24.5058
G01 X12.6448 Y29.9696
G01 X12.6469 Y29.9765
G01 X12.6727 Y30.0803
G01 X12.6891 Y30.1907
G01 X12.6946 Y30.3022
G01 X12.6895 Y30.4090
G01 X12.6885 Y30.4184
G01 X12.6727 Y30.5241
G01 X12.6469 Y30.6279
G01 X12.6441 Y30.6369
G01 X12.6097 Y30.7331
G01 X12.6061 Y30.7419
G01 X12.5603 Y30.8385
G01 X12.5029 Y30.9342
G01 X12.4364 Y31.0239
G01 X12.3614 Y31.1066
G01 X12.2787 Y31.1816
G01 X12.1929 Y31.2454
G01 X12.1850 Y31.2506
G01 X12.0933 Y31.3055
G01 X11.9967 Y31.3513
G01 X11.9879 Y31.3549
G01 X11.8917 Y31.3893
G01 X11.8827 Y31.3921
G01 X11.7789 Y31.4179
G01 X11.6709 Y31.4341
G01 X11.6638 Y31.4347
G01 X11.5570 Y31.4398
G01 X11.4502 Y31.4347
G01 X11.4408 Y31.4337
G01 X11.3397 Y31.4187
G01 X11.3305 Y31.4169
G01 X11.2268 Y31.3908
G01 X11.1217 Y31.3532
G01 X11.0207 Y31.3055
G01 X10.9290 Y31.2506
G01 X10.9211 Y31.2454
G01 X10.8390 Y31.1845
G01 X10.8317 Y31.1785
G01 X10.7526 Y31.1066
G01 X10.6776 Y31.0239
G01 X10.6111 Y30.9342
G01 X10.5561 Y30.8426
G01 X10.5516 Y30.8342
G01 X10.5079 Y30.7419
G01 X10.5043 Y30.7331
G01 X10.4684 Y30.6324
G01 X10.4423 Y30.5287
G01 X10.4405 Y30.5195
G01 X10.4249 Y30.4137
G01 X10.4194 Y30.3022
G01 X10.4245 Y30.1954
G01 X10.4255 Y30.1860
G01 X10.4413 Y30.0803
G01 X10.4671 Y29.9765
G01 X10.4699 Y29.9675
G01 X10.5060 Y29.8669
G01 X10.5537 Y29.7659
G01 X10.6111 Y29.6702
G01 X10.6747 Y29.5842
G01 X10.6807 Y29.5769
G01 X10.7493 Y29.5012
G01 X10.7543 Y29.4961
G01 X10.7629 Y29.4883
G01 X10.6735 Y28.7175
G01 X5.0256 Y28.6744
G01 X4.5084 Y29.4555
G01 X4.5517 Y29.5283
G01 X4.6178 Y29.6679
G01 X4.6206 Y29.6744
G01 X4.6741 Y29.8243
G01 X4.7129 Y29.9787
G01 X4.7365 Y30.1362
G01 X4.7374 Y30.1456
G01 X4.7450 Y30.3022
G01 X4.7373 Y30.4612
G01 X4.7142 Y30.6187
G01 X4.7123 Y30.6280
G01 X4.6741 Y30.7801
G01 X4.6197 Y30.9322
G01 X4.5527 Y31.0740
G01 X4.5483 Y31.0823
G01 X4.4676 Y31.2168
G01 X4.3742 Y31.3428
G01 X4.3682 Y31.3501
G01 X4.2661 Y31.4628
G01 X4.2594 Y31.4695
G01 X4.1431 Y31.5747
G01 X4.0134 Y31.6710
G01 X3.8789 Y31.7517
G01 X3.8706 Y31.7561
G01 X3.7288 Y31.8231
G01 X3.5767 Y31.8775
G01 X3.4200 Y31.9168
G01 X3.2648 Y31.9399
G01 X3.2554 Y31.9408
G01 X3.0988 Y31.9484
G01 X2.9374 Y31.9405
G01 X2.7823 Y31.9176
G01 X2.7730 Y31.9157
G01 X2.6187 Y31.8768
G01 X2.4688 Y31.8231
G01 X2.3228 Y31.7540
G01 X2.1842 Y31.6710
G01 X2.0545 Y31.5747
G01 X1.9348 Y31.4662
G01 X1.8263 Y31.3465
G01 X1.7300 Y31.2168
G01 X1.6493 Y31.0823
G01 X1.6449 Y31.0740
G01 X1.5798 Y30.9365
G01 X1.5762 Y30.9278
G01 X1.5235 Y30.7801
G01 X1.4853 Y30.6280
G01 X1.4834 Y30.6187
G01 X1.4605 Y30.4636
G01 X1.4526 Y30.3022
G01 X1.4605 Y30.1408
G01 X1.4842 Y29.9810
G01 X1.5235 Y29.8243
G01 X1.5779 Y29.6722
G01 X1.6470 Y29.5262
G01 X1.7275 Y29.3916
G01 X1.7328 Y29.3838
G01 X1.8263 Y29.2579
G01 X1.9315 Y29.1416
G01 X1.9382 Y29.1349
G01 X2.0509 Y29.0328
G01 X2.0582 Y29.0268
G01 X2.1842 Y28.9334
G01 X2.3228 Y28.8504
G01 X2.4688 Y28.7813
G01 X2.6209 Y28.7269
G01 X2.7776 Y28.6876
G01 X2.9374 Y28.6639
G01 X3.0988 Y28.6560
G01 X3.2554 Y28.6636
G00 Z1.0000
G00 X3.2606 Y28.5579
G01 F60.00
G01 Z-0.0800
G01 F60.00
G01 X3.2705 Y28.5586
G01 X3.2808 Y28.5599
G01 X3.9712 Y27.5171
G01 X3.9794 Y27.5051
G01 X4.0124 Y27.4608
G01 X4.0277 Y27.4418
G01 X4.0682 Y27.3972
G01 X4.0785 Y27.3869
G01 X4.1230 Y27.3464
G01 X4.1379 Y27.3339
G01 X4.1943 Y27.2922
G01 X4.2065 Y27.2842
G01 X4.2581 Y27.2534
G01 X4.2754 Y27.2442
G01 X4.3253 Y27.2206
G01 X4.3432 Y27.2129
G01 X4.3525 Y27.2094
G01 X4.4046 Y27.1909
G01 X4.4184 Y27.1867
G01 X4.4816 Y27.1708
G01 X4.5008 Y27.1670
G01 X4.5603 Y27.1583
G01 X4.5748 Y27.1568
G01 X4.6349 Y27.1538
G01 X4.6544 Y27.1535
G01 X11.3142 Y27.2044
G01 X11.3637 Y27.2066
G01 X11.3736 Y27.2074
G01 X11.3937 Y27.2094
G01 X11.4427 Y27.2164
G01 X11.4723 Y27.2222
G01 X11.5205 Y27.2340
G01 X11.5300 Y27.2367
G01 X11.5493 Y27.2426
G01 X11.5961 Y27.2591
G01 X11.6240 Y27.2705
G01 X11.6689 Y27.2914
G01 X11.6777 Y27.2960
G01 X11.6955 Y27.3055
G01 X11.7382 Y27.3308
G01 X11.7633 Y27.3474
G01 X11.8033 Y27.3768
G01 X11.8110 Y27.3829
G01 X11.8266 Y27.3957
G01 X11.8635 Y27.4289
G01 X11.8849 Y27.4501
G01 X11.9184 Y27.4866
G01 X11.9248 Y27.4942
G01 X11.9376 Y27.5098
G01 X11.9673 Y27.5495
G01 X11.9842 Y27.5745
G01 X12.0123 Y27.6212
G01 X12.0242 Y27.6434
G01 X12.0476 Y27.6926
G01 X12.0573 Y27.7158
G01 X12.0742 Y27.7624
G01 X12.0831 Y27.7912
G01 X12.0954 Y27.8393
G01 X12.1014 Y27.8688
G01 X12.1095 Y27.9227
G01 X12.2164 Y28.8445
G01 X17.7969 Y23.5578
G01 X17.8219 Y23.5357
G01 X17.8385 Y23.5223
G01 X17.8696 Y23.4998
G01 X17.8778 Y23.4942
G01 X17.8917 Y23.4854
G01 X17.9249 Y23.4662
G01 X17.9440 Y23.4565
G01 X17.9743 Y23.4427
G01 X17.9988 Y23.4329
G01 X18.0304 Y23.4221
G01 X18.0557 Y23.4148
G01 X18.0882 Y23.4071
G01 X18.1092 Y23.4031
G01 X18.1521 Y23.3973
G01 X18.1735 Y23.3956
G01 X18.2118 Y23.3944
G01 X20.9042 Y23.3944
G01 X20.9238 Y23.3947
G01 X20.9639 Y23.3973
G01 X20.9882 Y23.4002
G01 X21.0278 Y23.4071
G01 X21.0469 Y23.4114
G01 X21.0761 Y23.4192
G01 X21.0995 Y23.4266
G01 X21.1371 Y23.4407
G01 X21.1596 Y23.4506
G01 X21.1867 Y23.4640
G01 X21.2082 Y23.4758
G01 X21.2423 Y23.4970
G01 X21.2624 Y23.5110
G01 X21.2864 Y23.5294
G01 X21.3015 Y23.5420
G01 X21.3089 Y23.5485
G01 X21.3346 Y23.5726
G01 X21.3515 Y23.5904
G01 X21.3715 Y23.6131
G01 X21.3898 Y23.6362
G01 X21.4130 Y23.6690
G01 X21.4234 Y23.6856
G01 X21.4386 Y23.7118
G01 X21.4499 Y23.7335
G01 X22.2338 Y25.3210
G01 X22.3232 Y25.3345
G01 X22.4331 Y25.3620
G01 X22.5398 Y25.4002
G01 X22.6334 Y25.4441
G01 X22.6509 Y25.4535
G01 X22.7310 Y25.5015
G01 X22.7475 Y25.5126
G01 X22.8304 Y25.5743
G01 X22.9144 Y25.6504
G01 X22.9905 Y25.7344
G01 X23.0522 Y25.8173
G01 X23.0633 Y25.8338
G01 X23.1113 Y25.9139
G01 X23.1207 Y25.9314
G01 X23.1646 Y26.0250
G01 X23.2028 Y26.1317
G01 X23.2303 Y26.2416
G01 X23.2470 Y26.3536
G01 X23.2523 Y26.4569
G01 X23.2523 Y26.4767
G01 X23.2470 Y26.5800
G01 X23.2320 Y26.6823
G01 X23.2282 Y26.7017
G01 X23.2028 Y26.8019
G01 X23.1646 Y26.9086
G01 X23.1207 Y27.0022
G01 X23.1113 Y27.0197
G01 X23.0579 Y27.1082
G01 X22.9966 Y27.1914
G01 X22.9840 Y27.2067
G01 X22.9144 Y27.2832
G01 X22.8379 Y27.3528
G01 X22.8226 Y27.3654
G01 X22.7394 Y27.4267
G01 X22.6509 Y27.4801
G01 X22.6334 Y27.4895
G01 X22.5398 Y27.5334
G01 X22.4426 Y27.5685
G01 X22.4236 Y27.5742
G01 X22.3232 Y27.5991
G01 X22.2210 Y27.6145
G01 X22.2013 Y27.6165
G01 X22.0980 Y27.6213
G01 X21.9947 Y27.6165
G01 X21.9750 Y27.6145
G01 X21.8825 Y27.6008
G01 X21.8631 Y27.5970
G01 X21.7629 Y27.5716
G01 X21.6654 Y27.5370
G01 X21.6471 Y27.5294
G01 X21.5538 Y27.4850
G01 X21.4566 Y27.4267
G01 X21.3656 Y27.3593
G01 X21.2816 Y27.2832
G01 X21.2055 Y27.1992
G01 X21.1381 Y27.1082
G01 X21.0798 Y27.0110
G01 X21.0354 Y26.9177
G01 X21.0295 Y26.9040
G01 X20.9963 Y26.8114
G01 X20.9906 Y26.7924
G01 X20.9657 Y26.6920
G01 X20.9503 Y26.5898
G01 X20.9483 Y26.5701
G01 X20.9435 Y26.4668
G01 X20.9490 Y26.3536
G01 X20.9657 Y26.2416
G01 X20.9906 Y26.1412
G01 X20.9963 Y26.1222
G01 X21.0278 Y26.0342
G01 X21.0354 Y26.0159
G01 X21.0798 Y25.9226
G01 X21.1310 Y25.8367
G01 X20.5260 Y24.6116
G01 X18.4543 Y24.6116
G01 X13.6843 Y29.1306
G01 X13.7266 Y29.1154
G01 X13.7408 Y29.1109
G01 X13.8496 Y29.0837
G01 X13.8642 Y29.0810
G01 X13.9702 Y29.0653
G01 X13.9850 Y29.0640
G01 X14.0970 Y29.0588
G01 X14.2139 Y29.0643
G01 X14.2287 Y29.0660
G01 X14.3396 Y29.0827
G01 X14.4579 Y29.1123
G01 X14.5728 Y29.1534
G01 X14.6743 Y29.2011
G01 X14.6875 Y29.2080
G01 X14.7878 Y29.2683
G01 X14.8780 Y29.3349
G01 X14.8933 Y29.3475
G01 X14.9690 Y29.4161
G01 X14.9831 Y29.4302
G01 X15.0582 Y29.5134
G01 X15.1252 Y29.6033
G01 X15.1362 Y29.6198
G01 X15.1936 Y29.7161
G01 X15.2458 Y29.8264
G01 X15.2869 Y29.9413
G01 X15.3155 Y30.0548
G01 X15.3182 Y30.0694
G01 X15.3344 Y30.1803
G01 X15.3404 Y30.3022
G01 X15.3344 Y30.4241
G01 X15.3165 Y30.5448
G01 X15.2869 Y30.6631
G01 X15.2458 Y30.7780
G01 X15.1936 Y30.8883
G01 X15.1362 Y30.9846
G01 X15.1252 Y31.0011
G01 X15.0582 Y31.0910
G01 X14.9831 Y31.1742
G01 X14.9690 Y31.1883
G01 X14.8933 Y31.2569
G01 X14.8780 Y31.2695
G01 X14.7878 Y31.3361
G01 X14.6918 Y31.3939
G01 X14.6743 Y31.4033
G01 X14.5728 Y31.4510
G01 X14.4579 Y31.4921
G01 X14.3396 Y31.5217
G01 X14.2189 Y31.5396
G01 X14.1069 Y31.5454
G01 X14.0871 Y31.5454
G01 X13.9751 Y31.5396
G01 X13.8642 Y31.5234
G01 X13.8447 Y31.5196
G01 X13.7361 Y31.4921
G01 X13.6212 Y31.4510
G01 X13.5197 Y31.4033
G01 X13.5022 Y31.3939
G01 X13.4062 Y31.3361
G01 X13.3160 Y31.2695
G01 X13.3007 Y31.2569
G01 X13.2178 Y31.1814
G01 X13.1423 Y31.0985
G01 X13.1297 Y31.0832
G01 X13.0631 Y30.9930
G01 X13.0053 Y30.8970
G01 X12.9959 Y30.8795
G01 X12.9482 Y30.7780
G01 X12.9102 Y30.6726
G01 X12.9045 Y30.6536
G01 X12.8775 Y30.5448
G01 X12.8608 Y30.4339
G01 X12.8588 Y30.4142
G01 X12.8536 Y30.3022
G01 X12.8588 Y30.1902
G01 X12.8608 Y30.1705
G01 X12.8775 Y30.0596
G01 X12.9045 Y29.9508
G01 X12.9102 Y29.9318
G01 X12.9472 Y29.8289
G01 X12.7628 Y30.0036
G01 X12.7744 Y30.0499
G01 X12.7774 Y30.0645
G01 X12.7932 Y30.1705
G01 X12.7949 Y30.1853
G01 X12.8004 Y30.3022
G01 X12.7949 Y30.4191
G01 X12.7932 Y30.4339
G01 X12.7765 Y30.5448
G01 X12.7495 Y30.6536
G01 X12.7438 Y30.6726
G01 X12.7093 Y30.7688
G01 X12.7017 Y30.7871
G01 X12.6536 Y30.8883
G01 X12.5962 Y30.9846
G01 X12.5852 Y31.0011
G01 X12.5182 Y31.0910
G01 X12.4431 Y31.1742
G01 X12.4290 Y31.1883
G01 X12.3458 Y31.2634
G01 X12.2478 Y31.3361
G01 X12.1518 Y31.3939
G01 X12.1343 Y31.4033
G01 X12.0328 Y31.4510
G01 X11.9179 Y31.4921
G01 X11.7996 Y31.5217
G01 X11.6887 Y31.5384
G01 X11.6690 Y31.5404
G01 X11.5669 Y31.5454
G01 X11.5471 Y31.5454
G01 X11.4351 Y31.5396
G01 X11.3144 Y31.5217
G01 X11.1961 Y31.4921
G01 X11.0904 Y31.4545
G01 X11.0721 Y31.4469
G01 X10.9797 Y31.4033
G01 X10.9622 Y31.3939
G01 X10.8662 Y31.3361
G01 X10.7760 Y31.2695
G01 X10.7607 Y31.2569
G01 X10.6778 Y31.1814
G01 X10.5958 Y31.0910
G01 X10.5231 Y30.9930
G01 X10.4604 Y30.8883
G01 X10.4082 Y30.7780
G01 X10.3671 Y30.6631
G01 X10.3375 Y30.5448
G01 X10.3208 Y30.4339
G01 X10.3191 Y30.4191
G01 X10.3136 Y30.3022
G01 X10.3196 Y30.1803
G01 X10.3375 Y30.0596
G01 X10.3645 Y29.9508
G01 X10.3686 Y29.9365
G01 X10.4082 Y29.8264
G01 X10.4559 Y29.7249
G01 X10.4653 Y29.7074
G01 X10.5178 Y29.6198
G01 X10.5288 Y29.6033
G01 X10.5958 Y29.5134
G01 X10.6520 Y29.4510
G01 X10.5791 Y28.8226
G01 X5.0822 Y28.7807
G01 X4.6334 Y29.4583
G01 X4.6415 Y29.4720
G01 X4.6484 Y29.4852
G01 X4.7134 Y29.6227
G01 X4.7210 Y29.6410
G01 X4.7754 Y29.7936
G01 X4.8171 Y29.9604
G01 X4.8424 Y30.1305
G01 X4.8506 Y30.2923
G01 X4.8506 Y30.3121
G01 X4.8424 Y30.4739
G01 X4.8188 Y30.6342
G01 X4.8150 Y30.6537
G01 X4.7754 Y30.8108
G01 X4.7175 Y30.9727
G01 X4.6484 Y31.1192
G01 X4.6391 Y31.1367
G01 X4.5555 Y31.2756
G01 X4.4562 Y31.4098
G01 X4.4466 Y31.4212
G01 X4.3445 Y31.5339
G01 X4.3305 Y31.5479
G01 X4.2103 Y31.6565
G01 X4.0722 Y31.7589
G01 X3.9333 Y31.8425
G01 X3.9158 Y31.8518
G01 X3.7693 Y31.9209
G01 X3.6074 Y31.9788
G01 X3.4406 Y32.0205
G01 X3.2804 Y32.0446
G01 X3.2606 Y32.0465
G01 X3.0988 Y32.0542
G01 X2.9370 Y32.0465
G01 X2.9172 Y32.0446
G01 X2.7570 Y32.0205
G01 X2.5950 Y31.9802
G01 X2.5808 Y31.9757
G01 X2.4283 Y31.9209
G01 X2.2729 Y31.8473
G01 X2.1254 Y31.7589
G01 X1.9952 Y31.6626
G01 X1.9798 Y31.6500
G01 X1.8599 Y31.5411
G01 X1.7510 Y31.4212
G01 X1.7384 Y31.4058
G01 X1.6478 Y31.2837
G01 X1.6367 Y31.2672
G01 X1.5537 Y31.1281
G01 X1.4801 Y30.9727
G01 X1.4222 Y30.8108
G01 X1.3805 Y30.6440
G01 X1.3552 Y30.4739
G01 X1.3468 Y30.3022
G01 X1.3552 Y30.1305
G01 X1.3805 Y29.9604
G01 X1.4222 Y29.7936
G01 X1.4801 Y29.6317
G01 X1.5537 Y29.4763
G01 X1.6367 Y29.3372
G01 X1.6478 Y29.3207
G01 X1.7384 Y29.1986
G01 X1.7510 Y29.1832
G01 X1.8599 Y29.0633
G01 X1.9798 Y28.9544
G01 X1.9952 Y28.9418
G01 X2.1254 Y28.8455
G01 X2.2729 Y28.7571
G01 X2.4283 Y28.6835
G01 X2.5902 Y28.6256
G01 X2.7570 Y28.5839
G01 X2.9271 Y28.5586
G01 X3.0988 Y28.5502
G01 X3.2606 Y28.5579
G00 Z1.0000
G00 X15.2295 Y30.1954
G01 F60.00
G01 Z-0.0800
G01 F60.00
G01 X15.2346 Y30.3022
G01 X15.2291 Y30.4137
G01 X15.2127 Y30.5241
G01 X15.1856 Y30.6324
G01 X15.1480 Y30.7375
G01 X15.1003 Y30.8385
G01 X15.0429 Y30.9342
G01 X14.9764 Y31.0239
G01 X14.9014 Y31.1066
G01 X14.8187 Y31.1816
G01 X14.7290 Y31.2481
G01 X14.6333 Y31.3055
G01 X14.5323 Y31.3532
G01 X14.4272 Y31.3908
G01 X14.3189 Y31.4179
G01 X14.2085 Y31.4343
G01 X14.0970 Y31.4398
G01 X13.9855 Y31.4343
G01 X13.8751 Y31.4179
G01 X13.7668 Y31.3908
G01 X13.6617 Y31.3532
G01 X13.5607 Y31.3055
G01 X13.4650 Y31.2481
G01 X13.3753 Y31.1816
G01 X13.2926 Y31.1066
G01 X13.2176 Y31.0239
G01 X13.1511 Y30.9342
G01 X13.0937 Y30.8385
G01 X13.0460 Y30.7375
G01 X13.0084 Y30.6324
G01 X12.9813 Y30.5241
G01 X12.9649 Y30.4137
G01 X12.9594 Y30.3022
G01 X12.9649 Y30.1907
G01 X12.9813 Y30.0803
G01 X13.0084 Y29.9720
G01 X13.0460 Y29.8669
G01 X13.0937 Y29.7659
G01 X13.1511 Y29.6702
G01 X13.2176 Y29.5805
G01 X13.2926 Y29.4978
G01 X13.3753 Y29.4228
G01 X13.4650 Y29.3563
G01 X13.5607 Y29.2989
G01 X13.6617 Y29.2512
G01 X13.7668 Y29.2136
G01 X13.8751 Y29.1865
G01 X13.9855 Y29.1701
G01 X14.0970 Y29.1646
G01 X14.2085 Y29.1701
G01 X14.3189 Y29.1865
G01 X14.4272 Y29.2136
G01 X14.5323 Y29.2512
G01 X14.6333 Y29.2989
G01 X14.7290 Y29.3563
G01 X14.8187 Y29.4228
G01 X14.9014 Y29.4978
G01 X14.9764 Y29.5805
G01 X15.0429 Y29.6702
G01 X15.1003 Y29.7659
G01 X15.1480 Y29.8669
G01 X15.1856 Y29.9720
G01 X15.2127 Y30.0803
G01 X15.2285 Y30.1860
G01 X15.2295 Y30.1954
G00 Z1.0000
G00 X21.7375 Y30.2975
G01 F60.00
G01 Z-0.0800
G01 F60.00
G01 X21.7375 Y30.3069
G01 X21.7297 Y30.4636
G01 X21.7060 Y30.6234
G01 X21.6667 Y30.7801
G01 X21.6123 Y30.9322
G01 X21.5432 Y31.0782
G01 X21.4602 Y31.2168
G01 X21.3639 Y31.3465
G01 X21.2554 Y31.4662
G01 X21.1357 Y31.5747
G01 X21.0060 Y31.6710
G01 X20.8674 Y31.7540
G01 X20.7214 Y31.8231
G01 X20.5693 Y31.8775
G01 X20.4126 Y31.9168
G01 X20.2528 Y31.9405
G01 X20.0914 Y31.9484
G01 X19.9300 Y31.9405
G01 X19.7702 Y31.9168
G01 X19.6135 Y31.8775
G01 X19.4614 Y31.8231
G01 X19.3154 Y31.7540
G01 X19.1768 Y31.6710
G01 X19.0471 Y31.5747
G01 X18.9274 Y31.4662
G01 X18.8189 Y31.3465
G01 X18.7226 Y31.2168
G01 X18.6396 Y31.0782
G01 X18.5705 Y30.9322
G01 X18.5161 Y30.7801
G01 X18.4768 Y30.6234
G01 X18.4531 Y30.4636
G01 X18.4452 Y30.3022
G01 X18.4531 Y30.1408
G01 X18.4768 Y29.9810
G01 X18.5161 Y29.8243
G01 X18.5705 Y29.6722
G01 X18.6396 Y29.5262
G01 X18.7226 Y29.3876
G01 X18.8189 Y29.2579
G01 X18.9274 Y29.1382
G01 X19.0471 Y29.0297
G01 X19.1768 Y28.9334
G01 X19.3154 Y28.8504
G01 X19.4614 Y28.7813
G01 X19.6135 Y28.7269
G01 X19.7702 Y28.6876
G01 X19.9300 Y28.6639
G01 X20.0914 Y28.6560
G01 X20.2528 Y28.6639
G01 X20.4126 Y28.6876
G01 X20.5693 Y28.7269
G01 X20.7214 Y28.7813
G01 X20.8674 Y28.8504
G01 X21.0060 Y28.9334
G01 X21.1357 Y29.0297
G01 X21.2554 Y29.1382
G01 X21.3639 Y29.2579
G01 X21.4602 Y29.3876
G01 X21.5432 Y29.5262
G01 X21.6123 Y29.6722
G01 X21.6667 Y29.8243
G01 X21.7060 Y29.9810
G01 X21.7297 Y30.1408
G01 X21.7375 Y30.2975
G00 Z1.0000
G00 X21.8432 Y30.2923
G01 F60.00
G01 Z-0.0800
G01 F60.00
G01 X21.8432 Y30.3121
G01 X21.8350 Y30.4739
G01 X21.8097 Y30.6440
G01 X21.7680 Y30.8108
G01 X21.7101 Y30.9727
G01 X21.6365 Y31.1281
G01 X21.5481 Y31.2756
G01 X21.4457 Y31.4137
G01 X21.3303 Y31.5411
G01 X21.2029 Y31.6565
G01 X21.0648 Y31.7589
G01 X20.9173 Y31.8473
G01 X20.7619 Y31.9209
G01 X20.6000 Y31.9788
G01 X20.4332 Y32.0205
G01 X20.2631 Y32.0458
G01 X20.0914 Y32.0542
G01 X19.9197 Y32.0458
G01 X19.7496 Y32.0205
G01 X19.5828 Y31.9788
G01 X19.4209 Y31.9209
G01 X19.2655 Y31.8473
G01 X19.1180 Y31.7589
G01 X18.9799 Y31.6565
G01 X18.8525 Y31.5411
G01 X18.7371 Y31.4137
G01 X18.6347 Y31.2756
G01 X18.5463 Y31.1281
G01 X18.4727 Y30.9727
G01 X18.4148 Y30.8108
G01 X18.3731 Y30.6440
G01 X18.3478 Y30.4739
G01 X18.3394 Y30.3022
G01 X18.3478 Y30.1305
G01 X18.3731 Y29.9604
G01 X18.4148 Y29.7936
G01 X18.4727 Y29.6317
G01 X18.5463 Y29.4763
G01 X18.6347 Y29.3288
G01 X18.7371 Y29.1907
G01 X18.8525 Y29.0633
G01 X18.9799 Y28.9479
G01 X19.1180 Y28.8455
G01 X19.2655 Y28.7571
G01 X19.4209 Y28.6835
G01 X19.5828 Y28.6256
G01 X19.7496 Y28.5839
G01 X19.9197 Y28.5586
G01 X20.0914 Y28.5502
G01 X20.2631 Y28.5586
G01 X20.4332 Y28.5839
G01 X20.6000 Y28.6256
G01 X20.7619 Y28.6835
G01 X20.9173 Y28.7571
G01 X21.0648 Y28.8455
G01 X21.2029 Y28.9479
G01 X21.3303 Y29.0633
G01 X21.4457 Y29.1907
G01 X21.5481 Y29.3288
G01 X21.6365 Y29.4763
G01 X21.7101 Y29.6317
G01 X21.7680 Y29.7936
G01 X21.8097 Y29.9604
G01 X21.8350 Y30.1305
G01 X21.8432 Y30.2923
G00 Z1.0000
G00 X20.3521 Y25.8047
G01 F60.00
G01 Z-0.0800
G01 F60.00
G01 X20.3569 Y25.9080
G01 X20.3514 Y26.0212
G01 X20.3347 Y26.1332
G01 X20.3072 Y26.2431
G01 X20.2690 Y26.3498
G01 X20.2206 Y26.4522
G01 X20.1623 Y26.5494
G01 X20.0949 Y26.6404
G01 X20.0188 Y26.7244
G01 X19.9348 Y26.8005
G01 X19.8438 Y26.8679
G01 X19.7466 Y26.9262
G01 X19.6442 Y26.9746
G01 X19.5375 Y27.0128
G01 X19.4276 Y27.0403
G01 X19.3156 Y27.0570
G01 X19.2024 Y27.0625
G01 X19.0892 Y27.0570
G01 X18.9772 Y27.0403
G01 X18.8673 Y27.0128
G01 X18.7606 Y26.9746
G01 X18.6582 Y26.9262
G01 X18.5610 Y26.8679
G01 X18.4700 Y26.8005
G01 X18.3860 Y26.7244
G01 X18.3099 Y26.6404
G01 X18.2425 Y26.5494
G01 X18.1842 Y26.4522
G01 X18.1358 Y26.3498
G01 X18.0976 Y26.2431
G01 X18.0701 Y26.1332
G01 X18.0534 Y26.0212
G01 X18.0479 Y25.9080
G01 X18.0534 Y25.7948
G01 X18.0701 Y25.6828
G01 X18.0976 Y25.5729
G01 X18.1358 Y25.4662
G01 X18.1842 Y25.3638
G01 X18.2425 Y25.2666
G01 X18.3099 Y25.1756
G01 X18.3860 Y25.0916
G01 X18.4700 Y25.0155
G01 X18.5610 Y24.9481
G01 X18.6582 Y24.8898
G01 X18.7606 Y24.8414
G01 X18.8673 Y24.8032
G01 X18.9772 Y24.7757
G01 X19.0892 Y24.7590
G01 X19.2024 Y24.7535
G01 X19.3156 Y24.7590
G01 X19.4276 Y24.7757
G01 X19.5375 Y24.8032
G01 X19.6442 Y24.8414
G01 X19.7466 Y24.8898
G01 X19.8438 Y24.9481
G01 X19.9348 Y25.0155
G01 X20.0188 Y25.0916
G01 X20.0949 Y25.1756
G01 X20.1623 Y25.2666
G01 X20.2206 Y25.3638
G01 X20.2690 Y25.4662
G01 X20.3072 Y25.5729
G01 X20.3347 Y25.6828
G01 X20.3501 Y25.7850
G01 X20.3521 Y25.8047
G00 Z1.0000
G00 X20.2464 Y25.8099
G01 F60.00
G01 Z-0.0800
G01 F60.00
G01 X20.2511 Y25.9080
G01 X20.2460 Y26.0108
G01 X20.2309 Y26.1126
G01 X20.2059 Y26.2124
G01 X20.1713 Y26.3093
G01 X20.1273 Y26.4024
G01 X20.0744 Y26.4906
G01 X20.0131 Y26.5733
G01 X19.9439 Y26.6495
G01 X19.8677 Y26.7187
G01 X19.7850 Y26.7800
G01 X19.6968 Y26.8329
G01 X19.6037 Y26.8769
G01 X19.5068 Y26.9115
G01 X19.4070 Y26.9365
G01 X19.3052 Y26.9516
G01 X19.2024 Y26.9567
G01 X19.0996 Y26.9516
G01 X18.9978 Y26.9365
G01 X18.8980 Y26.9115
G01 X18.8011 Y26.8769
G01 X18.7080 Y26.8329
G01 X18.6198 Y26.7800
G01 X18.5371 Y26.7187
G01 X18.4609 Y26.6495
G01 X18.3917 Y26.5733
G01 X18.3304 Y26.4906
G01 X18.2775 Y26.4024
G01 X18.2335 Y26.3093
G01 X18.1989 Y26.2124
G01 X18.1739 Y26.1126
G01 X18.1588 Y26.0108
G01 X18.1537 Y25.9080
G01 X18.1588 Y25.8052
G01 X18.1739 Y25.7034
G01 X18.1989 Y25.6036
G01 X18.2335 Y25.5067
G01 X18.2775 Y25.4136
G01 X18.3304 Y25.3254
G01 X18.3917 Y25.2427
G01 X18.4609 Y25.1665
G01 X18.5371 Y25.0973
G01 X18.6198 Y25.0360
G01 X18.7080 Y24.9831
G01 X18.8011 Y24.9391
G01 X18.8980 Y24.9045
G01 X18.9978 Y24.8795
G01 X19.0996 Y24.8644
G01 X19.2024 Y24.8593
G01 X19.3052 Y24.8644
G01 X19.4070 Y24.8795
G01 X19.5068 Y24.9045
G01 X19.6037 Y24.9391
G01 X19.6968 Y24.9831
G01 X19.7850 Y25.0360
G01 X19.8677 Y25.0973
G01 X19.9439 Y25.1665
G01 X20.0131 Y25.2427
G01 X20.0744 Y25.3254
G01 X20.1273 Y25.4136
G01 X20.1713 Y25.5067
G01 X20.2059 Y25.6036
G01 X20.2309 Y25.7034
G01 X20.2455 Y25.8005
G01 X20.2464 Y25.8099
G00 Z1.0000
G00 X16.5389 Y21.8090
G01 F60.00
G01 Z-0.0800
G01 F60.00
G01 X16.5483 Y21.8133
G01 X18.0370 Y20.5537
G01 X15.9601 Y20.0134
G01 X15.9291 Y20.0472
G01 X15.8526 Y20.1161
G01 X15.7718 Y20.1760
G01 X15.6877 Y20.2265
G01 X15.6815 Y20.2300
G01 X15.5905 Y20.2729
G01 X15.4936 Y20.3075
G01 X15.3938 Y20.3325
G01 X15.2943 Y20.3474
G01 X15.2873 Y20.3480
G01 X15.1892 Y20.3527
G01 X15.0911 Y20.3480
G01 X15.0817 Y20.3471
G01 X14.9893 Y20.3334
G01 X14.9800 Y20.3315
G01 X14.8848 Y20.3075
G01 X14.7879 Y20.2729
G01 X14.6948 Y20.2289
G01 X14.6086 Y20.1772
G01 X14.6027 Y20.1732
G01 X14.5239 Y20.1147
G01 X14.4511 Y20.0488
G01 X14.4444 Y20.0421
G01 X14.3785 Y19.9693
G01 X14.3200 Y19.8905
G01 X14.3147 Y19.8826
G01 X14.2643 Y19.7984
G01 X14.2222 Y19.7096
G01 X14.2186 Y19.7009
G01 X14.1857 Y19.6084
G01 X14.1617 Y19.5132
G01 X14.1598 Y19.5039
G01 X14.1456 Y19.4068
G01 X14.1406 Y19.3087
G01 X14.1406 Y19.2993
G01 X14.1456 Y19.2012
G01 X14.1598 Y19.1041
G01 X14.1617 Y19.0948
G01 X14.1857 Y18.9996
G01 X14.2186 Y18.9071
G01 X14.2222 Y18.8984
G01 X14.2643 Y18.8096
G01 X14.3147 Y18.7254
G01 X14.3200 Y18.7175
G01 X14.3785 Y18.6387
G01 X14.4444 Y18.5659
G01 X14.4511 Y18.5592
G01 X14.5239 Y18.4933
G01 X14.6027 Y18.4348
G01 X14.6106 Y18.4295
G01 X14.6928 Y18.3803
G01 X14.6991 Y18.3770
G01 X14.7879 Y18.3351
G01 X14.8848 Y18.3005
G01 X14.9846 Y18.2755
G01 X15.0864 Y18.2604
G01 X15.1892 Y18.2553
G01 X15.2920 Y18.2604
G01 X15.3938 Y18.2755
G01 X15.4891 Y18.2992
G01 X15.4959 Y18.3012
G01 X15.5861 Y18.3334
G01 X15.5948 Y18.3370
G01 X15.6836 Y18.3791
G01 X15.7678 Y18.4295
G01 X15.7757 Y18.4348
G01 X15.8545 Y18.4933
G01 X15.9273 Y18.5592
G01 X15.9324 Y18.5641
G01 X15.9999 Y18.6387
G01 X16.0584 Y18.7175
G01 X16.0637 Y18.7254
G01 X16.1129 Y18.8076
G01 X16.1562 Y18.8984
G01 X16.1589 Y18.9049
G01 X16.1920 Y18.9973
G01 X16.2023 Y19.0373
G01 X18.3951 Y19.6078
G01 X18.4025 Y19.5997
G01 X18.4076 Y19.5947
G01 X18.4758 Y19.5330
G01 X18.5496 Y19.4782
G01 X18.5574 Y19.4729
G01 X18.6364 Y19.4257
G01 X18.7195 Y19.3863
G01 X18.7282 Y19.3827
G01 X18.8103 Y19.3533
G01 X18.8194 Y19.3506
G01 X18.9086 Y19.3283
G01 X18.9995 Y19.3147
G01 X19.0089 Y19.3138
G01 X19.1008 Y19.3094
G01 X19.1927 Y19.3138
G01 X19.2021 Y19.3147
G01 X19.2930 Y19.3283
G01 X19.3845 Y19.3512
G01 X19.3913 Y19.3533
G01 X19.4778 Y19.3844
G01 X19.5652 Y19.4257
G01 X19.6481 Y19.4754
G01 X19.7258 Y19.5330
G01 X19.7974 Y19.5980
G01 X19.8624 Y19.6696
G01 X19.9200 Y19.7473
G01 X19.9685 Y19.8281
G01 X19.9718 Y19.8344
G01 X20.0110 Y19.9176
G01 X20.0421 Y20.0041
G01 X20.0448 Y20.0132
G01 X20.0660 Y20.0978
G01 X20.0679 Y20.1070
G01 X20.0813 Y20.1980
G01 X20.0860 Y20.2946
G01 X20.0813 Y20.3912
G01 X20.0679 Y20.4822
G01 X20.0660 Y20.4914
G01 X20.0448 Y20.5760
G01 X20.0421 Y20.5851
G01 X20.0110 Y20.6716
G01 X19.9697 Y20.7590
G01 X19.9200 Y20.8419
G01 X19.8653 Y20.9159
G01 X19.8593 Y20.9232
G01 X19.7957 Y20.9929
G01 X19.7258 Y21.0562
G01 X19.6520 Y21.1110
G01 X19.6442 Y21.1163
G01 X19.5652 Y21.1635
G01 X19.4821 Y21.2029
G01 X19.4734 Y21.2065
G01 X19.3868 Y21.2374
G01 X19.2953 Y21.2604
G01 X19.2021 Y21.2745
G01 X19.1927 Y21.2754
G01 X19.1008 Y21.2798
G01 X19.0089 Y21.2754
G01 X18.9995 Y21.2745
G01 X18.9086 Y21.2609
G01 X18.8171 Y21.2380
G01 X18.7943 Y21.2302
G01 X17.2039 Y22.5759
G01 X17.2198 Y22.6404
G01 X17.2359 Y22.7508
G01 X17.2412 Y22.8600
G01 X17.2359 Y22.9692
G01 X17.2201 Y23.0773
G01 X17.2183 Y23.0865
G01 X17.1922 Y23.1902
G01 X17.1555 Y23.2931
G01 X17.1090 Y23.3920
G01 X17.1045 Y23.4004
G01 X17.0495 Y23.4920
G01 X16.9830 Y23.5817
G01 X16.9113 Y23.6610
G01 X16.9046 Y23.6677
G01 X16.8253 Y23.7394
G01 X16.7376 Y23.8045
G01 X16.7316 Y23.8084
G01 X16.6399 Y23.8633
G01 X16.5433 Y23.9091
G01 X16.5345 Y23.9127
G01 X16.4338 Y23.9486
G01 X16.3301 Y23.9747
G01 X16.3209 Y23.9765
G01 X16.2151 Y23.9921
G01 X16.1083 Y23.9975
G01 X16.0989 Y23.9975
G01 X15.9921 Y23.9921
G01 X15.8863 Y23.9765
G01 X15.8771 Y23.9747
G01 X15.7734 Y23.9486
G01 X15.6683 Y23.9110
G01 X15.5673 Y23.8633
G01 X15.4716 Y23.8059
G01 X15.3819 Y23.7394
G01 X15.2992 Y23.6644
G01 X15.2242 Y23.5817
G01 X15.1577 Y23.4920
G01 X15.1003 Y23.3963
G01 X15.0526 Y23.2953
G01 X15.0150 Y23.1902
G01 X14.9879 Y23.0819
G01 X14.9715 Y22.9715
G01 X14.9660 Y22.8600
G01 X14.9715 Y22.7485
G01 X14.9879 Y22.6381
G01 X15.0150 Y22.5298
G01 X15.0526 Y22.4247
G01 X15.1003 Y22.3237
G01 X15.1577 Y22.2280
G01 X15.2242 Y22.1383
G01 X15.2992 Y22.0556
G01 X15.3819 Y21.9806
G01 X15.4716 Y21.9141
G01 X15.5673 Y21.8567
G01 X15.6683 Y21.8090
G01 X15.7734 Y21.7714
G01 X15.8817 Y21.7443
G01 X15.9921 Y21.7279
G01 X16.1036 Y21.7224
G01 X16.2151 Y21.7279
G01 X16.3255 Y21.7443
G01 X16.4338 Y21.7714
G01 X16.5389 Y21.8090
G00 Z1.0000
G00 X16.4645 Y21.6701
G01 F60.00
G01 Z-0.0800
G01 F60.00
G01 X16.5274 Y21.6924
G01 X17.8129 Y20.6047
G01 X15.9937 Y20.1314
G01 X15.9216 Y20.1965
G01 X15.8306 Y20.2639
G01 X15.7334 Y20.3222
G01 X15.6401 Y20.3666
G01 X15.6218 Y20.3742
G01 X15.5338 Y20.4057
G01 X15.5148 Y20.4114
G01 X15.4144 Y20.4363
G01 X15.3024 Y20.4530
G01 X15.1892 Y20.4585
G01 X15.0760 Y20.4530
G01 X14.9640 Y20.4363
G01 X14.8636 Y20.4114
G01 X14.8446 Y20.4057
G01 X14.7566 Y20.3742
G01 X14.7383 Y20.3666
G01 X14.6450 Y20.3222
G01 X14.5562 Y20.2693
G01 X14.5397 Y20.2582
G01 X14.4568 Y20.1965
G01 X14.3800 Y20.1272
G01 X14.3660 Y20.1132
G01 X14.2967 Y20.0364
G01 X14.2350 Y19.9535
G01 X14.2239 Y19.9370
G01 X14.1710 Y19.8482
G01 X14.1266 Y19.7549
G01 X14.1190 Y19.7366
G01 X14.0844 Y19.6391
G01 X14.0590 Y19.5389
G01 X14.0552 Y19.5195
G01 X14.0415 Y19.4270
G01 X14.0395 Y19.4073
G01 X14.0347 Y19.3040
G01 X14.0395 Y19.2007
G01 X14.0415 Y19.1810
G01 X14.0569 Y19.0788
G01 X14.0818 Y18.9784
G01 X14.0875 Y18.9594
G01 X14.1226 Y18.8622
G01 X14.1665 Y18.7686
G01 X14.1759 Y18.7511
G01 X14.2293 Y18.6626
G01 X14.2906 Y18.5794
G01 X14.3032 Y18.5641
G01 X14.3728 Y18.4876
G01 X14.4493 Y18.4180
G01 X14.4646 Y18.4054
G01 X14.5478 Y18.3441
G01 X14.6450 Y18.2858
G01 X14.7474 Y18.2374
G01 X14.8541 Y18.1992
G01 X14.9640 Y18.1717
G01 X15.0760 Y18.1550
G01 X15.1892 Y18.1495
G01 X15.3024 Y18.1550
G01 X15.4144 Y18.1717
G01 X15.5148 Y18.1966
G01 X15.5291 Y18.2007
G01 X15.6218 Y18.2338
G01 X15.6401 Y18.2414
G01 X15.7334 Y18.2858
G01 X15.8222 Y18.3387
G01 X15.8387 Y18.3498
G01 X15.9216 Y18.4115
G01 X16.0056 Y18.4876
G01 X16.0817 Y18.5716
G01 X16.1434 Y18.6545
G01 X16.1545 Y18.6710
G01 X16.2025 Y18.7511
G01 X16.2119 Y18.7686
G01 X16.2558 Y18.8622
G01 X16.2876 Y18.9501
G01 X18.3649 Y19.4906
G01 X18.4012 Y19.4577
G01 X18.4125 Y19.4481
G01 X18.4906 Y19.3903
G01 X18.5030 Y19.3821
G01 X18.5779 Y19.3373
G01 X18.5909 Y19.3301
G01 X18.6833 Y19.2866
G01 X18.7747 Y19.2537
G01 X18.7937 Y19.2479
G01 X18.8831 Y19.2256
G01 X18.8977 Y19.2229
G01 X18.9939 Y19.2088
G01 X19.0909 Y19.2038
G01 X19.1107 Y19.2038
G01 X19.2077 Y19.2088
G01 X19.3039 Y19.2229
G01 X19.3233 Y19.2267
G01 X19.4127 Y19.2492
G01 X19.4269 Y19.2537
G01 X19.5183 Y19.2866
G01 X19.6151 Y19.3324
G01 X19.7069 Y19.3875
G01 X19.7929 Y19.4512
G01 X19.8723 Y19.5231
G01 X19.9442 Y19.6025
G01 X20.0079 Y19.6885
G01 X20.0630 Y19.7803
G01 X20.1088 Y19.8771
G01 X20.1417 Y19.9685
G01 X20.1475 Y19.9875
G01 X20.1687 Y20.0721
G01 X20.1725 Y20.0915
G01 X20.1866 Y20.1877
G01 X20.1918 Y20.2946
G01 X20.1866 Y20.4015
G01 X20.1725 Y20.4977
G01 X20.1687 Y20.5171
G01 X20.1475 Y20.6017
G01 X20.1417 Y20.6207
G01 X20.1088 Y20.7121
G01 X20.0630 Y20.8089
G01 X20.0079 Y20.9007
G01 X19.9503 Y20.9789
G01 X19.9377 Y20.9942
G01 X19.8723 Y21.0661
G01 X19.8004 Y21.1315
G01 X19.7851 Y21.1441
G01 X19.7069 Y21.2017
G01 X19.6237 Y21.2519
G01 X19.6062 Y21.2612
G01 X19.5183 Y21.3026
G01 X19.4269 Y21.3355
G01 X19.4127 Y21.3400
G01 X19.3136 Y21.3647
G01 X19.2176 Y21.3792
G01 X19.1978 Y21.3811
G01 X19.1058 Y21.3856
G01 X19.0909 Y21.3854
G01 X19.0038 Y21.3811
G01 X18.9889 Y21.3798
G01 X18.8880 Y21.3647
G01 X18.8192 Y21.3477
G01 X17.3224 Y22.6142
G01 X17.3248 Y22.6272
G01 X17.3398 Y22.7283
G01 X17.3418 Y22.7480
G01 X17.3470 Y22.8600
G01 X17.3410 Y22.9819
G01 X17.3248 Y23.0928
G01 X17.3210 Y23.1123
G01 X17.2935 Y23.2209
G01 X17.2524 Y23.3358
G01 X17.2002 Y23.4461
G01 X17.1428 Y23.5424
G01 X17.1318 Y23.5589
G01 X17.0648 Y23.6488
G01 X16.9897 Y23.7320
G01 X16.9756 Y23.7461
G01 X16.8924 Y23.8212
G01 X16.7985 Y23.8911
G01 X16.7860 Y23.8992
G01 X16.6897 Y23.9566
G01 X16.5794 Y24.0088
G01 X16.4645 Y24.0499
G01 X16.3559 Y24.0774
G01 X16.3364 Y24.0812
G01 X16.2255 Y24.0974
G01 X16.1135 Y24.1032
G01 X16.0937 Y24.1032
G01 X15.9916 Y24.0982
G01 X15.9719 Y24.0962
G01 X15.8610 Y24.0795
G01 X15.7427 Y24.0499
G01 X15.6278 Y24.0088
G01 X15.5175 Y23.9566
G01 X15.4128 Y23.8939
G01 X15.3148 Y23.8212
G01 X15.2244 Y23.7392
G01 X15.1424 Y23.6488
G01 X15.0697 Y23.5508
G01 X15.0070 Y23.4461
G01 X14.9548 Y23.3358
G01 X14.9137 Y23.2209
G01 X14.8841 Y23.1026
G01 X14.8662 Y22.9819
G01 X14.8602 Y22.8600
G01 X14.8662 Y22.7381
G01 X14.8841 Y22.6174
G01 X14.9137 Y22.4991
G01 X14.9548 Y22.3842
G01 X15.0070 Y22.2739
G01 X15.0697 Y22.1692
G01 X15.1424 Y22.0712
G01 X15.2244 Y21.9808
G01 X15.3148 Y21.8988
G01 X15.4128 Y21.8261
G01 X15.5175 Y21.7634
G01 X15.6278 Y21.7112
G01 X15.7427 Y21.6701
G01 X15.8610 Y21.6405
G01 X15.9817 Y21.6226
G01 X16.1036 Y21.6166
G01 X16.2255 Y21.6226
G01 X16.3462 Y21.6405
G01 X16.4645 Y21.6701
G00 Z1.0000
G00 X13.7989 Y19.2007
G01 F60.00
G01 Z-0.0800
G01 F60.00
G01 X13.8037 Y19.3040
G01 X13.7982 Y19.4172
G01 X13.7815 Y19.5292
G01 X13.7540 Y19.6391
G01 X13.7158 Y19.7458
G01 X13.6674 Y19.8482
G01 X13.6091 Y19.9454
G01 X13.5417 Y20.0364
G01 X13.4656 Y20.1204
G01 X13.3816 Y20.1965
G01 X13.2906 Y20.2639
G01 X13.1934 Y20.3222
G01 X13.0910 Y20.3706
G01 X12.9843 Y20.4088
G01 X12.8744 Y20.4363
G01 X12.7624 Y20.4530
G01 X12.6492 Y20.4585
G01 X12.5360 Y20.4530
G01 X12.4240 Y20.4363
G01 X12.3141 Y20.4088
G01 X12.2074 Y20.3706
G01 X12.1050 Y20.3222
G01 X12.0078 Y20.2639
G01 X11.9168 Y20.1965
G01 X11.8328 Y20.1204
G01 X11.7567 Y20.0364
G01 X11.6893 Y19.9454
G01 X11.6310 Y19.8482
G01 X11.5826 Y19.7458
G01 X11.5444 Y19.6391
G01 X11.5169 Y19.5292
G01 X11.5002 Y19.4172
G01 X11.4947 Y19.3040
G01 X11.5002 Y19.1908
G01 X11.5169 Y19.0788
G01 X11.5444 Y18.9689
G01 X11.5826 Y18.8622
G01 X11.6310 Y18.7598
G01 X11.6893 Y18.6626
G01 X11.7567 Y18.5716
G01 X11.8328 Y18.4876
G01 X11.9168 Y18.4115
G01 X12.0078 Y18.3441
G01 X12.1050 Y18.2858
G01 X12.2074 Y18.2374
G01 X12.3141 Y18.1992
G01 X12.4240 Y18.1717
G01 X12.5360 Y18.1550
G01 X12.6492 Y18.1495
G01 X12.7624 Y18.1550
G01 X12.8744 Y18.1717
G01 X12.9843 Y18.1992
G01 X13.0910 Y18.2374
G01 X13.1934 Y18.2858
G01 X13.2906 Y18.3441
G01 X13.3816 Y18.4115
G01 X13.4656 Y18.4876
G01 X13.5417 Y18.5716
G01 X13.6091 Y18.6626
G01 X13.6674 Y18.7598
G01 X13.7158 Y18.8622
G01 X13.7540 Y18.9689
G01 X13.7815 Y19.0788
G01 X13.7969 Y19.1810
G01 X13.7989 Y19.2007
G00 Z1.0000
G00 X13.6932 Y19.2059
G01 F60.00
G01 Z-0.0800
G01 F60.00
G01 X13.6979 Y19.3040
G01 X13.6928 Y19.4068
G01 X13.6777 Y19.5086
G01 X13.6527 Y19.6084
G01 X13.6181 Y19.7053
G01 X13.5741 Y19.7984
G01 X13.5212 Y19.8866
G01 X13.4599 Y19.9693
G01 X13.3907 Y20.0455
G01 X13.3145 Y20.1147
G01 X13.2318 Y20.1760
G01 X13.1436 Y20.2289
G01 X13.0505 Y20.2729
G01 X12.9536 Y20.3075
G01 X12.8538 Y20.3325
G01 X12.7520 Y20.3476
G01 X12.6492 Y20.3527
G01 X12.5464 Y20.3476
G01 X12.4446 Y20.3325
G01 X12.3448 Y20.3075
G01 X12.2479 Y20.2729
G01 X12.1548 Y20.2289
G01 X12.0666 Y20.1760
G01 X11.9839 Y20.1147
G01 X11.9077 Y20.0455
G01 X11.8385 Y19.9693
G01 X11.7772 Y19.8866
G01 X11.7243 Y19.7984
G01 X11.6803 Y19.7053
G01 X11.6457 Y19.6084
G01 X11.6207 Y19.5086
G01 X11.6056 Y19.4068
G01 X11.6005 Y19.3040
G01 X11.6056 Y19.2012
G01 X11.6207 Y19.0994
G01 X11.6457 Y18.9996
G01 X11.6803 Y18.9027
G01 X11.7243 Y18.8096
G01 X11.7772 Y18.7214
G01 X11.8385 Y18.6387
G01 X11.9077 Y18.5625
G01 X11.9839 Y18.4933
G01 X12.0666 Y18.4320
G01 X12.1548 Y18.3791
G01 X12.2479 Y18.3351
G01 X12.3448 Y18.3005
G01 X12.4446 Y18.2755
G01 X12.5464 Y18.2604
G01 X12.6492 Y18.2553
G01 X12.7520 Y18.2604
G01 X12.8538 Y18.2755
G01 X12.9536 Y18.3005
G01 X13.0505 Y18.3351
G01 X13.1436 Y18.3791
G01 X13.2318 Y18.4320
G01 X13.3145 Y18.4933
G01 X13.3907 Y18.5625
G01 X13.4599 Y18.6387
G01 X13.5212 Y18.7214
G01 X13.5741 Y18.8096
G01 X13.6181 Y18.9027
G01 X13.6527 Y18.9996
G01 X13.6777 Y19.0994
G01 X13.6923 Y19.1965
G01 X13.6932 Y19.2059
G00 Z1.0000
G00 X11.2589 Y19.2007
G01 F60.00
G01 Z-0.0800
G01 F60.00
G01 X11.2637 Y19.3040
G01 X11.2582 Y19.4172
G01 X11.2415 Y19.5292
G01 X11.2140 Y19.6391
G01 X11.1758 Y19.7458
G01 X11.1274 Y19.8482
G01 X11.0691 Y19.9454
G01 X11.0017 Y20.0364
G01 X10.9256 Y20.1204
G01 X10.8416 Y20.1965
G01 X10.7506 Y20.2639
G01 X10.6534 Y20.3222
G01 X10.5510 Y20.3706
G01 X10.4443 Y20.4088
G01 X10.3344 Y20.4363
G01 X10.2224 Y20.4530
G01 X10.1092 Y20.4585
G01 X9.9960 Y20.4530
G01 X9.8840 Y20.4363
G01 X9.7741 Y20.4088
G01 X9.6674 Y20.3706
G01 X9.5650 Y20.3222
G01 X9.4678 Y20.2639
G01 X9.3768 Y20.1965
G01 X9.2928 Y20.1204
G01 X9.2167 Y20.0364
G01 X9.1493 Y19.9454
G01 X9.0910 Y19.8482
G01 X9.0426 Y19.7458
G01 X9.0044 Y19.6391
G01 X8.9769 Y19.5292
G01 X8.9602 Y19.4172
G01 X8.9547 Y19.3040
G01 X8.9602 Y19.1908
G01 X8.9769 Y19.0788
G01 X9.0044 Y18.9689
G01 X9.0426 Y18.8622
G01 X9.0910 Y18.7598
G01 X9.1493 Y18.6626
G01 X9.2167 Y18.5716
G01 X9.2928 Y18.4876
G01 X9.3768 Y18.4115
G01 X9.4678 Y18.3441
G01 X9.5650 Y18.2858
G01 X9.6674 Y18.2374
G01 X9.7741 Y18.1992
G01 X9.8840 Y18.1717
G01 X9.9960 Y18.1550
G01 X10.1092 Y18.1495
G01 X10.2224 Y18.1550
G01 X10.3344 Y18.1717
G01 X10.4443 Y18.1992
G01 X10.5510 Y18.2374
G01 X10.6534 Y18.2858
G01 X10.7506 Y18.3441
G01 X10.8416 Y18.4115
G01 X10.9256 Y18.4876
G01 X11.0017 Y18.5716
G01 X11.0691 Y18.6626
G01 X11.1274 Y18.7598
G01 X11.1758 Y18.8622
G01 X11.2140 Y18.9689
G01 X11.2415 Y19.0788
G01 X11.2569 Y19.1810
G01 X11.2589 Y19.2007
G00 Z1.0000
G00 X11.1532 Y19.2059
G01 F60.00
G01 Z-0.0800
G01 F60.00
G01 X11.1579 Y19.3040
G01 X11.1528 Y19.4068
G01 X11.1377 Y19.5086
G01 X11.1127 Y19.6084
G01 X11.0781 Y19.7053
G01 X11.0341 Y19.7984
G01 X10.9812 Y19.8866
G01 X10.9199 Y19.9693
G01 X10.8507 Y20.0455
G01 X10.7745 Y20.1147
G01 X10.6918 Y20.1760
G01 X10.6036 Y20.2289
G01 X10.5105 Y20.2729
G01 X10.4136 Y20.3075
G01 X10.3138 Y20.3325
G01 X10.2120 Y20.3476
G01 X10.1092 Y20.3527
G01 X10.0064 Y20.3476
G01 X9.9046 Y20.3325
G01 X9.8048 Y20.3075
G01 X9.7079 Y20.2729
G01 X9.6148 Y20.2289
G01 X9.5266 Y20.1760
G01 X9.4439 Y20.1147
G01 X9.3677 Y20.0455
G01 X9.2985 Y19.9693
G01 X9.2372 Y19.8866
G01 X9.1843 Y19.7984
G01 X9.1403 Y19.7053
G01 X9.1057 Y19.6084
G01 X9.0807 Y19.5086
G01 X9.0656 Y19.4068
G01 X9.0605 Y19.3040
G01 X9.0656 Y19.2012
G01 X9.0807 Y19.0994
G01 X9.1057 Y18.9996
G01 X9.1403 Y18.9027
G01 X9.1843 Y18.8096
G01 X9.2372 Y18.7214
G01 X9.2985 Y18.6387
G01 X9.3677 Y18.5625
G01 X9.4439 Y18.4933
G01 X9.5266 Y18.4320
G01 X9.6148 Y18.3791
G01 X9.7079 Y18.3351
G01 X9.8048 Y18.3005
G01 X9.9046 Y18.2755
G01 X10.0064 Y18.2604
G01 X10.1092 Y18.2553
G01 X10.2120 Y18.2604
G01 X10.3138 Y18.2755
G01 X10.4136 Y18.3005
G01 X10.5105 Y18.3351
G01 X10.6036 Y18.3791
G01 X10.6918 Y18.4320
G01 X10.7745 Y18.4933
G01 X10.8507 Y18.5625
G01 X10.9199 Y18.6387
G01 X10.9812 Y18.7214
G01 X11.0341 Y18.8096
G01 X11.0781 Y18.9027
G01 X11.1127 Y18.9996
G01 X11.1377 Y19.0994
G01 X11.1523 Y19.1965
G01 X11.1532 Y19.2059
G00 Z1.0000
G00 X15.1494 Y14.1115
G01 F60.00
G01 Z-0.0800
G01 F60.00
G01 X15.1409 Y14.0993
G01 X15.1237 Y14.0706
G01 X14.0863 Y14.0706
G01 X14.0690 Y14.0993
G01 X14.0635 Y14.1075
G01 X14.0050 Y14.1866
G01 X13.9957 Y14.1982
G01 X13.9228 Y14.2784
G01 X13.8426 Y14.3513
G01 X13.8310 Y14.3606
G01 X13.7559 Y14.4162
G01 X13.7394 Y14.4273
G01 X13.6506 Y14.4802
G01 X13.5573 Y14.5246
G01 X13.5436 Y14.5305
G01 X13.4415 Y14.5668
G01 X13.3316 Y14.5943
G01 X13.2196 Y14.6110
G01 X13.1163 Y14.6163
G01 X13.0965 Y14.6163
G01 X13.0031 Y14.6117
G01 X12.9834 Y14.6097
G01 X12.8812 Y14.5943
G01 X12.7713 Y14.5668
G01 X12.6646 Y14.5286
G01 X12.5622 Y14.4802
G01 X12.4650 Y14.4219
G01 X12.3740 Y14.3545
G01 X12.2900 Y14.2784
G01 X12.2139 Y14.1944
G01 X12.1465 Y14.1034
G01 X12.0882 Y14.0062
G01 X12.0398 Y13.9038
G01 X12.0016 Y13.7971
G01 X11.9741 Y13.6872
G01 X11.9574 Y13.5752
G01 X11.9519 Y13.4620
G01 X11.9574 Y13.3488
G01 X11.9741 Y13.2368
G01 X12.0016 Y13.1269
G01 X12.0362 Y13.0294
G01 X12.0438 Y13.0111
G01 X12.0882 Y12.9178
G01 X12.1465 Y12.8206
G01 X12.2078 Y12.7374
G01 X12.2204 Y12.7221
G01 X12.2900 Y12.6456
G01 X12.3740 Y12.5695
G01 X12.4650 Y12.5021
G01 X12.5535 Y12.4487
G01 X12.5710 Y12.4393
G01 X12.6646 Y12.3954
G01 X12.7713 Y12.3572
G01 X12.8715 Y12.3318
G01 X12.8909 Y12.3280
G01 X12.9834 Y12.3143
G01 X13.0031 Y12.3123
G01 X13.1064 Y12.3075
G01 X13.2097 Y12.3123
G01 X13.2294 Y12.3143
G01 X13.3316 Y12.3297
G01 X13.4320 Y12.3546
G01 X13.4510 Y12.3603
G01 X13.5482 Y12.3954
G01 X13.6462 Y12.4415
G01 X13.6593 Y12.4487
G01 X13.7394 Y12.4967
G01 X13.7559 Y12.5078
G01 X13.8388 Y12.5695
G01 X13.9192 Y12.6422
G01 X13.9296 Y12.6528
G01 X13.9924 Y12.7221
G01 X14.0020 Y12.7335
G01 X14.0635 Y12.8165
G01 X14.0691 Y12.8247
G01 X14.0863 Y12.8534
G01 X15.1237 Y12.8534
G01 X15.1410 Y12.8247
G01 X15.1465 Y12.8165
G01 X15.2080 Y12.7335
G01 X15.2176 Y12.7221
G01 X15.2804 Y12.6528
G01 X15.2908 Y12.6422
G01 X15.3637 Y12.5760
G01 X15.3790 Y12.5634
G01 X15.4622 Y12.5021
G01 X15.5550 Y12.4462
G01 X15.5682 Y12.4393
G01 X15.6618 Y12.3954
G01 X15.7590 Y12.3603
G01 X15.7780 Y12.3546
G01 X15.8784 Y12.3297
G01 X15.9806 Y12.3143
G01 X16.0003 Y12.3123
G01 X16.1036 Y12.3075
G01 X16.2168 Y12.3130
G01 X16.3191 Y12.3280
G01 X16.3385 Y12.3318
G01 X16.4387 Y12.3572
G01 X16.5362 Y12.3918
G01 X16.5545 Y12.3994
G01 X16.6478 Y12.4438
G01 X16.7450 Y12.5021
G01 X16.8282 Y12.5634
G01 X16.8435 Y12.5760
G01 X16.9200 Y12.6456
G01 X16.9896 Y12.7221
G01 X17.0022 Y12.7374
G01 X17.0635 Y12.8206
G01 X17.1218 Y12.9178
G01 X17.1702 Y13.0202
G01 X17.2084 Y13.1269
G01 X17.2359 Y13.2368
G01 X17.2526 Y13.3488
G01 X17.2581 Y13.4620
G01 X17.2526 Y13.5752
G01 X17.2359 Y13.6872
G01 X17.2084 Y13.7971
G01 X17.1702 Y13.9038
G01 X17.1218 Y14.0062
G01 X17.0635 Y14.1034
G01 X16.9961 Y14.1944
G01 X16.9200 Y14.2784
G01 X16.8360 Y14.3545
G01 X16.7450 Y14.4219
G01 X16.6478 Y14.4802
G01 X16.5454 Y14.5286
G01 X16.4387 Y14.5668
G01 X16.3288 Y14.5943
G01 X16.2168 Y14.6110
G01 X16.1036 Y14.6165
G01 X15.9904 Y14.6110
G01 X15.8784 Y14.5943
G01 X15.7685 Y14.5668
G01 X15.6618 Y14.5286
G01 X15.5594 Y14.4802
G01 X15.4622 Y14.4219
G01 X15.3712 Y14.3545
G01 X15.2872 Y14.2784
G01 X15.2111 Y14.1944
G01 X15.1494 Y14.1115
G00 Z1.0000
G00 X15.2344 Y14.0485
G01 F60.00
G01 Z-0.0800
G01 F60.00
G01 X15.2291 Y14.0406
G01 X15.1837 Y13.9648
G01 X14.0263 Y13.9648
G01 X13.9784 Y14.0446
G01 X13.9171 Y14.1273
G01 X13.8479 Y14.2035
G01 X13.7753 Y14.2696
G01 X13.7680 Y14.2756
G01 X13.6929 Y14.3312
G01 X13.6850 Y14.3365
G01 X13.6008 Y14.3869
G01 X13.5077 Y14.4309
G01 X13.4108 Y14.4655
G01 X13.3156 Y14.4895
G01 X13.3063 Y14.4914
G01 X13.2139 Y14.5051
G01 X13.2045 Y14.5060
G01 X13.1064 Y14.5107
G01 X13.0036 Y14.5056
G01 X12.9018 Y14.4905
G01 X12.8042 Y14.4662
G01 X12.7975 Y14.4641
G01 X12.7051 Y14.4309
G01 X12.6120 Y14.3869
G01 X12.5238 Y14.3340
G01 X12.4411 Y14.2727
G01 X12.3649 Y14.2035
G01 X12.2957 Y14.1273
G01 X12.2344 Y14.0446
G01 X12.1815 Y13.9564
G01 X12.1375 Y13.8633
G01 X12.1029 Y13.7664
G01 X12.0779 Y13.6666
G01 X12.0628 Y13.5648
G01 X12.0577 Y13.4620
G01 X12.0628 Y13.3592
G01 X12.0779 Y13.2574
G01 X12.1022 Y13.1598
G01 X12.1358 Y13.0651
G01 X12.1394 Y13.0564
G01 X12.1815 Y12.9676
G01 X12.2344 Y12.8794
G01 X12.2928 Y12.8004
G01 X12.2988 Y12.7931
G01 X12.3649 Y12.7205
G01 X12.4411 Y12.6513
G01 X12.5238 Y12.5900
G01 X12.6079 Y12.5395
G01 X12.6163 Y12.5350
G01 X12.7051 Y12.4931
G01 X12.8020 Y12.4585
G01 X12.8972 Y12.4345
G01 X12.9065 Y12.4326
G01 X12.9989 Y12.4189
G01 X13.0083 Y12.4180
G01 X13.1064 Y12.4133
G01 X13.2045 Y12.4180
G01 X13.2139 Y12.4189
G01 X13.3110 Y12.4335
G01 X13.4063 Y12.4572
G01 X13.4153 Y12.4599
G01 X13.5077 Y12.4931
G01 X13.6008 Y12.5371
G01 X13.6890 Y12.5900
G01 X13.7680 Y12.6484
G01 X13.7753 Y12.6544
G01 X13.8479 Y12.7205
G01 X13.9140 Y12.7931
G01 X13.9200 Y12.8004
G01 X13.9784 Y12.8794
G01 X14.0263 Y12.9592
G01 X15.1837 Y12.9592
G01 X15.2316 Y12.8794
G01 X15.2900 Y12.8004
G01 X15.2960 Y12.7931
G01 X15.3621 Y12.7205
G01 X15.4347 Y12.6544
G01 X15.4420 Y12.6484
G01 X15.5210 Y12.5900
G01 X15.6051 Y12.5395
G01 X15.6135 Y12.5350
G01 X15.7023 Y12.4931
G01 X15.7947 Y12.4599
G01 X15.8037 Y12.4572
G01 X15.8990 Y12.4335
G01 X15.9961 Y12.4189
G01 X16.0055 Y12.4180
G01 X16.1012 Y12.4133
G01 X16.1083 Y12.4134
G01 X16.2064 Y12.4184
G01 X16.3035 Y12.4326
G01 X16.3128 Y12.4345
G01 X16.4080 Y12.4585
G01 X16.5005 Y12.4914
G01 X16.5092 Y12.4950
G01 X16.5980 Y12.5371
G01 X16.6862 Y12.5900
G01 X16.7652 Y12.6484
G01 X16.7725 Y12.6544
G01 X16.8451 Y12.7205
G01 X16.9112 Y12.7931
G01 X16.9172 Y12.8004
G01 X16.9756 Y12.8794
G01 X17.0285 Y12.9676
G01 X17.0725 Y13.0607
G01 X17.1071 Y13.1576
G01 X17.1321 Y13.2574
G01 X17.1472 Y13.3592
G01 X17.1523 Y13.4620
G01 X17.1472 Y13.5648
G01 X17.1321 Y13.6666
G01 X17.1071 Y13.7664
G01 X17.0725 Y13.8633
G01 X17.0285 Y13.9564
G01 X16.9756 Y14.0446
G01 X16.9143 Y14.1273
G01 X16.8451 Y14.2035
G01 X16.7689 Y14.2727
G01 X16.6862 Y14.3340
G01 X16.5980 Y14.3869
G01 X16.5049 Y14.4309
G01 X16.4080 Y14.4655
G01 X16.3082 Y14.4905
G01 X16.2064 Y14.5056
G01 X16.1036 Y14.5107
G01 X16.0008 Y14.5056
G01 X15.8990 Y14.4905
G01 X15.7992 Y14.4655
G01 X15.7023 Y14.4309
G01 X15.6092 Y14.3869
G01 X15.5210 Y14.3340
G01 X15.4383 Y14.2727
G01 X15.3621 Y14.2035
G01 X15.2929 Y14.1273
G01 X15.2344 Y14.0485
G00 Z1.0000
G00 X20.1447 Y13.2092
G01 F60.00
G01 Z-0.0800
G01 F60.00
G01 X20.1495 Y13.3096
G01 X20.1444 Y13.4124
G01 X20.1293 Y13.5142
G01 X20.1043 Y13.6140
G01 X20.0697 Y13.7109
G01 X20.0257 Y13.8040
G01 X19.9728 Y13.8922
G01 X19.9115 Y13.9749
G01 X19.8423 Y14.0511
G01 X19.7661 Y14.1203
G01 X19.6834 Y14.1816
G01 X19.5952 Y14.2345
G01 X19.5021 Y14.2785
G01 X19.4052 Y14.3131
G01 X19.3054 Y14.3381
G01 X19.2036 Y14.3532
G01 X19.1008 Y14.3583
G01 X18.9980 Y14.3532
G01 X18.8962 Y14.3381
G01 X18.7964 Y14.3131
G01 X18.6995 Y14.2785
G01 X18.6064 Y14.2345
G01 X18.5182 Y14.1816
G01 X18.4355 Y14.1203
G01 X18.3593 Y14.0511
G01 X18.2901 Y13.9749
G01 X18.2288 Y13.8922
G01 X18.1759 Y13.8040
G01 X18.1319 Y13.7109
G01 X18.0973 Y13.6140
G01 X18.0723 Y13.5142
G01 X18.0572 Y13.4124
G01 X18.0521 Y13.3096
G01 X18.0572 Y13.2068
G01 X18.0723 Y13.1050
G01 X18.0973 Y13.0052
G01 X18.1319 Y12.9083
G01 X18.1759 Y12.8152
G01 X18.2288 Y12.7270
G01 X18.2901 Y12.6443
G01 X18.3593 Y12.5681
G01 X18.4355 Y12.4989
G01 X18.5182 Y12.4376
G01 X18.6064 Y12.3847
G01 X18.6995 Y12.3407
G01 X18.7964 Y12.3061
G01 X18.8962 Y12.2811
G01 X18.9980 Y12.2660
G01 X19.1008 Y12.2609
G01 X19.2036 Y12.2660
G01 X19.3054 Y12.2811
G01 X19.4052 Y12.3061
G01 X19.5021 Y12.3407
G01 X19.5952 Y12.3847
G01 X19.6834 Y12.4376
G01 X19.7661 Y12.4989
G01 X19.8423 Y12.5681
G01 X19.9115 Y12.6443
G01 X19.9728 Y12.7270
G01 X20.0257 Y12.8152
G01 X20.0697 Y12.9083
G01 X20.1043 Y13.0052
G01 X20.1293 Y13.1050
G01 X20.1439 Y13.2021
G01 X20.1447 Y13.2092
G00 Z1.0000
G00 X20.2502 Y13.2014
G01 F60.00
G01 Z-0.0800
G01 F60.00
G01 X20.2553 Y13.3096
G01 X20.2498 Y13.4228
G01 X20.2331 Y13.5348
G01 X20.2056 Y13.6447
G01 X20.1674 Y13.7514
G01 X20.1190 Y13.8538
G01 X20.0607 Y13.9510
G01 X19.9933 Y14.0420
G01 X19.9172 Y14.1260
G01 X19.8332 Y14.2021
G01 X19.7422 Y14.2695
G01 X19.6450 Y14.3278
G01 X19.5426 Y14.3762
G01 X19.4359 Y14.4144
G01 X19.3260 Y14.4419
G01 X19.2140 Y14.4586
G01 X19.1008 Y14.4641
G01 X18.9876 Y14.4586
G01 X18.8756 Y14.4419
G01 X18.7657 Y14.4144
G01 X18.6590 Y14.3762
G01 X18.5566 Y14.3278
G01 X18.4594 Y14.2695
G01 X18.3684 Y14.2021
G01 X18.2844 Y14.1260
G01 X18.2083 Y14.0420
G01 X18.1409 Y13.9510
G01 X18.0826 Y13.8538
G01 X18.0342 Y13.7514
G01 X17.9960 Y13.6447
G01 X17.9685 Y13.5348
G01 X17.9518 Y13.4228
G01 X17.9463 Y13.3096
G01 X17.9518 Y13.1964
G01 X17.9685 Y13.0844
G01 X17.9960 Y12.9745
G01 X18.0342 Y12.8678
G01 X18.0826 Y12.7654
G01 X18.1409 Y12.6682
G01 X18.2083 Y12.5772
G01 X18.2844 Y12.4932
G01 X18.3684 Y12.4171
G01 X18.4594 Y12.3497
G01 X18.5566 Y12.2914
G01 X18.6590 Y12.2430
G01 X18.7657 Y12.2048
G01 X18.8756 Y12.1773
G01 X18.9876 Y12.1606
G01 X19.1008 Y12.1551
G01 X19.2140 Y12.1606
G01 X19.3260 Y12.1773
G01 X19.4359 Y12.2048
G01 X19.5426 Y12.2430
G01 X19.6450 Y12.2914
G01 X19.7422 Y12.3497
G01 X19.8332 Y12.4171
G01 X19.9172 Y12.4932
G01 X19.9933 Y12.5772
G01 X20.0607 Y12.6682
G01 X20.1190 Y12.7654
G01 X20.1674 Y12.8678
G01 X20.2056 Y12.9745
G01 X20.2331 Y13.0844
G01 X20.2485 Y13.1866
G01 X20.2502 Y13.2014
G00 Z1.0000
G00 X21.3656 Y15.4143
G01 F60.00
G01 Z-0.0800
G01 F60.00
G01 X21.4392 Y15.3594
G01 X20.9452 Y5.2923
G01 X19.5289 Y4.2214
G01 X19.4359 Y4.2544
G01 X19.3357 Y4.2798
G01 X19.3163 Y4.2836
G01 X19.2140 Y4.2986
G01 X19.1107 Y4.3039
G01 X19.0909 Y4.3039
G01 X18.9876 Y4.2986
G01 X18.8853 Y4.2836
G01 X18.8659 Y4.2798
G01 X18.7752 Y4.2570
G01 X18.7562 Y4.2513
G01 X18.6590 Y4.2162
G01 X18.5654 Y4.1723
G01 X18.5479 Y4.1629
G01 X18.4594 Y4.1095
G01 X18.3762 Y4.0482
G01 X18.3609 Y4.0356
G01 X18.2844 Y3.9660
G01 X18.2083 Y3.8820
G01 X18.1409 Y3.7910
G01 X18.0875 Y3.7025
G01 X18.0781 Y3.6850
G01 X18.0382 Y3.6005
G01 X18.0306 Y3.5822
G01 X17.9960 Y3.4847
G01 X17.9706 Y3.3845
G01 X17.9668 Y3.3651
G01 X17.9531 Y3.2726
G01 X17.9511 Y3.2529
G01 X17.9463 Y3.1496
G01 X17.9518 Y3.0364
G01 X17.9668 Y2.9341
G01 X17.9706 Y2.9147
G01 X17.9960 Y2.8145
G01 X18.0323 Y2.7124
G01 X18.0382 Y2.6987
G01 X18.0826 Y2.6054
G01 X18.1409 Y2.5082
G01 X18.2083 Y2.4172
G01 X18.2844 Y2.3332
G01 X18.3684 Y2.2571
G01 X18.4594 Y2.1897
G01 X18.5566 Y2.1314
G01 X18.6590 Y2.0830
G01 X18.7657 Y2.0448
G01 X18.8756 Y2.0173
G01 X18.9876 Y2.0006
G01 X19.1008 Y1.9951
G01 X19.2140 Y2.0006
G01 X19.3260 Y2.0173
G01 X19.4359 Y2.0448
G01 X19.5334 Y2.0794
G01 X19.5472 Y2.0849
G01 X19.6450 Y2.1314
G01 X19.7338 Y2.1843
G01 X19.7503 Y2.1954
G01 X19.8332 Y2.2571
G01 X19.9172 Y2.3332
G01 X19.9868 Y2.4097
G01 X19.9994 Y2.4250
G01 X20.0550 Y2.5001
G01 X20.0661 Y2.5166
G01 X20.1190 Y2.6054
G01 X20.1634 Y2.6987
G01 X20.1710 Y2.7170
G01 X20.2025 Y2.8050
G01 X20.2082 Y2.8240
G01 X20.2331 Y2.9244
G01 X20.2498 Y3.0364
G01 X20.2553 Y3.1496
G01 X20.2511 Y3.2414
G01 X21.6415 Y4.2927
G01 X24.9205 Y3.0911
G01 X24.9235 Y3.0708
G01 X24.9255 Y3.0611
G01 X24.9533 Y2.9508
G01 X24.9897 Y2.8482
G01 X24.9973 Y2.8299
G01 X25.0441 Y2.7316
G01 X25.0998 Y2.6381
G01 X25.1108 Y2.6216
G01 X25.1758 Y2.5344
G01 X25.2488 Y2.4536
G01 X25.2628 Y2.4396
G01 X25.3436 Y2.3666
G01 X25.4308 Y2.3016
G01 X25.4473 Y2.2906
G01 X25.5408 Y2.2349
G01 X25.6481 Y2.1841
G01 X25.7600 Y2.1441
G01 X25.8751 Y2.1152
G01 X25.9926 Y2.0978
G01 X26.1112 Y2.0920
G01 X26.2298 Y2.0978
G01 X26.3473 Y2.1152
G01 X26.4624 Y2.1441
G01 X26.5696 Y2.1822
G01 X26.5833 Y2.1881
G01 X26.6727 Y2.2304
G01 X26.6902 Y2.2397
G01 X26.7834 Y2.2959
G01 X26.8710 Y2.3605
G01 X26.8863 Y2.3731
G01 X26.9668 Y2.4464
G01 X27.0401 Y2.5269
G01 X27.0527 Y2.5422
G01 X27.1173 Y2.6298
G01 X27.1735 Y2.7230
G01 X27.1828 Y2.7405
G01 X27.2291 Y2.8389
G01 X27.2691 Y2.9508
G01 X27.2958 Y3.0563
G01 X27.2997 Y3.0757
G01 X27.3154 Y3.1834
G01 X27.3210 Y3.2921
G01 X27.3210 Y3.3119
G01 X27.3154 Y3.4206
G01 X27.2997 Y3.5283
G01 X27.2958 Y3.5477
G01 X27.2691 Y3.6532
G01 X27.2327 Y3.7558
G01 X27.2251 Y3.7741
G01 X27.1783 Y3.8724
G01 X27.1226 Y3.9659
G01 X27.1116 Y3.9824
G01 X27.0466 Y4.0696
G01 X26.9736 Y4.1504
G01 X26.9596 Y4.1644
G01 X26.8788 Y4.2374
G01 X26.7916 Y4.3024
G01 X26.7751 Y4.3134
G01 X26.6902 Y4.3643
G01 X26.6727 Y4.3736
G01 X26.5743 Y4.4199
G01 X26.4624 Y4.4599
G01 X26.3473 Y4.4888
G01 X26.2396 Y4.5050
G01 X26.2199 Y4.5069
G01 X26.1211 Y4.5118
G01 X26.1013 Y4.5118
G01 X25.9926 Y4.5062
G01 X25.8751 Y4.4888
G01 X25.7600 Y4.4599
G01 X25.6574 Y4.4235
G01 X25.6391 Y4.4159
G01 X25.5497 Y4.3736
G01 X25.5322 Y4.3643
G01 X25.4390 Y4.3081
G01 X25.3514 Y4.2435
G01 X25.3395 Y4.2339
G01 X22.1690 Y5.3958
G01 X22.6548 Y15.2958
G01 X22.7394 Y15.3469
G01 X22.8226 Y15.4082
G01 X22.8379 Y15.4208
G01 X22.9072 Y15.4836
G01 X22.9212 Y15.4976
G01 X22.9905 Y15.5744
G01 X23.0579 Y15.6654
G01 X23.1113 Y15.7539
G01 X23.1207 Y15.7714
G01 X23.1646 Y15.8650
G01 X23.1997 Y15.9622
G01 X23.2054 Y15.9812
G01 X23.2303 Y16.0816
G01 X23.2457 Y16.1838
G01 X23.2477 Y16.2035
G01 X23.2523 Y16.2969
G01 X23.2523 Y16.3167
G01 X23.2470 Y16.4200
G01 X23.2320 Y16.5223
G01 X23.2282 Y16.5417
G01 X23.2028 Y16.6419
G01 X23.1646 Y16.7486
G01 X23.1207 Y16.8422
G01 X23.1113 Y16.8597
G01 X23.0579 Y16.9482
G01 X22.9966 Y17.0314
G01 X22.9840 Y17.0467
G01 X22.9144 Y17.1232
G01 X22.8304 Y17.1993
G01 X22.7394 Y17.2667
G01 X22.6422 Y17.3250
G01 X22.5398 Y17.3734
G01 X22.4331 Y17.4116
G01 X22.3232 Y17.4391
G01 X22.2112 Y17.4558
G01 X22.0980 Y17.4613
G01 X21.9848 Y17.4558
G01 X21.8728 Y17.4391
G01 X21.7629 Y17.4116
G01 X21.6562 Y17.3734
G01 X21.5538 Y17.3250
G01 X21.4566 Y17.2667
G01 X21.3656 Y17.1993
G01 X21.2816 Y17.1232
G01 X21.2055 Y17.0392
G01 X21.1381 Y16.9482
G01 X21.0798 Y16.8510
G01 X21.0314 Y16.7486
G01 X20.9932 Y16.6419
